;FLAVOR:Marlin
;TIME:13294
;Filament used: 14.0424m
;Layer height: 0.3
;MINX:56.116
;MINY:69.944
;MINZ:0.3
;MAXX:165.964
;MAXY:149.589
;MAXZ:55.8
;Generated with Cura_SteamEngine 4.4.0
M140 S60
M105
M190 S60
M104 S260
M105
M109 S260
M82 ;absolute extrusion mode
M201 X500.00 Y500.00 Z100.00 E5000.00 ;Setup machine max acceleration
M203 X500.00 Y500.00 Z10.00 E50.00 ;Setup machine max feedrate
M204 P500.00 R1000.00 T500.00 ;Setup Print/Retract/Travel acceleration
M205 X8.00 Y8.00 Z0.40 E5.00 ;Setup Jerk
M220 S100 ;Reset Feedrate
M221 S100 ;Reset Flowrate

G28 ;Home

G92 E0 ;Reset Extruder
G1 Z2.0 F3000 ;Move Z Axis up
G1 X10.1 Y20 Z0.28 F5000.0 ;Move to start position
G1 X10.1 Y200.0 Z0.28 F1500.0 E15 ;Draw the first line
G1 X10.4 Y200.0 Z0.28 F5000.0 ;Move to side a little
G1 X10.4 Y20 Z0.28 F1500.0 E30 ;Draw the second line
G92 E0 ;Reset Extruder
G1 Z2.0 F3000 ;Move Z Axis up

G92 E0
G92 E0
G1 F1500 E-6.5
;LAYER_COUNT:186
;LAYER:0
M107
G0 F6000 X59.141 Y71.578 Z0.3
;TYPE:SKIRT
G1 F1500 E0
G1 F1200 X59.789 Y71.126 E0.03942
G1 X60.479 Y70.743 E0.07879
G1 X61.204 Y70.431 E0.11817
G1 X61.958 Y70.194 E0.1576
G1 X62.731 Y70.035 E0.19697
G1 X63.517 Y69.954 E0.23639
G1 X63.917 Y69.944 E0.25635
G1 X146.835 Y69.944 E4.39315
G1 X147.624 Y69.984 E4.43256
G1 X148.404 Y70.103 E4.47193
G1 X149.169 Y70.301 E4.51135
G1 X149.909 Y70.575 E4.55072
G1 X150.697 Y70.967 E4.59463
G1 X151.169 Y71.236 E4.62173
G1 X151.353 Y71.344 E4.63238
G1 X151.775 Y71.6 E4.657
G1 X151.95 Y71.71 E4.66731
G1 X152.34 Y71.961 E4.69045
G1 X152.505 Y72.07 E4.70032
G1 X152.855 Y72.308 E4.72144
G1 X153.056 Y72.449 E4.73368
G1 X153.371 Y72.678 E4.75311
G1 X153.514 Y72.785 E4.76202
G1 X153.792 Y72.997 E4.77947
G1 X154.005 Y73.165 E4.793
G1 X154.254 Y73.369 E4.80906
G1 X154.38 Y73.475 E4.81728
G1 X154.587 Y73.652 E4.83086
G1 X154.766 Y73.81 E4.84277
G1 X154.954 Y73.981 E4.85545
G1 X155.221 Y74.236 E4.87387
G1 X155.626 Y74.641 E4.90245
G1 X155.916 Y74.946 E4.92345
G1 X156.144 Y75.2 E4.94047
G1 X156.376 Y75.471 E4.95827
G1 X156.592 Y75.735 E4.97529
G1 X156.846 Y76.062 E4.99595
G1 X157.041 Y76.328 E5.0124
G1 X157.236 Y76.608 E5.02942
G1 X157.425 Y76.891 E5.0464
G1 X157.649 Y77.247 E5.06739
G1 X157.825 Y77.544 E5.08461
G1 X158.014 Y77.882 E5.10393
G1 X158.178 Y78.193 E5.12147
G1 X158.343 Y78.523 E5.13988
G1 X158.491 Y78.839 E5.15729
G1 X158.629 Y79.153 E5.1744
G1 X158.772 Y79.497 E5.19299
G1 X158.878 Y79.766 E5.20741
G1 X159.013 Y80.128 E5.22669
G1 X159.112 Y80.41 E5.2416
G1 X159.239 Y80.795 E5.26182
G1 X159.326 Y81.074 E5.2764
G1 X159.574 Y81.933 E5.32101
G1 X159.653 Y82.23 E5.33634
G1 X159.851 Y83.033 E5.3776
G1 X159.902 Y83.252 E5.38882
G1 X160.189 Y84.58 E5.45661
G1 X160.227 Y84.766 E5.46608
G1 X160.553 Y86.474 E5.55283
G1 X160.572 Y86.581 E5.55825
G1 X160.952 Y88.736 E5.66742
G1 X160.975 Y88.874 E5.6744
G1 X162.423 Y98.042 E6.13746
G1 X162.436 Y98.123 E6.14156
G1 X162.9 Y101.275 E6.30051
G1 X162.905 Y101.313 E6.30242
G1 X163.29 Y104.02 E6.43883
G1 X163.296 Y104.06 E6.44085
G1 X163.684 Y106.895 E6.5836
G1 X163.69 Y106.941 E6.58592
G1 X164.07 Y109.845 E6.73204
G1 X164.076 Y109.892 E6.7344
G1 X164.443 Y112.835 E6.88236
G1 X164.45 Y112.894 E6.88533
G1 X164.794 Y115.836 E7.0331
G1 X164.799 Y115.878 E7.03521
G1 X164.963 Y117.35 E7.10911
G1 X164.97 Y117.412 E7.11222
G1 X165.118 Y118.843 E7.18399
G1 X165.121 Y118.872 E7.18545
G1 X165.264 Y120.307 E7.2574
G1 X165.268 Y120.353 E7.2597
G1 X165.399 Y121.753 E7.32985
G1 X165.404 Y121.806 E7.33251
G1 X165.525 Y123.202 E7.40241
G1 X165.53 Y123.268 E7.40572
G1 X165.641 Y124.688 E7.47678
G1 X165.646 Y124.758 E7.48028
G1 X165.745 Y126.191 E7.55194
G1 X165.751 Y126.277 E7.55624
G1 X165.834 Y127.706 E7.62766
G1 X165.839 Y127.813 E7.633
G1 X165.902 Y129.235 E7.70401
G1 X165.907 Y129.355 E7.71
G1 X165.947 Y130.739 E7.77908
G1 X165.949 Y130.85 E7.78462
G1 X165.959 Y131.532 E7.81865
G1 X165.96 Y131.599 E7.82199
G1 X165.964 Y132.259 E7.85492
G1 X165.964 Y132.342 E7.85906
G1 X165.961 Y132.996 E7.89169
G1 X165.96 Y133.106 E7.89718
G1 X165.948 Y133.745 E7.92906
G1 X165.944 Y133.865 E7.93505
G1 X165.923 Y134.48 E7.96575
G1 X165.918 Y134.604 E7.97195
G1 X165.888 Y135.203 E8.00187
G1 X165.881 Y135.323 E8.00786
G1 X165.843 Y135.903 E8.03686
G1 X165.83 Y136.08 E8.04572
G1 X165.781 Y136.634 E8.07346
G1 X165.764 Y136.805 E8.08204
G1 X165.706 Y137.329 E8.10834
G1 X165.683 Y137.514 E8.11764
G1 X165.617 Y138.003 E8.14226
G1 X165.581 Y138.24 E8.15422
G1 X165.505 Y138.697 E8.17733
G1 X165.462 Y138.936 E8.18944
G1 X165.377 Y139.364 E8.21121
G1 X165.315 Y139.646 E8.22562
G1 X165.222 Y140.038 E8.24572
G1 X165.145 Y140.339 E8.26122
G1 X165.044 Y140.7 E8.27992
G1 X164.918 Y141.104 E8.30104
G1 X164.805 Y141.437 E8.31858
G1 X164.666 Y141.815 E8.33867
G1 X164.547 Y142.114 E8.35473
G1 X164.333 Y142.604 E8.3814
G1 X164.203 Y142.875 E8.3964
G1 X163.926 Y143.399 E8.42597
G1 X163.776 Y143.659 E8.44094
G1 X163.33 Y144.346 E8.48181
G1 X163.152 Y144.591 E8.49692
G1 X162.488 Y145.388 E8.54867
G1 X162.284 Y145.602 E8.56342
G1 X161.711 Y146.145 E8.60281
G1 X161.301 Y146.473 E8.629
G1 X161.065 Y146.649 E8.64369
G1 X160.409 Y147.088 E8.68307
G1 X159.751 Y147.44 E8.7203
G1 X159.486 Y147.566 E8.73494
G1 X158.757 Y147.869 E8.77432
G1 X157.829 Y148.136 E8.8225
G1 X157.541 Y148.2 E8.83722
G1 X156.762 Y148.332 E8.87664
G1 X155.975 Y148.385 E8.91599
G1 X155.376 Y148.372 E8.94588
G1 X154.44 Y148.315 E8.99267
G1 X153.546 Y148.502 E9.03823
G1 X149.259 Y149.417 E9.25693
G1 X148.479 Y149.543 E9.29635
G1 X147.691 Y149.589 E9.33573
G1 X146.902 Y149.555 E9.37513
G1 X146.121 Y149.441 E9.41451
G1 X145.355 Y149.249 E9.4539
G1 X144.612 Y148.981 E9.49331
G1 X143.9 Y148.639 E9.53272
G1 X143.227 Y148.227 E9.57208
G1 X142.598 Y147.748 E9.61153
G1 X142.022 Y147.209 E9.65089
G1 X141.502 Y146.614 E9.69031
G1 X141.046 Y145.97 E9.72968
G1 X140.657 Y145.282 E9.76911
G1 X140.34 Y144.559 E9.80849
G1 X140.006 Y143.433 E9.86709
G1 X139.893 Y142.909 E9.89383
G1 X139.888 Y142.886 E9.89501
G1 X136.757 Y128.151 E10.64655
G1 X105.085 Y124.262 E12.23854
G1 X104.307 Y124.126 E12.27794
G1 X103.547 Y123.912 E12.31734
G1 X102.813 Y123.623 E12.35669
G1 X102.111 Y123.26 E12.39612
G1 X101.449 Y122.829 E12.43553
G1 X100.835 Y122.333 E12.47491
G1 X100.274 Y121.777 E12.51431
G1 X99.772 Y121.168 E12.55369
G1 X99.334 Y120.511 E12.59308
G1 X98.965 Y119.812 E12.63252
G1 X98.668 Y119.081 E12.67188
G1 X98.447 Y118.323 E12.71127
G1 X98.304 Y117.546 E12.75069
G1 X98.24 Y116.759 E12.79008
G1 X98.255 Y115.969 E12.8295
G1 X98.294 Y115.569 E12.84955
G1 X98.66 Y112.591 E12.99924
G1 X98.796 Y111.813 E13.03865
G1 X99.01 Y111.052 E13.07809
G1 X99.3 Y110.318 E13.11746
G1 X99.662 Y109.616 E13.15687
G1 X100.093 Y108.955 E13.19623
G1 X100.59 Y108.34 E13.23568
G1 X101.145 Y107.779 E13.27505
G1 X101.755 Y107.277 E13.31447
G1 X102.412 Y106.84 E13.35383
G1 X103.11 Y106.471 E13.39322
G1 X103.842 Y106.174 E13.43264
G1 X104.6 Y105.953 E13.47203
G1 X105.377 Y105.81 E13.51144
G1 X106.164 Y105.746 E13.55084
G1 X106.953 Y105.762 E13.59021
G1 X107.353 Y105.8 E13.61025
G1 X134.135 Y109.089 E14.95645
G1 X134.223 Y108.855 E14.96892
G1 X134.432 Y108.351 E14.99614
G1 X134.771 Y107.638 E15.03553
G1 X135 Y107.242 E15.05835
G1 X135.2 Y106.918 E15.07735
G1 X135.574 Y106.366 E15.11061
G1 X135.816 Y106.04 E15.13087
G1 X136.104 Y105.675 E15.15407
G1 X136.386 Y105.339 E15.17595
G1 X136.55 Y105.15 E15.18844
G1 X137.516 Y104.071 E15.26069
G1 X137.76 Y103.783 E15.27952
G1 X137.837 Y103.686 E15.2857
G1 X137.966 Y103.519 E15.29623
G1 X138.041 Y103.415 E15.30262
G1 X138.152 Y103.256 E15.3123
G1 X138.216 Y103.159 E15.3181
G1 X138.274 Y103.065 E15.32361
G1 X138.377 Y102.885 E15.33395
G1 X138.443 Y102.76 E15.34101
G1 X138.518 Y102.608 E15.34946
G1 X138.584 Y102.462 E15.35745
G1 X138.652 Y102.297 E15.36636
G1 X138.687 Y102.198 E15.3716
G1 X138.757 Y101.984 E15.38283
G1 X138.82 Y101.769 E15.39401
G1 X138.859 Y101.62 E15.40169
G1 X138.894 Y101.461 E15.40981
G1 X138.938 Y101.232 E15.42145
G1 X138.963 Y101.076 E15.42933
G1 X138.991 Y100.866 E15.4399
G1 X139.01 Y100.695 E15.44848
G1 X139.038 Y100.275 E15.46948
G1 X139.046 Y99.888 E15.4888
G1 X139.039 Y99.495 E15.50841
G1 X139.015 Y99.116 E15.52735
G1 X138.972 Y98.711 E15.54767
G1 X138.912 Y98.302 E15.56829
G1 X138.833 Y97.895 E15.58898
G1 X138.733 Y97.48 E15.61028
G1 X138.616 Y97.081 E15.63102
G1 X138.481 Y96.689 E15.6517
G1 X138.329 Y96.309 E15.67212
G1 X138.148 Y95.918 E15.69362
G1 X137.969 Y95.582 E15.71261
G1 X137.763 Y95.238 E15.73262
G1 X137.548 Y94.919 E15.75181
G1 X137.325 Y94.626 E15.77018
G1 X137.083 Y94.343 E15.78876
G1 X136.815 Y94.06 E15.8082
G1 X136.534 Y93.798 E15.82737
G1 X136.222 Y93.536 E15.84769
G1 X135.913 Y93.304 E15.86697
G1 X135.567 Y93.07 E15.88781
G1 X135.196 Y92.847 E15.90941
G1 X134.803 Y92.634 E15.93171
G1 X134.379 Y92.43 E15.95518
G1 X133.939 Y92.241 E15.97907
G1 X133.489 Y92.07 E16.00309
G1 X132.946 Y91.889 E16.03165
G1 X132.463 Y91.746 E16.05678
G1 X131.893 Y91.601 E16.08612
G1 X131.319 Y91.474 E16.11545
G1 X130.759 Y91.367 E16.14389
G1 X130.155 Y91.273 E16.17439
G1 X129.531 Y91.191 E16.20579
G1 X128.894 Y91.125 E16.23774
G1 X128.253 Y91.074 E16.26982
G1 X127.749 Y91.045 E16.29501
G1 X124.88 Y91.044 E16.43814
G1 X63.916 Y91.044 E19.47965
G1 X63.127 Y91.004 E19.51906
G1 X62.347 Y90.885 E19.55843
G1 X61.582 Y90.687 E19.59785
G1 X60.842 Y90.413 E19.63722
G1 X60.133 Y90.065 E19.67662
G1 X59.462 Y89.647 E19.71606
G1 X58.838 Y89.164 E19.75543
G1 X58.265 Y88.621 E19.79481
G1 X57.75 Y88.022 E19.83423
G1 X57.299 Y87.374 E19.87361
G1 X56.915 Y86.683 E19.91305
G1 X56.603 Y85.958 E19.95243
G1 X56.366 Y85.205 E19.99182
G1 X56.207 Y84.431 E20.03124
G1 X56.126 Y83.646 E20.07061
G1 X56.116 Y83.243 E20.09072
G1 X56.117 Y77.743 E20.36512
G1 X56.157 Y76.954 E20.40453
G1 X56.277 Y76.173 E20.44395
G1 X56.475 Y75.409 E20.48333
G1 X56.749 Y74.668 E20.52274
G1 X57.097 Y73.959 E20.56215
G1 X57.514 Y73.289 E20.60152
G1 X57.998 Y72.665 E20.64092
G1 X58.542 Y72.092 E20.68033
G1 X59.141 Y71.578 E20.71971
G0 F6000 X59.529 Y71.785
G1 F1200 X60.171 Y71.362 E20.75807
G1 X60.854 Y71.008 E20.79645
G1 X61.57 Y70.726 E20.83484
G1 X62.311 Y70.52 E20.87321
G1 X63.069 Y70.393 E20.91156
G1 X63.917 Y70.344 E20.95393
G1 X146.835 Y70.344 E25.09073
G1 X147.603 Y70.384 E25.1291
G1 X148.363 Y70.503 E25.16748
G1 X149.106 Y70.701 E25.20584
G1 X149.825 Y70.975 E25.24423
G1 X150.499 Y71.315 E25.28189
G1 X150.971 Y71.584 E25.30899
G1 X151.145 Y71.686 E25.31905
G1 X151.567 Y71.942 E25.34368
G1 X151.734 Y72.046 E25.35349
G1 X152.124 Y72.297 E25.37663
G1 X152.28 Y72.401 E25.38599
G1 X152.63 Y72.639 E25.4071
G1 X152.82 Y72.773 E25.4187
G1 X153.135 Y73.002 E25.43813
G1 X153.271 Y73.103 E25.44658
G1 X153.549 Y73.315 E25.46402
G1 X153.752 Y73.475 E25.47692
G1 X154.001 Y73.679 E25.49298
G1 X154.12 Y73.779 E25.50073
G1 X154.327 Y73.956 E25.51432
G1 X154.497 Y74.106 E25.52563
G1 X154.685 Y74.277 E25.53831
G1 X154.939 Y74.518 E25.55578
G1 X155.344 Y74.923 E25.58436
G1 X155.618 Y75.213 E25.60426
G1 X155.846 Y75.467 E25.62129
G1 X156.066 Y75.724 E25.63817
G1 X156.282 Y75.988 E25.65518
G1 X156.523 Y76.299 E25.67481
G1 X156.718 Y76.565 E25.69127
G1 X156.904 Y76.83 E25.70742
G1 X157.093 Y77.113 E25.7244
G1 X157.305 Y77.45 E25.74426
G1 X157.481 Y77.747 E25.76149
G1 X157.661 Y78.068 E25.77985
G1 X157.825 Y78.379 E25.79739
G1 X157.98 Y78.692 E25.81481
G1 X158.128 Y79.008 E25.83222
G1 X158.26 Y79.306 E25.84848
G1 X158.403 Y79.65 E25.86707
G1 X158.504 Y79.905 E25.88075
G1 X158.639 Y80.267 E25.90003
G1 X158.733 Y80.535 E25.9142
G1 X158.86 Y80.92 E25.93442
G1 X158.942 Y81.185 E25.94826
G1 X159.19 Y82.044 E25.99287
G1 X159.265 Y82.325 E26.00738
G1 X159.463 Y83.128 E26.04864
G1 X159.511 Y83.337 E26.05934
G1 X159.798 Y84.665 E26.12712
G1 X159.834 Y84.841 E26.13608
G1 X160.16 Y86.549 E26.22283
G1 X160.179 Y86.651 E26.22801
G1 X160.559 Y88.806 E26.33718
G1 X160.58 Y88.937 E26.3438
G1 X162.028 Y98.105 E26.80687
G1 X162.04 Y98.181 E26.8107
G1 X162.504 Y101.333 E26.96965
G1 X162.509 Y101.369 E26.97147
G1 X162.894 Y104.076 E27.10788
G1 X162.9 Y104.115 E27.10985
G1 X163.288 Y106.95 E27.2526
G1 X163.293 Y106.993 E27.25476
G1 X163.673 Y109.897 E27.40088
G1 X163.679 Y109.941 E27.4031
G1 X164.046 Y112.884 E27.55106
G1 X164.053 Y112.941 E27.55392
G1 X164.397 Y115.883 E27.7017
G1 X164.401 Y115.923 E27.70371
G1 X164.565 Y117.395 E27.7776
G1 X164.572 Y117.453 E27.78051
G1 X164.72 Y118.884 E27.85229
G1 X164.723 Y118.911 E27.85364
G1 X164.866 Y120.346 E27.92559
G1 X164.87 Y120.391 E27.92784
G1 X165.001 Y121.791 E27.998
G1 X165.005 Y121.841 E28.0005
G1 X165.126 Y123.237 E28.07041
G1 X165.131 Y123.299 E28.07351
G1 X165.242 Y124.719 E28.14457
G1 X165.247 Y124.786 E28.14792
G1 X165.346 Y126.219 E28.21958
G1 X165.352 Y126.3 E28.22364
G1 X165.435 Y127.729 E28.29505
G1 X165.44 Y127.83 E28.30009
G1 X165.503 Y129.252 E28.37111
G1 X165.507 Y129.366 E28.3768
G1 X165.547 Y130.75 E28.44588
G1 X165.549 Y130.856 E28.45117
G1 X165.559 Y131.538 E28.48519
G1 X165.56 Y131.601 E28.48834
G1 X165.564 Y132.261 E28.52127
G1 X165.564 Y132.34 E28.52521
G1 X165.561 Y132.994 E28.55784
G1 X165.56 Y133.099 E28.56307
G1 X165.548 Y133.738 E28.59496
G1 X165.545 Y133.852 E28.60065
G1 X165.524 Y134.467 E28.63135
G1 X165.519 Y134.584 E28.63719
G1 X165.489 Y135.183 E28.66711
G1 X165.482 Y135.297 E28.67281
G1 X165.444 Y135.877 E28.70181
G1 X165.431 Y136.045 E28.71022
G1 X165.382 Y136.599 E28.73796
G1 X165.366 Y136.761 E28.74609
G1 X165.308 Y137.285 E28.77239
G1 X165.287 Y137.461 E28.78123
G1 X165.221 Y137.95 E28.80585
G1 X165.187 Y138.174 E28.81715
G1 X165.111 Y138.631 E28.84026
G1 X165.069 Y138.858 E28.85178
G1 X164.984 Y139.286 E28.87355
G1 X164.926 Y139.553 E28.88718
G1 X164.833 Y139.945 E28.90728
G1 X164.759 Y140.231 E28.92202
G1 X164.658 Y140.592 E28.94072
G1 X164.54 Y140.976 E28.96077
G1 X164.427 Y141.309 E28.97831
G1 X164.294 Y141.667 E28.99736
G1 X164.175 Y141.966 E29.01342
G1 X163.972 Y142.431 E29.03873
G1 X163.842 Y142.702 E29.05373
G1 X163.58 Y143.199 E29.08176
G1 X163.43 Y143.459 E29.09673
G1 X163.007 Y144.111 E29.13551
G1 X162.829 Y144.356 E29.15061
G1 X162.198 Y145.112 E29.19974
G1 X161.994 Y145.326 E29.21449
G1 X161.435 Y145.854 E29.25286
G1 X161.062 Y146.152 E29.27667
G1 X160.826 Y146.328 E29.29136
G1 X160.186 Y146.755 E29.32975
G1 X159.58 Y147.079 E29.36403
G1 X159.315 Y147.205 E29.37867
G1 X158.604 Y147.499 E29.41705
G1 X157.742 Y147.746 E29.46179
G1 X157.454 Y147.81 E29.47651
G1 X156.696 Y147.937 E29.51485
G1 X155.928 Y147.986 E29.55325
G1 X155.401 Y147.972 E29.57955
G1 X154.416 Y147.912 E29.62878
G1 X153.431 Y148.118 E29.67899
G1 X149.176 Y149.026 E29.89605
G1 X148.416 Y149.147 E29.93444
G1 X147.648 Y149.189 E29.97282
G1 X146.88 Y149.151 E30.01118
G1 X146.12 Y149.033 E30.04955
G1 X145.376 Y148.837 E30.08793
G1 X144.657 Y148.565 E30.12629
G1 X143.969 Y148.22 E30.16468
G1 X143.322 Y147.805 E30.20303
G1 X142.72 Y147.325 E30.24144
G1 X142.172 Y146.785 E30.27983
G1 X141.683 Y146.192 E30.31817
G1 X141.258 Y145.551 E30.35654
G1 X140.902 Y144.869 E30.39493
G1 X140.619 Y144.154 E30.43329
G1 X140.397 Y143.349 E30.47495
G1 X140.284 Y142.825 E30.50169
G1 X140.28 Y142.803 E30.50281
G1 X137.089 Y127.789 E31.26859
G1 X105.134 Y123.865 E32.87481
G1 X104.377 Y123.732 E32.91315
G1 X103.637 Y123.52 E32.95156
G1 X102.923 Y123.234 E32.98993
G1 X102.243 Y122.874 E33.02832
G1 X101.604 Y122.446 E33.06669
G1 X101.013 Y121.954 E33.10505
G1 X100.476 Y121.403 E33.14344
G1 X99.999 Y120.8 E33.1818
G1 X99.588 Y120.15 E33.22016
G1 X99.246 Y119.461 E33.25854
G1 X98.977 Y118.741 E33.29689
G1 X98.785 Y117.996 E33.33527
G1 X98.671 Y117.235 E33.37366
G1 X98.636 Y116.467 E33.41201
G1 X98.691 Y115.617 E33.45451
G1 X99.057 Y112.639 E33.6042
G1 X99.191 Y111.882 E33.64255
G1 X99.402 Y111.142 E33.68094
G1 X99.689 Y110.429 E33.71929
G1 X100.048 Y109.749 E33.75765
G1 X100.476 Y109.11 E33.79602
G1 X100.968 Y108.518 E33.83443
G1 X101.519 Y107.982 E33.87278
G1 X102.123 Y107.505 E33.91117
G1 X102.773 Y107.093 E33.94957
G1 X103.462 Y106.751 E33.98794
G1 X104.182 Y106.483 E34.02627
G1 X104.927 Y106.29 E34.06467
G1 X105.688 Y106.177 E34.10305
G1 X106.456 Y106.142 E34.14141
G1 X107.304 Y106.197 E34.1838
G1 X134.404 Y109.525 E35.54598
