;FLAVOR:Marlin
;TIME:16451
;Filament used: 16.789m
;Layer height: 0.3
;MINX:44.394
;MINY:66.761
;MINZ:0.32
;MAXX:161.645
;MAXY:145.634
;MAXZ:55.82
;Generated with Cura_SteamEngine 4.4.0
M140 S60
M105
M190 S60
M104 S260
M105
M109 S260
M82 ;absolute extrusion mode
M201 X500.00 Y500.00 Z100.00 E5000.00 ;Setup machine max acceleration
M203 X500.00 Y500.00 Z10.00 E50.00 ;Setup machine max feedrate
M204 P500.00 R1000.00 T500.00 ;Setup Print/Retract/Travel acceleration
M205 X8.00 Y8.00 Z0.40 E5.00 ;Setup Jerk
M220 S100 ;Reset Feedrate
M221 S100 ;Reset Flowrate

G28 ;Home

G92 E0 ;Reset Extruder
G1 Z2.0 F3000 ;Move Z Axis up
G1 X10.1 Y20 Z0.28 F5000.0 ;Move to start position
G1 X10.1 Y200.0 Z0.28 F1500.0 E15 ;Draw the first line
G1 X10.4 Y200.0 Z0.28 F5000.0 ;Move to side a little
G1 X10.4 Y20 Z0.28 F1500.0 E30 ;Draw the second line
G92 E0 ;Reset Extruder
G1 Z2.0 F3000 ;Move Z Axis up

G92 E0
G92 E0
G1 F1500 E-6.5
;LAYER_COUNT:186
;LAYER:0
M107
G0 F6000 X52.929 Y68.395 Z0.32
;TYPE:SKIRT
G1 F1500 E0
G1 F1200 X53.577 Y67.944 E0.04201
G1 X54.268 Y67.56 E0.08408
G1 X54.993 Y67.248 E0.12609
G1 X55.746 Y67.011 E0.1681
G1 X56.52 Y66.852 E0.21014
G1 X57.305 Y66.771 E0.25214
G1 X57.707 Y66.761 E0.27354
G1 X140.655 Y66.761 E4.68772
G1 X141.444 Y66.801 E4.72976
G1 X142.224 Y66.92 E4.77175
G1 X142.989 Y67.118 E4.8138
G1 X143.729 Y67.392 E4.85579
G1 X144.565 Y67.812 E4.90558
G1 X145.057 Y68.097 E4.93584
G1 X145.212 Y68.189 E4.94543
G1 X145.646 Y68.454 E4.97249
G1 X145.814 Y68.559 E4.98304
G1 X146.218 Y68.82 E5.00863
G1 X146.41 Y68.949 E5.02094
G1 X146.77 Y69.197 E5.04421
G1 X146.947 Y69.322 E5.05574
G1 X147.27 Y69.558 E5.07702
G1 X147.443 Y69.689 E5.08857
G1 X147.731 Y69.912 E5.10796
G1 X147.915 Y70.058 E5.12046
G1 X148.17 Y70.268 E5.13804
G1 X148.328 Y70.402 E5.14906
G1 X148.542 Y70.588 E5.16415
G1 X148.714 Y70.742 E5.17644
G1 X148.908 Y70.921 E5.19048
G1 X149.1 Y71.104 E5.2046
G1 X149.261 Y71.263 E5.21664
G1 X149.432 Y71.438 E5.22966
G1 X149.704 Y71.724 E5.25066
G1 X149.973 Y72.021 E5.27199
G1 X150.214 Y72.302 E5.29169
G1 X150.474 Y72.622 E5.31363
G1 X150.688 Y72.9 E5.3323
G1 X150.906 Y73.198 E5.35195
G1 X151.097 Y73.472 E5.36972
G1 X151.351 Y73.861 E5.39445
G1 X151.515 Y74.129 E5.41117
G1 X151.662 Y74.378 E5.42655
G1 X151.816 Y74.652 E5.44328
G1 X152.007 Y75.015 E5.46511
G1 X152.149 Y75.302 E5.48215
G1 X152.275 Y75.569 E5.49786
G1 X152.41 Y75.87 E5.51542
G1 X152.542 Y76.181 E5.5334
G1 X152.664 Y76.488 E5.55098
G1 X152.742 Y76.693 E5.56265
G1 X152.864 Y77.027 E5.58157
G1 X152.962 Y77.315 E5.59776
G1 X153.145 Y77.884 E5.62957
G1 X153.216 Y78.115 E5.64243
G1 X153.355 Y78.598 E5.66917
G1 X153.412 Y78.808 E5.68075
G1 X153.643 Y79.704 E5.73
G1 X153.693 Y79.908 E5.74117
G1 X154.069 Y81.548 E5.83071
G1 X154.109 Y81.732 E5.84073
G1 X155.332 Y87.726 E6.16628
G1 X155.348 Y87.809 E6.17078
G1 X156.961 Y96.179 E6.6244
G1 X156.968 Y96.218 E6.6265
G1 X157.432 Y98.693 E6.76051
G1 X157.437 Y98.717 E6.76181
G1 X157.898 Y101.22 E6.89725
G1 X157.903 Y101.249 E6.89882
G1 X158.361 Y103.79 E7.03622
G1 X158.367 Y103.823 E7.03801
G1 X158.815 Y106.37 E7.17563
G1 X158.823 Y106.417 E7.17817
G1 X159.466 Y110.21 E7.3829
G1 X159.477 Y110.277 E7.38651
G1 X159.872 Y112.737 E7.5191
G1 X159.882 Y112.801 E7.52254
G1 X160.243 Y115.174 E7.65028
G1 X160.251 Y115.228 E7.65318
G1 X160.419 Y116.387 E7.71551
G1 X160.425 Y116.427 E7.71766
G1 X160.583 Y117.558 E7.77843
G1 X160.589 Y117.601 E7.78074
G1 X160.737 Y118.705 E7.84002
G1 X160.744 Y118.757 E7.84281
G1 X160.886 Y119.874 E7.90273
G1 X160.891 Y119.917 E7.90503
G1 X161.029 Y121.053 E7.96593
G1 X161.042 Y121.169 E7.97214
G1 X161.285 Y123.454 E8.09443
G1 X161.298 Y123.583 E8.10133
G1 X161.401 Y124.733 E8.16277
G1 X161.41 Y124.841 E8.16854
G1 X161.495 Y125.966 E8.22858
G1 X161.503 Y126.086 E8.23498
G1 X161.569 Y127.184 E8.29352
G1 X161.577 Y127.337 E8.30167
G1 X161.62 Y128.4 E8.35828
G1 X161.624 Y128.521 E8.36473
G1 X161.637 Y129.043 E8.39251
G1 X161.638 Y129.145 E8.39794
G1 X161.644 Y129.653 E8.42498
G1 X161.645 Y129.745 E8.42987
G1 X161.645 Y130.235 E8.45595
G1 X161.644 Y130.366 E8.46292
G1 X161.636 Y130.842 E8.48826
G1 X161.632 Y130.998 E8.49656
G1 X161.615 Y131.46 E8.52116
G1 X161.609 Y131.594 E8.5283
G1 X161.585 Y132.038 E8.55196
G1 X161.574 Y132.208 E8.56103
G1 X161.542 Y132.629 E8.5835
G1 X161.526 Y132.81 E8.59317
G1 X161.486 Y133.212 E8.61467
G1 X161.464 Y133.405 E8.625
G1 X161.417 Y133.782 E8.64522
G1 X161.38 Y134.042 E8.6592
G1 X161.324 Y134.394 E8.67816
G1 X161.284 Y134.623 E8.69054
G1 X161.221 Y134.955 E8.70852
G1 X161.156 Y135.264 E8.72532
G1 X161.085 Y135.57 E8.74204
G1 X161.007 Y135.877 E8.7589
G1 X160.928 Y136.164 E8.77474
G1 X160.824 Y136.51 E8.79396
G1 X160.738 Y136.774 E8.80874
G1 X160.568 Y137.244 E8.83534
G1 X160.472 Y137.485 E8.84914
G1 X160.316 Y137.851 E8.87031
G1 X160.216 Y138.069 E8.88308
G1 X159.934 Y138.624 E8.91621
G1 X159.816 Y138.835 E8.92907
G1 X159.392 Y139.51 E8.97149
G1 X159.253 Y139.708 E8.98437
G1 X158.713 Y140.392 E9.03074
G1 X158.553 Y140.573 E9.0436
G1 X157.725 Y141.38 E9.10513
G1 X157.544 Y141.532 E9.11771
G1 X156.914 Y142.009 E9.15976
G1 X156.531 Y142.253 E9.18392
G1 X156.327 Y142.375 E9.19657
G1 X155.63 Y142.746 E9.23859
G1 X154.987 Y143.012 E9.27562
G1 X154.764 Y143.093 E9.28825
G1 X154.009 Y143.325 E9.33028
G1 X153.404 Y143.452 E9.36318
G1 X153.168 Y143.492 E9.37592
G1 X152.384 Y143.585 E9.41793
G1 X151.898 Y143.602 E9.44381
G1 X151.661 Y143.603 E9.45642
G1 X151.392 Y143.593 E9.47075
G1 X146.282 Y145.253 E9.75667
G1 X145.52 Y145.458 E9.79866
G1 X144.741 Y145.586 E9.84067
G1 X143.952 Y145.634 E9.88274
G1 X143.163 Y145.602 E9.92476
G1 X142.381 Y145.49 E9.9668
G1 X141.615 Y145.3 E10.0088
G1 X140.872 Y145.033 E10.05082
G1 X140.159 Y144.693 E10.09285
G1 X139.485 Y144.282 E10.13486
G1 X138.855 Y143.806 E10.17688
G1 X138.277 Y143.268 E10.2189
G1 X137.756 Y142.674 E10.26095
G1 X137.298 Y142.031 E10.30296
G1 X136.908 Y141.344 E10.345
G1 X136.588 Y140.622 E10.38703
G1 X136.452 Y140.237 E10.40876
G1 X136.283 Y139.715 E10.43795
G1 X136.284 Y139.715 E10.43801
G1 X131.53 Y125.084 E11.25669
G1 X53.12 Y115.458 E15.46069
G1 X53.11 Y115.457 E15.46123
G1 X51.231 Y115.224 E15.56199
G1 X50.453 Y115.087 E15.60403
G1 X49.693 Y114.872 E15.64606
G1 X48.959 Y114.582 E15.68806
G1 X48.258 Y114.219 E15.73007
G1 X47.597 Y113.787 E15.77209
G1 X46.983 Y113.29 E15.81413
G1 X46.423 Y112.733 E15.85616
G1 X45.921 Y112.123 E15.8982
G1 X45.484 Y111.466 E15.94019
G1 X45.116 Y110.767 E15.98223
G1 X44.82 Y110.035 E16.02425
G1 X44.6 Y109.276 E16.0663
G1 X44.458 Y108.5 E16.10828
G1 X44.394 Y107.713 E16.1503
G1 X44.449 Y106.534 E16.21311
G1 X44.814 Y103.557 E16.37272
G1 X44.95 Y102.779 E16.41475
G1 X45.163 Y102.019 E16.45676
G1 X45.453 Y101.284 E16.49881
G1 X45.815 Y100.582 E16.54084
G1 X46.246 Y99.921 E16.58283
G1 X46.742 Y99.306 E16.62488
G1 X47.298 Y98.745 E16.66691
G1 X47.907 Y98.243 E16.70891
G1 X48.564 Y97.805 E16.75093
G1 X49.262 Y97.436 E16.79295
G1 X49.994 Y97.139 E16.83498
G1 X50.752 Y96.917 E16.87702
G1 X51.529 Y96.774 E16.91906
G1 X52.316 Y96.71 E16.96108
G1 X53.105 Y96.725 E17.00307
G1 X53.508 Y96.764 E17.02462
G1 X55.371 Y96.993 E17.12451
G1 X127.951 Y105.905 E21.01595
G1 X127.996 Y105.764 E21.02383
G1 X128.213 Y105.24 E21.05401
G1 X128.365 Y104.908 E21.07344
G1 X128.813 Y104.069 E21.12405
G1 X129.011 Y103.747 E21.14417
G1 X129.397 Y103.177 E21.1808
G1 X129.641 Y102.849 E21.20256
G1 X129.932 Y102.482 E21.22748
G1 X130.214 Y102.147 E21.25079
G1 X130.369 Y101.968 E21.26339
G1 X131.32 Y100.905 E21.33929
G1 X131.593 Y100.582 E21.3618
G1 X131.675 Y100.48 E21.36876
G1 X131.764 Y100.364 E21.37654
G1 X131.87 Y100.219 E21.3861
G1 X131.974 Y100.069 E21.39581
G1 X132.03 Y99.985 E21.40119
G1 X132.12 Y99.838 E21.41036
G1 X132.185 Y99.724 E21.41734
G1 X132.274 Y99.557 E21.42741
G1 X132.326 Y99.451 E21.4337
G1 X132.405 Y99.275 E21.44396
G1 X132.464 Y99.132 E21.45219
G1 X132.524 Y98.964 E21.46169
G1 X132.578 Y98.803 E21.47072
G1 X132.631 Y98.616 E21.48107
G1 X132.675 Y98.448 E21.49031
G1 X132.72 Y98.243 E21.50148
G1 X132.756 Y98.055 E21.51167
G1 X132.774 Y97.942 E21.51775
G1 X132.831 Y97.464 E21.54337
G1 X132.858 Y97.087 E21.56349
G1 X132.866 Y96.704 E21.58387
G1 X132.859 Y96.324 E21.6041
G1 X132.832 Y95.907 E21.62634
G1 X132.794 Y95.533 E21.64634
G1 X132.733 Y95.124 E21.66835
G1 X132.652 Y94.707 E21.69095
G1 X132.556 Y94.311 E21.71264
G1 X132.432 Y93.885 E21.73625
G1 X132.302 Y93.508 E21.75747
G1 X132.144 Y93.116 E21.77996
G1 X131.975 Y92.75 E21.80141
G1 X131.788 Y92.397 E21.82267
G1 X131.583 Y92.054 E21.84394
G1 X131.378 Y91.752 E21.86336
G1 X131.136 Y91.434 E21.88463
G1 X130.895 Y91.151 E21.90441
G1 X130.635 Y90.878 E21.92447
G1 X130.356 Y90.618 E21.94477
G1 X130.055 Y90.364 E21.96573
G1 X129.726 Y90.116 E21.98765
G1 X129.385 Y89.886 E22.00954
G1 X129.016 Y89.664 E22.03246
G1 X128.622 Y89.45 E22.05632
G1 X128.202 Y89.249 E22.08109
G1 X127.763 Y89.06 E22.10653
G1 X127.292 Y88.882 E22.13332
G1 X126.786 Y88.712 E22.16173
G1 X126.28 Y88.564 E22.18979
G1 X125.723 Y88.422 E22.22038
G1 X125.143 Y88.292 E22.25201
G1 X124.579 Y88.186 E22.28255
G1 X123.974 Y88.09 E22.31515
G1 X123.351 Y88.009 E22.34858
G1 X122.713 Y87.942 E22.38272
G1 X122.064 Y87.89 E22.41736
G1 X121.571 Y87.862 E22.44364
G1 X118.496 Y87.861 E22.60728
G1 X57.707 Y87.861 E25.84224
G1 X56.918 Y87.821 E25.88428
G1 X56.138 Y87.702 E25.92627
G1 X55.373 Y87.504 E25.96833
G1 X54.633 Y87.23 E26.01032
G1 X53.924 Y86.882 E26.05235
G1 X53.253 Y86.464 E26.09442
G1 X52.629 Y85.981 E26.13641
G1 X52.056 Y85.438 E26.17842
G1 X51.541 Y84.839 E26.22046
G1 X51.09 Y84.191 E26.26247
G1 X50.706 Y83.5 E26.30454
G1 X50.394 Y82.775 E26.34654
G1 X50.157 Y82.022 E26.38855
G1 X49.998 Y81.248 E26.4306
G1 X49.917 Y80.463 E26.4726
G1 X49.907 Y80.061 E26.494
G1 X49.907 Y74.561 E26.78669
G1 X49.947 Y73.772 E26.82873
G1 X50.066 Y72.992 E26.87072
G1 X50.264 Y72.227 E26.91277
G1 X50.538 Y71.487 E26.95476
G1 X50.886 Y70.778 E26.99679
G1 X51.304 Y70.107 E27.03886
G1 X51.787 Y69.483 E27.08086
G1 X52.33 Y68.91 E27.12287
G1 X52.929 Y68.395 E27.1649
G0 F6000 X53.318 Y68.603
G1 F1200 X53.96 Y68.18 E27.20582
G1 X54.643 Y67.825 E27.24678
G1 X55.358 Y67.544 E27.28766
G1 X56.1 Y67.338 E27.32864
G1 X56.858 Y67.21 E27.36955
G1 X57.707 Y67.161 E27.41481
G1 X140.655 Y67.161 E31.82899
G1 X141.423 Y67.201 E31.86991
G1 X142.183 Y67.32 E31.91085
G1 X142.926 Y67.518 E31.95177
G1 X143.645 Y67.792 E31.99272
G1 X144.364 Y68.158 E32.03565
G1 X144.856 Y68.443 E32.06591
G1 X145.003 Y68.53 E32.075
G1 X145.437 Y68.795 E32.10206
G1 X145.597 Y68.895 E32.1121
G1 X146.001 Y69.156 E32.1377
G1 X146.183 Y69.278 E32.14936
G1 X146.543 Y69.526 E32.17262
G1 X146.711 Y69.645 E32.18358
G1 X147.034 Y69.881 E32.20486
G1 X147.198 Y70.005 E32.21581
G1 X147.486 Y70.228 E32.23519
G1 X147.66 Y70.367 E32.24704
G1 X147.915 Y70.577 E32.26462
G1 X148.065 Y70.704 E32.27508
G1 X148.279 Y70.89 E32.29017
G1 X148.443 Y71.036 E32.30185
G1 X148.637 Y71.215 E32.3159
G1 X148.819 Y71.389 E32.3293
G1 X148.98 Y71.548 E32.34134
G1 X149.142 Y71.713 E32.35365
G1 X149.414 Y71.999 E32.37465
G1 X149.669 Y72.281 E32.39488
G1 X149.91 Y72.562 E32.41458
G1 X150.157 Y72.866 E32.43543
G1 X150.371 Y73.144 E32.4541
G1 X150.578 Y73.426 E32.47271
G1 X150.769 Y73.7 E32.49049
G1 X151.01 Y74.069 E32.51394
G1 X151.174 Y74.337 E32.53066
G1 X151.313 Y74.574 E32.54528
G1 X151.467 Y74.848 E32.56201
G1 X151.649 Y75.192 E32.58272
G1 X151.791 Y75.479 E32.59976
G1 X151.91 Y75.733 E32.61469
G1 X152.045 Y76.034 E32.63224
G1 X152.17 Y76.329 E32.64929
G1 X152.292 Y76.636 E32.66687
G1 X152.366 Y76.83 E32.67792
G1 X152.488 Y77.164 E32.69685
G1 X152.582 Y77.437 E32.71221
G1 X152.765 Y78.006 E32.74402
G1 X152.831 Y78.225 E32.75619
G1 X152.97 Y78.708 E32.78294
G1 X153.025 Y78.908 E32.79398
G1 X153.256 Y79.804 E32.84322
G1 X153.303 Y79.997 E32.85379
G1 X153.679 Y81.637 E32.94333
G1 X153.717 Y81.812 E32.95286
G1 X154.94 Y87.806 E33.27841
G1 X154.955 Y87.885 E33.28269
G1 X156.568 Y96.255 E33.7363
G1 X156.575 Y96.291 E33.73825
G1 X157.039 Y98.766 E33.87226
G1 X157.044 Y98.79 E33.87356
G1 X157.505 Y101.293 E34.009
G1 X157.51 Y101.32 E34.01046
G1 X157.968 Y103.861 E34.14787
G1 X157.973 Y103.892 E34.14954
G1 X158.421 Y106.439 E34.28716
G1 X158.429 Y106.484 E34.28959
G1 X159.072 Y110.277 E34.49432
G1 X159.082 Y110.341 E34.49777
G1 X159.477 Y112.801 E34.63036
G1 X159.487 Y112.861 E34.63359
G1 X159.848 Y115.234 E34.76133
G1 X159.855 Y115.285 E34.76407
G1 X160.023 Y116.444 E34.82639
G1 X160.029 Y116.482 E34.82844
G1 X160.187 Y117.613 E34.88921
G1 X160.192 Y117.654 E34.89141
G1 X160.34 Y118.758 E34.95068
G1 X160.347 Y118.808 E34.95337
G1 X160.489 Y119.925 E35.01329
G1 X160.494 Y119.966 E35.01549
G1 X160.632 Y121.102 E35.07639
G1 X160.645 Y121.211 E35.08223
G1 X160.888 Y123.496 E35.20451
G1 X160.899 Y123.619 E35.21108
G1 X161.002 Y124.769 E35.27253
G1 X161.011 Y124.871 E35.27798
G1 X161.096 Y125.996 E35.33802
G1 X161.104 Y126.11 E35.3441
G1 X161.17 Y127.208 E35.40263
G1 X161.177 Y127.353 E35.41036
G1 X161.22 Y128.416 E35.46698
G1 X161.224 Y128.531 E35.4731
G1 X161.237 Y129.053 E35.50089
G1 X161.238 Y129.15 E35.50605
G1 X161.244 Y129.658 E35.53308
G1 X161.245 Y129.745 E35.53771
G1 X161.245 Y130.235 E35.56379
G1 X161.244 Y130.359 E35.57039
G1 X161.236 Y130.835 E35.59572
G1 X161.232 Y130.983 E35.6036
G1 X161.215 Y131.445 E35.62821
G1 X161.209 Y131.572 E35.63497
G1 X161.185 Y132.016 E35.65863
G1 X161.175 Y132.178 E35.66727
G1 X161.143 Y132.599 E35.68974
G1 X161.128 Y132.771 E35.69893
G1 X161.088 Y133.173 E35.72043
G1 X161.067 Y133.355 E35.73018
G1 X161.02 Y133.732 E35.75039
G1 X160.985 Y133.98 E35.76372
G1 X160.929 Y134.332 E35.78269
G1 X160.891 Y134.549 E35.79441
G1 X160.828 Y134.881 E35.8124
G1 X160.767 Y135.174 E35.82832
G1 X160.696 Y135.48 E35.84504
G1 X160.622 Y135.771 E35.86102
G1 X160.543 Y136.058 E35.87686
G1 X160.444 Y136.386 E35.89509
G1 X160.358 Y136.65 E35.90987
G1 X160.197 Y137.096 E35.9351
G1 X160.101 Y137.337 E35.94891
G1 X159.952 Y137.684 E35.969
G1 X159.852 Y137.902 E35.98177
G1 X159.585 Y138.429 E36.01321
G1 X159.467 Y138.64 E36.02607
G1 X159.065 Y139.28 E36.06629
G1 X158.926 Y139.478 E36.07916
G1 X158.413 Y140.127 E36.12319
G1 X158.253 Y140.308 E36.13604
G1 X157.468 Y141.074 E36.19441
G1 X157.287 Y141.226 E36.20699
G1 X156.673 Y141.689 E36.24791
G1 X156.326 Y141.91 E36.26981
G1 X156.122 Y142.032 E36.28246
G1 X155.442 Y142.392 E36.3234
G1 X154.85 Y142.636 E36.35748
G1 X154.627 Y142.717 E36.3701
G1 X153.892 Y142.942 E36.41101
G1 X153.338 Y143.058 E36.44113
G1 X153.102 Y143.098 E36.45387
G1 X152.338 Y143.187 E36.4948
G1 X151.896 Y143.202 E36.51834
G1 X151.659 Y143.203 E36.53095
G1 X151.334 Y143.191 E36.54825
G1 X146.159 Y144.872 E36.83781
G1 X145.416 Y145.071 E36.87875
G1 X144.656 Y145.192 E36.9197
G1 X143.888 Y145.234 E36.96063
G1 X143.12 Y145.196 E37.00155
G1 X142.36 Y145.078 E37.04248
G1 X141.616 Y144.881 E37.08344
G1 X140.897 Y144.609 E37.12435
G1 X140.21 Y144.264 E37.16526
G1 X139.562 Y143.849 E37.20621
G1 X138.961 Y143.369 E37.24714
G1 X138.413 Y142.829 E37.28808
G1 X137.924 Y142.235 E37.32902
G1 X137.499 Y141.594 E37.36995
G1 X137.144 Y140.912 E37.41087
G1 X136.833 Y140.113 E37.4565
G1 X136.667 Y139.599 E37.48524
G1 X136.666 Y139.599 E37.48529
G1 X131.831 Y124.719 E38.3179
G1 X53.168 Y115.061 E42.53549
G1 X53.159 Y115.06 E42.53597
G1 X51.28 Y114.827 E42.63673
G1 X50.523 Y114.693 E42.67764
G1 X49.784 Y114.48 E42.71856
G1 X49.07 Y114.193 E42.75952
G1 X48.391 Y113.833 E42.80041
G1 X47.752 Y113.404 E42.84137
G1 X47.162 Y112.911 E42.88229
G1 X46.625 Y112.36 E42.92323
G1 X46.149 Y111.756 E42.96416
G1 X45.738 Y111.105 E43.00513
G1 X45.397 Y110.416 E43.04604
G1 X45.129 Y109.695 E43.08697
G1 X44.938 Y108.95 E43.1279
G1 X44.825 Y108.189 E43.16884
G1 X44.791 Y107.421 E43.20975
G1 X44.846 Y106.582 E43.2545
G1 X45.211 Y103.605 E43.41411
G1 X45.344 Y102.848 E43.45501
G1 X45.555 Y102.108 E43.49596
G1 X45.842 Y101.395 E43.53686
G1 X46.201 Y100.714 E43.57783
G1 X46.629 Y100.075 E43.61876
G1 X47.121 Y99.484 E43.65968
G1 X47.672 Y98.947 E43.70062
G1 X48.275 Y98.47 E43.74154
G1 X48.925 Y98.058 E43.78249
G1 X49.614 Y97.716 E43.82343
G1 X50.334 Y97.447 E43.86433
G1 X51.079 Y97.255 E43.90527
