;FLAVOR:Marlin
;TIME:13875
;Filament used: 13.6448m
;Layer height: 0.3
;MINX:56.756
;MINY:67.57
;MINZ:0.32
;MAXX:164.881
;MAXY:154.05
;MAXZ:55.82
;Generated with Cura_SteamEngine 4.4.0
M140 S60
M105
M190 S60
M104 S260
M105
M109 S260
M82 ;absolute extrusion mode
M201 X500.00 Y500.00 Z100.00 E5000.00 ;Setup machine max acceleration
M203 X500.00 Y500.00 Z10.00 E50.00 ;Setup machine max feedrate
M204 P500.00 R1000.00 T500.00 ;Setup Print/Retract/Travel acceleration
M205 X8.00 Y8.00 Z0.40 E5.00 ;Setup Jerk
M220 S100 ;Reset Feedrate
M221 S100 ;Reset Flowrate

G28 ;Home

G92 E0 ;Reset Extruder
G1 Z2.0 F3000 ;Move Z Axis up
G1 X10.1 Y20 Z0.28 F5000.0 ;Move to start position
G1 X10.1 Y200.0 Z0.28 F1500.0 E15 ;Draw the first line
G1 X10.4 Y200.0 Z0.28 F5000.0 ;Move to side a little
G1 X10.4 Y20 Z0.28 F1500.0 E30 ;Draw the second line
G92 E0 ;Reset Extruder
G1 Z2.0 F3000 ;Move Z Axis up

G92 E0
G92 E0
G1 F1500 E-6.5
;LAYER_COUNT:186
;LAYER:0
M107
G0 F6000 X101.678 Y97.101 Z0.32
;TYPE:SKIRT
G1 F1500 E0
G1 F1200 X102.276 Y96.586 E0.042
G1 X102.924 Y96.134 E0.08404
G1 X103.614 Y95.75 E0.12606
G1 X104.34 Y95.438 E0.16812
G1 X105.093 Y95.201 E0.21013
G1 X105.866 Y95.041 E0.25213
G1 X106.652 Y94.96 E0.29418
G1 X107.056 Y94.95 E0.31569
G1 X140.119 Y94.95 E2.07518
G1 X140.119 Y75.388 E3.11619
G1 X140.159 Y74.599 E3.15823
G1 X140.278 Y73.819 E3.20022
G1 X140.476 Y73.054 E3.24228
G1 X140.75 Y72.314 E3.28427
G1 X141.098 Y71.605 E3.3263
G1 X141.516 Y70.934 E3.36837
G1 X141.999 Y70.31 E3.41036
G1 X142.542 Y69.737 E3.45237
G1 X143.141 Y69.222 E3.49441
G1 X143.789 Y68.771 E3.53642
G1 X144.48 Y68.387 E3.57849
G1 X145.205 Y68.075 E3.62049
G1 X145.958 Y67.838 E3.6625
G1 X146.732 Y67.679 E3.70455
G1 X147.813 Y67.589 E3.76228
G1 X149.139 Y67.571 E3.83285
G1 X149.261 Y67.57 E3.83934
G1 X149.741 Y67.571 E3.86489
G1 X156.545 Y67.578 E4.22697
G1 X157.334 Y67.619 E4.26901
G1 X158.114 Y67.739 E4.31101
G1 X158.878 Y67.938 E4.35303
G1 X159.619 Y68.213 E4.39509
G1 X160.327 Y68.561 E4.43707
G1 X160.997 Y68.979 E4.47909
G1 X161.621 Y69.463 E4.52112
G1 X162.193 Y70.007 E4.56313
G1 X162.708 Y70.607 E4.60521
G1 X163.158 Y71.255 E4.64719
G1 X163.541 Y71.946 E4.68923
G1 X163.852 Y72.672 E4.73126
G1 X164.089 Y73.425 E4.77327
G1 X164.247 Y74.199 E4.81531
G1 X164.319 Y74.854 E4.85038
G1 X164.377 Y75.715 E4.8963
G1 X164.38 Y75.76 E4.8987
G1 X164.498 Y77.676 E5.00086
G1 X164.502 Y77.745 E5.00453
G1 X164.602 Y79.647 E5.10589
G1 X164.605 Y79.709 E5.10919
G1 X164.69 Y81.613 E5.21062
G1 X164.693 Y81.684 E5.2144
G1 X164.76 Y83.567 E5.31467
G1 X164.762 Y83.627 E5.31787
G1 X164.814 Y85.498 E5.41747
G1 X164.816 Y85.564 E5.42099
G1 X164.852 Y87.421 E5.51983
G1 X164.853 Y87.488 E5.52339
G1 X164.873 Y89.335 E5.62169
G1 X164.873 Y89.385 E5.62435
G1 X164.881 Y91.215 E5.72174
G1 X164.881 Y91.279 E5.72514
G1 X164.874 Y93.095 E5.82178
G1 X164.874 Y93.152 E5.82482
G1 X164.854 Y94.953 E5.92066
G1 X164.853 Y95.01 E5.9237
G1 X164.82 Y96.793 E6.0186
G1 X164.818 Y96.849 E6.02158
G1 X164.773 Y98.607 E6.11517
G1 X164.772 Y98.657 E6.11783
G1 X164.716 Y100.403 E6.21079
G1 X164.714 Y100.454 E6.21351
G1 X164.647 Y102.191 E6.30601
G1 X164.646 Y102.225 E6.30782
G1 X164.573 Y103.923 E6.39827
G1 X164.57 Y103.977 E6.40115
G1 X164.486 Y105.661 E6.49087
G1 X164.484 Y105.699 E6.4929
G1 X164.393 Y107.36 E6.58142
G1 X164.391 Y107.399 E6.5835
G1 X164.293 Y109.036 E6.67077
G1 X164.29 Y109.077 E6.67296
G1 X164.185 Y110.688 E6.75887
G1 X164.184 Y110.717 E6.76042
G1 X164.075 Y112.3 E6.84486
G1 X164.072 Y112.339 E6.84694
G1 X163.957 Y113.895 E6.92997
G1 X163.955 Y113.921 E6.93136
G1 X163.837 Y115.448 E7.01286
G1 X163.835 Y115.476 E7.01435
G1 X163.714 Y116.971 E7.09417
G1 X163.71 Y117.013 E7.09642
G1 X163.46 Y119.907 E7.251
G1 X163.455 Y119.962 E7.25394
G1 X163.073 Y124.046 E7.47222
G1 X163.068 Y124.1 E7.47511
G1 X162.813 Y126.636 E7.61074
G1 X162.808 Y126.687 E7.61347
G1 X162.432 Y130.196 E7.80128
G1 X162.425 Y130.251 E7.80423
G1 X162.181 Y132.384 E7.91848
G1 X162.175 Y132.44 E7.92147
G1 X161.936 Y134.404 E8.02676
G1 X161.926 Y134.485 E8.03111
G1 X161.689 Y136.277 E8.1273
G1 X161.676 Y136.367 E8.13214
G1 X161.556 Y137.199 E8.17687
G1 X161.548 Y137.254 E8.17983
G1 X161.428 Y138.046 E8.22246
G1 X161.414 Y138.134 E8.2272
G1 X161.292 Y138.882 E8.26753
G1 X161.273 Y138.993 E8.27352
G1 X161.147 Y139.701 E8.31179
G1 X161.127 Y139.813 E8.31785
G1 X160.998 Y140.481 E8.35405
G1 X160.966 Y140.636 E8.36248
G1 X160.831 Y141.266 E8.39676
G1 X160.784 Y141.473 E8.40806
G1 X160.64 Y142.066 E8.44053
G1 X160.595 Y142.241 E8.45015
G1 X160.446 Y142.798 E8.48083
G1 X160.371 Y143.06 E8.49534
G1 X160.211 Y143.584 E8.52449
G1 X160.108 Y143.898 E8.54208
G1 X159.935 Y144.389 E8.56978
G1 X159.816 Y144.705 E8.58775
G1 X159.63 Y145.168 E8.6143
G1 X159.47 Y145.538 E8.63576
G1 X159.269 Y145.972 E8.66121
G1 X159.081 Y146.35 E8.68367
G1 X158.864 Y146.759 E8.70831
G1 X158.638 Y147.157 E8.73267
G1 X158.405 Y147.54 E8.75653
G1 X158.125 Y147.967 E8.7837
G1 X157.873 Y148.326 E8.80704
G1 X157.553 Y148.751 E8.83535
G1 X157.282 Y149.086 E8.85828
G1 X156.957 Y149.462 E8.88473
G1 X156.668 Y149.776 E8.90744
G1 X156.286 Y150.163 E8.93638
G1 X155.977 Y150.455 E8.959
G1 X155.617 Y150.775 E8.98464
G1 X155.291 Y151.047 E9.00723
G1 X154.841 Y151.395 E9.0375
G1 X154.494 Y151.644 E9.06023
G1 X154.071 Y151.927 E9.08732
G1 X153.705 Y152.155 E9.11026
G1 X153.287 Y152.398 E9.13599
G1 X152.9 Y152.607 E9.1594
G1 X152.492 Y152.813 E9.18372
G1 X152.089 Y153.001 E9.20739
G1 X151.667 Y153.182 E9.23182
G1 X151.241 Y153.351 E9.25621
G1 X150.837 Y153.499 E9.27911
G1 X150.391 Y153.648 E9.30413
G1 X149.63 Y153.86 E9.34617
G1 X148.852 Y153.994 E9.38818
G1 X147.919 Y154.05 E9.43792
G1 X64.556 Y154.05 E13.87419
G1 X63.767 Y154.01 E13.91623
G1 X62.987 Y153.891 E13.95822
G1 X62.222 Y153.693 E14.00027
G1 X61.482 Y153.419 E14.04226
G1 X60.773 Y153.071 E14.08429
G1 X60.102 Y152.653 E14.12636
G1 X59.478 Y152.17 E14.16835
G1 X58.905 Y151.627 E14.21036
G1 X58.39 Y151.028 E14.2524
G1 X57.939 Y150.38 E14.29442
G1 X57.555 Y149.689 E14.33649
G1 X57.243 Y148.964 E14.37849
G1 X57.006 Y148.211 E14.4205
G1 X56.847 Y147.437 E14.46255
G1 X56.766 Y146.652 E14.50454
G1 X56.756 Y146.25 E14.52594
G1 X56.756 Y140.75 E14.81863
G1 X56.796 Y139.961 E14.86067
G1 X56.915 Y139.181 E14.90266
G1 X57.113 Y138.416 E14.94471
G1 X57.387 Y137.676 E14.98671
G1 X57.735 Y136.967 E15.02874
G1 X58.153 Y136.296 E15.07081
G1 X58.636 Y135.672 E15.1128
G1 X59.179 Y135.099 E15.15481
G1 X59.778 Y134.584 E15.19685
G1 X60.426 Y134.133 E15.23886
G1 X61.117 Y133.749 E15.28093
G1 X61.842 Y133.437 E15.32293
G1 X62.595 Y133.2 E15.36494
G1 X63.369 Y133.041 E15.40699
G1 X64.154 Y132.96 E15.44899
G1 X64.556 Y132.95 E15.47039
G1 X140.119 Y132.95 E19.49157
G1 X140.119 Y113.55 E20.52396
G1 X107.057 Y113.55 E22.2834
G1 X106.268 Y113.51 E22.32544
G1 X105.488 Y113.391 E22.36743
G1 X104.723 Y113.193 E22.40948
G1 X103.983 Y112.919 E22.45147
G1 X103.274 Y112.571 E22.4935
G1 X102.603 Y112.153 E22.53557
G1 X101.979 Y111.67 E22.57756
G1 X101.406 Y111.127 E22.61957
G1 X100.891 Y110.528 E22.66161
G1 X100.44 Y109.88 E22.70363
G1 X100.056 Y109.189 E22.74569
G1 X99.744 Y108.464 E22.7877
G1 X99.507 Y107.711 E22.82971
G1 X99.348 Y106.937 E22.87176
G1 X99.267 Y106.152 E22.91375
G1 X99.257 Y105.753 E22.93499
G1 X99.256 Y102.753 E23.09464
G1 X99.296 Y101.964 E23.13668
G1 X99.415 Y101.183 E23.17872
G1 X99.613 Y100.419 E23.22072
G1 X99.886 Y99.678 E23.26275
G1 X100.234 Y98.969 E23.30478
G1 X100.651 Y98.298 E23.34682
G1 X101.134 Y97.674 E23.38881
G1 X101.678 Y97.101 E23.43086
G0 F6000 X102.07 Y97.282
G1 F1200 X102.665 Y96.794 E23.47181
G1 X103.307 Y96.37 E23.51275
G1 X103.989 Y96.015 E23.55367
G1 X104.705 Y95.733 E23.59462
G1 X105.446 Y95.527 E23.63555
G1 X106.205 Y95.399 E23.67651
G1 X107.056 Y95.35 E23.72187
G1 X140.519 Y95.35 E25.50265
G1 X140.519 Y75.388 E26.56495
G1 X140.559 Y74.62 E26.60588
G1 X140.678 Y73.86 E26.64681
G1 X140.876 Y73.117 E26.68773
G1 X141.15 Y72.398 E26.72868
G1 X141.497 Y71.712 E26.76959
G1 X141.913 Y71.065 E26.81052
G1 X142.394 Y70.465 E26.85145
G1 X142.935 Y69.918 E26.89239
G1 X143.53 Y69.43 E26.93334
G1 X144.172 Y69.007 E26.97425
G1 X144.855 Y68.652 E27.01522
G1 X145.57 Y68.371 E27.0561
G1 X146.312 Y68.165 E27.09708
G1 X147.07 Y68.037 E27.13799
G1 X147.819 Y67.989 E27.17793
G1 X149.145 Y67.971 E27.2485
G1 X149.26 Y67.97 E27.25462
G1 X149.74 Y67.971 E27.28016
G1 X156.545 Y67.978 E27.6423
G1 X157.313 Y68.019 E27.68323
G1 X158.072 Y68.139 E27.72412
G1 X158.815 Y68.338 E27.76506
G1 X159.534 Y68.612 E27.806
G1 X160.22 Y68.96 E27.84694
G1 X160.866 Y69.377 E27.88785
G1 X161.466 Y69.858 E27.92878
G1 X162.012 Y70.4 E27.96972
G1 X162.499 Y70.995 E28.01064
G1 X162.922 Y71.638 E28.0516
G1 X163.276 Y72.321 E28.09253
G1 X163.557 Y73.037 E28.13347
G1 X163.762 Y73.778 E28.17438
G1 X163.92 Y74.881 E28.23368
G1 X163.978 Y75.742 E28.2796
G1 X163.981 Y75.784 E28.28184
G1 X164.099 Y77.7 E28.384
G1 X164.103 Y77.766 E28.38751
G1 X164.203 Y79.668 E28.48887
G1 X164.206 Y79.727 E28.49202
G1 X164.291 Y81.631 E28.59344
G1 X164.293 Y81.698 E28.59701
G1 X164.36 Y83.581 E28.69728
G1 X164.362 Y83.638 E28.70031
G1 X164.414 Y85.509 E28.79992
G1 X164.416 Y85.572 E28.80327
G1 X164.452 Y87.429 E28.90211
G1 X164.453 Y87.492 E28.90547
G1 X164.473 Y89.339 E29.00376
G1 X164.473 Y89.387 E29.00632
G1 X164.481 Y91.217 E29.1037
G1 X164.481 Y91.278 E29.10695
G1 X164.474 Y93.094 E29.20359
G1 X164.474 Y93.147 E29.20641
G1 X164.454 Y94.948 E29.30226
G1 X164.453 Y95.003 E29.30519
G1 X164.42 Y96.786 E29.40009
G1 X164.419 Y96.838 E29.40286
G1 X164.374 Y98.596 E29.49644
G1 X164.372 Y98.644 E29.499
G1 X164.316 Y100.39 E29.59196
G1 X164.315 Y100.438 E29.59452
G1 X164.248 Y102.175 E29.68702
G1 X164.246 Y102.208 E29.68878
G1 X164.173 Y103.906 E29.77922
G1 X164.171 Y103.957 E29.78194
G1 X164.087 Y105.641 E29.87167
G1 X164.085 Y105.677 E29.87359
G1 X163.994 Y107.338 E29.96211
G1 X163.992 Y107.375 E29.96408
G1 X163.894 Y109.012 E30.05135
G1 X163.891 Y109.051 E30.05344
G1 X163.786 Y110.662 E30.13935
G1 X163.785 Y110.689 E30.14079
G1 X163.676 Y112.272 E30.22523
G1 X163.673 Y112.309 E30.2272
G1 X163.558 Y113.865 E30.31023
G1 X163.556 Y113.89 E30.31157
G1 X163.438 Y115.417 E30.39307
G1 X163.436 Y115.444 E30.39451
G1 X163.315 Y116.939 E30.47433
G1 X163.312 Y116.979 E30.47647
G1 X163.062 Y119.873 E30.63105
G1 X163.057 Y119.925 E30.63383
G1 X162.675 Y124.009 E30.85211
G1 X162.67 Y124.06 E30.85484
G1 X162.415 Y126.596 E30.99047
G1 X162.41 Y126.644 E30.99304
G1 X162.034 Y130.153 E31.18085
G1 X162.028 Y130.206 E31.18369
G1 X161.784 Y132.339 E31.29794
G1 X161.778 Y132.392 E31.30077
G1 X161.539 Y134.356 E31.40606
G1 X161.529 Y134.432 E31.41014
G1 X161.292 Y136.224 E31.50634
G1 X161.28 Y136.31 E31.51096
G1 X161.16 Y137.142 E31.55569
G1 X161.152 Y137.195 E31.55854
G1 X161.032 Y137.987 E31.60117
G1 X161.019 Y138.069 E31.60559
G1 X160.897 Y138.817 E31.64592
G1 X160.88 Y138.923 E31.65163
G1 X160.754 Y139.631 E31.6899
G1 X160.734 Y139.737 E31.69564
G1 X160.605 Y140.405 E31.73185
G1 X160.575 Y140.553 E31.73989
G1 X160.44 Y141.183 E31.77417
G1 X160.395 Y141.378 E31.78482
G1 X160.251 Y141.971 E31.8173
G1 X160.209 Y142.137 E31.82641
G1 X160.06 Y142.694 E31.85709
G1 X159.988 Y142.943 E31.87089
G1 X159.828 Y143.467 E31.90004
G1 X159.73 Y143.765 E31.91674
G1 X159.557 Y144.256 E31.94444
G1 X159.445 Y144.556 E31.96148
G1 X159.259 Y145.019 E31.98803
G1 X159.107 Y145.37 E32.00839
G1 X158.906 Y145.804 E32.03384
G1 X158.728 Y146.162 E32.05512
G1 X158.511 Y146.571 E32.07976
G1 X158.296 Y146.949 E32.1029
G1 X158.063 Y147.332 E32.12676
G1 X157.798 Y147.738 E32.15256
G1 X157.546 Y148.097 E32.1759
G1 X157.242 Y148.499 E32.20272
G1 X156.971 Y148.834 E32.22565
G1 X156.663 Y149.191 E32.25074
G1 X156.374 Y149.505 E32.27345
G1 X156.012 Y149.872 E32.30088
G1 X155.703 Y150.164 E32.32351
G1 X155.361 Y150.468 E32.34786
G1 X155.035 Y150.74 E32.37045
G1 X154.608 Y151.07 E32.39917
G1 X154.261 Y151.319 E32.4219
G1 X153.86 Y151.588 E32.4476
G1 X153.494 Y151.816 E32.47054
G1 X153.097 Y152.046 E32.49496
G1 X152.71 Y152.255 E32.51837
G1 X152.322 Y152.45 E32.54148
G1 X151.919 Y152.638 E32.56514
G1 X151.52 Y152.81 E32.58826
G1 X151.094 Y152.979 E32.61265
G1 X150.71 Y153.12 E32.63442
G1 X150.264 Y153.269 E32.65944
G1 X149.523 Y153.474 E32.70036
G1 X148.764 Y153.602 E32.74132
G1 X147.919 Y153.65 E32.78636
G1 X64.556 Y153.65 E37.22262
G1 X63.788 Y153.61 E37.26355
G1 X63.028 Y153.491 E37.30449
G1 X62.285 Y153.293 E37.34541
G1 X61.566 Y153.019 E37.38635
G1 X60.88 Y152.672 E37.42726
G1 X60.233 Y152.256 E37.4682
G1 X59.633 Y151.775 E37.50912
G1 X59.086 Y151.234 E37.55006
G1 X58.598 Y150.639 E37.59101
G1 X58.175 Y149.997 E37.63193
G1 X57.82 Y149.314 E37.67289
G1 X57.539 Y148.599 E37.71377
G1 X57.333 Y147.857 E37.75475
G1 X57.205 Y147.099 E37.79566
G1 X57.156 Y146.25 E37.84092
G1 X57.156 Y140.75 E38.13361
G1 X57.196 Y139.982 E38.17453
G1 X57.315 Y139.222 E38.21547
G1 X57.513 Y138.479 E38.25639
G1 X57.787 Y137.76 E38.29734
G1 X58.134 Y137.074 E38.33825
G1 X58.55 Y136.427 E38.37918
G1 X59.031 Y135.827 E38.4201
G1 X59.572 Y135.28 E38.46105
G1 X60.167 Y134.792 E38.502
G1 X60.809 Y134.369 E38.54291
G1 X61.492 Y134.014 E38.58387
G1 X62.207 Y133.733 E38.62476
G1 X62.949 Y133.527 E38.66574
G1 X63.707 Y133.399 E38.70665
G1 X64.556 Y133.35 E38.7519
G1 X140.519 Y133.35 E42.79436
G1 X140.519 Y113.15 E43.86933
G1 X107.057 Y113.15 E45.65005
G1 X106.289 Y113.11 E45.69098
G1 X105.529 Y112.991 E45.73192
G1 X104.786 Y112.793 E45.77284
G1 X104.067 Y112.519 E45.81378
G1 X103.381 Y112.172 E45.85469
G1 X102.734 Y111.756 E45.89563
G1 X102.134 Y111.275 E45.93655
G1 X101.587 Y110.734 E45.97749
G1 X101.099 Y110.139 E46.01844
G1 X100.676 Y109.497 E46.05936
G1 X100.321 Y108.814 E46.10032
G1 X100.04 Y108.099 E46.1412
G1 X99.834 Y107.357 E46.18218
G1 X99.706 Y106.599 E46.22309
G1 X99.657 Y105.752 E46.26824
G1 X99.656 Y102.752 E46.42789
G1 X99.696 Y101.984 E46.46881
G1 X99.815 Y101.224 E46.50975
G1 X100.012 Y100.481 E46.55066
G1 X100.286 Y99.762 E46.5916
G1 X100.633 Y99.076 E46.63252
G1 X101.049 Y98.429 E46.67345
G1 X101.53 Y97.829 E46.71437
G1 X102.07 Y97.282 E46.75528
G0 F6000 X102.462 Y97.468
G1 F1200 X103.052 Y97.008 E46.79509
G1 X103.688 Y96.614 E46.8349
G1 X104.362 Y96.289 E46.87472
G1 X105.067 Y96.039 E46.91453
G1 X105.794 Y95.865 E46.95431
G1 X106.536 Y95.769 E46.99413
G1 X107.056 Y95.75 E47.02182
G1 X140.919 Y95.75 E48.82388
G1 X140.919 Y75.388 E49.90747
G1 X140.959 Y74.641 E49.94728
G1 X141.078 Y73.903 E49.98706
G1 X141.276 Y73.181 E50.0269
G1 X141.549 Y72.485 E50.06668
G1 X141.896 Y71.822 E50.10651
G1 X142.311 Y71.199 E50.14634
G1 X142.79 Y70.625 E50.18613
G1 X143.327 Y70.104 E50.22594
G1 X143.917 Y69.645 E50.26572
G1 X144.553 Y69.25 E50.30556
G1 X145.227 Y68.926 E50.34536
G1 X145.932 Y68.676 E50.38517
G1 X146.66 Y68.502 E50.425
G1 X147.402 Y68.407 E50.46481
G1 X147.824 Y68.389 E50.48729
G1 X149.15 Y68.371 E50.55786
G1 X149.26 Y68.37 E50.56371
G1 X149.74 Y68.371 E50.58926
G1 X156.544 Y68.378 E50.95134
G1 X157.291 Y68.419 E50.99115
G1 X158.029 Y68.539 E51.03094
G1 X158.751 Y68.737 E51.07078
G1 X159.447 Y69.011 E51.11059
G1 X160.11 Y69.358 E51.15041
G1 X160.732 Y69.774 E51.19023
G1 X161.306 Y70.254 E51.23005
G1 X161.825 Y70.792 E51.26983
G1 X162.284 Y71.382 E51.30961
G1 X162.678 Y72.018 E51.34942
G1 X163.002 Y72.693 E51.38927
G1 X163.251 Y73.398 E51.42906
G1 X163.424 Y74.126 E51.46888
G1 X163.521 Y74.908 E51.51081
G1 X163.579 Y75.769 E51.55674
G1 X163.582 Y75.809 E51.55887
G1 X163.7 Y77.725 E51.66103
G1 X163.703 Y77.787 E51.66433
G1 X163.803 Y79.689 E51.76569
G1 X163.806 Y79.745 E51.76867
G1 X163.891 Y81.649 E51.87009
G1 X163.894 Y81.712 E51.87345
G1 X163.961 Y83.595 E51.97372
G1 X163.962 Y83.65 E51.97665
G1 X164.014 Y85.521 E52.07625
G1 X164.016 Y85.579 E52.07934
G1 X164.052 Y87.436 E52.17818
G1 X164.053 Y87.496 E52.18138
G1 X164.073 Y89.343 E52.27967
G1 X164.073 Y89.388 E52.28207
G1 X164.081 Y91.218 E52.37945
G1 X164.081 Y91.276 E52.38254
G1 X164.074 Y93.092 E52.47918
G1 X164.074 Y93.143 E52.4819
G1 X164.054 Y94.944 E52.57774
G1 X164.053 Y94.996 E52.58051
G1 X164.02 Y96.779 E52.67541
G1 X164.019 Y96.828 E52.67802
G1 X163.974 Y98.586 E52.77161
