;FLAVOR:Marlin
;TIME:14450
;Filament used: 15.7987m
;Layer height: 0.3
;MINX:12.65
;MINY:75.85
;MINZ:0.32
;MAXX:207.35
;MAXY:144.15
;MAXZ:10.52
;Generated with Cura_SteamEngine 4.4.0
M140 S60
M105
M190 S60
M104 S250
M105
M109 S250
M82 ;absolute extrusion mode
M201 X500.00 Y500.00 Z100.00 E5000.00 ;Setup machine max acceleration
M203 X500.00 Y500.00 Z10.00 E50.00 ;Setup machine max feedrate
M204 P500.00 R1000.00 T500.00 ;Setup Print/Retract/Travel acceleration
M205 X8.00 Y8.00 Z0.40 E5.00 ;Setup Jerk
M220 S100 ;Reset Feedrate
M221 S100 ;Reset Flowrate

G28 ;Home

G92 E0 ;Reset Extruder
G1 Z2.0 F3000 ;Move Z Axis up
G1 X10.1 Y20 Z0.28 F5000.0 ;Move to start position
G1 X10.1 Y200.0 Z0.28 F1500.0 E15 ;Draw the first line
G1 X10.4 Y200.0 Z0.28 F5000.0 ;Move to side a little
G1 X10.4 Y20 Z0.28 F1500.0 E30 ;Draw the second line
G92 E0 ;Reset Extruder
G1 Z2.0 F3000 ;Move Z Axis up

G92 E0
G92 E0
G1 F1500 E-6.5
;LAYER_COUNT:35
;LAYER:0
M107
G0 F6000 X18.489 Y76.1 Z0.32
;TYPE:SKIRT
G1 F1500 E0
G1 F1200 X19.263 Y75.941 E0.04205
G1 X20.048 Y75.86 E0.08405
G1 X20.45 Y75.85 E0.10545
G1 X199.55 Y75.85 E9.63647
G1 X200.339 Y75.89 E9.67851
G1 X201.119 Y76.009 E9.7205
G1 X201.884 Y76.207 E9.76255
G1 X202.624 Y76.481 E9.80455
G1 X203.333 Y76.829 E9.84658
G1 X204.004 Y77.247 E9.88865
G1 X204.628 Y77.73 E9.93064
G1 X205.201 Y78.273 E9.97265
G1 X205.716 Y78.872 E10.01469
G1 X206.167 Y79.52 E10.0567
G1 X206.551 Y80.211 E10.09877
G1 X206.863 Y80.936 E10.14077
G1 X207.1 Y81.689 E10.18278
G1 X207.259 Y82.463 E10.22483
G1 X207.34 Y83.248 E10.26683
G1 X207.35 Y83.65 E10.28823
G1 X207.35 Y136.35 E13.09272
G1 X207.31 Y137.139 E13.13476
G1 X207.191 Y137.919 E13.17675
G1 X206.993 Y138.684 E13.2188
G1 X206.719 Y139.424 E13.2608
G1 X206.371 Y140.133 E13.30283
G1 X205.953 Y140.804 E13.3449
G1 X205.47 Y141.428 E13.38689
G1 X204.927 Y142.001 E13.4289
G1 X204.328 Y142.516 E13.47094
G1 X203.68 Y142.967 E13.51295
G1 X202.989 Y143.351 E13.55502
G1 X202.264 Y143.663 E13.59702
G1 X201.511 Y143.9 E13.63903
G1 X200.737 Y144.059 E13.68108
G1 X199.952 Y144.14 E13.72308
G1 X199.55 Y144.15 E13.74448
G1 X20.45 Y144.15 E23.2755
G1 X19.661 Y144.11 E23.31754
G1 X18.881 Y143.991 E23.35953
G1 X18.116 Y143.793 E23.40158
G1 X17.376 Y143.519 E23.44358
G1 X16.667 Y143.171 E23.48561
G1 X15.996 Y142.753 E23.52768
G1 X15.372 Y142.27 E23.56967
G1 X14.799 Y141.727 E23.61168
G1 X14.284 Y141.128 E23.65372
G1 X13.833 Y140.48 E23.69573
G1 X13.449 Y139.789 E23.7378
G1 X13.137 Y139.064 E23.7798
G1 X12.9 Y138.311 E23.82181
G1 X12.741 Y137.537 E23.86386
G1 X12.66 Y136.752 E23.90586
G1 X12.65 Y136.35 E23.92726
G1 X12.65 Y83.65 E26.73175
G1 X12.69 Y82.861 E26.7738
G1 X12.809 Y82.081 E26.81578
G1 X13.007 Y81.316 E26.85784
G1 X13.281 Y80.576 E26.89983
G1 X13.629 Y79.867 E26.94186
G1 X14.047 Y79.196 E26.98393
G1 X14.53 Y78.572 E27.02592
G1 X15.073 Y77.999 E27.06793
G1 X15.672 Y77.484 E27.10997
G1 X16.32 Y77.033 E27.15198
G1 X17.011 Y76.649 E27.19405
G1 X17.736 Y76.337 E27.23606
G1 X18.489 Y76.1 E27.27807
G0 F6000 X18.843 Y76.427
G1 F1200 X19.601 Y76.299 E27.31897
G1 X20.45 Y76.25 E27.36423
G1 X199.55 Y76.25 E36.89525
G1 X200.318 Y76.29 E36.93618
G1 X201.078 Y76.409 E36.97712
G1 X201.821 Y76.607 E37.01804
G1 X202.54 Y76.881 E37.05898
G1 X203.226 Y77.228 E37.09989
G1 X203.873 Y77.644 E37.14083
G1 X204.473 Y78.125 E37.18175
G1 X205.02 Y78.666 E37.22269
G1 X205.508 Y79.261 E37.26364
G1 X205.931 Y79.903 E37.30456
G1 X206.286 Y80.586 E37.34552
G1 X206.567 Y81.301 E37.3864
G1 X206.773 Y82.043 E37.42738
G1 X206.901 Y82.801 E37.46829
G1 X206.95 Y83.65 E37.51355
G1 X206.95 Y136.35 E40.31804
G1 X206.91 Y137.118 E40.35897
G1 X206.791 Y137.878 E40.39991
G1 X206.593 Y138.621 E40.44082
G1 X206.319 Y139.34 E40.48177
G1 X205.972 Y140.026 E40.52268
G1 X205.556 Y140.673 E40.56362
G1 X205.075 Y141.273 E40.60454
G1 X204.534 Y141.82 E40.64548
G1 X203.939 Y142.308 E40.68643
G1 X203.297 Y142.731 E40.72735
G1 X202.614 Y143.086 E40.76831
G1 X201.899 Y143.367 E40.80919
G1 X201.157 Y143.573 E40.85017
G1 X200.399 Y143.701 E40.89108
G1 X199.55 Y143.75 E40.93634
G1 X20.45 Y143.75 E50.46736
G1 X19.682 Y143.71 E50.50829
G1 X18.922 Y143.591 E50.54922
G1 X18.179 Y143.393 E50.59014
G1 X17.46 Y143.119 E50.63109
G1 X16.774 Y142.772 E50.672
G1 X16.127 Y142.356 E50.71293
G1 X15.527 Y141.875 E50.75386
G1 X14.98 Y141.334 E50.7948
G1 X14.492 Y140.739 E50.83575
G1 X14.069 Y140.097 E50.87666
G1 X13.714 Y139.414 E50.91763
G1 X13.433 Y138.699 E50.95851
G1 X13.227 Y137.957 E50.99949
G1 X13.099 Y137.199 E51.0404
G1 X13.05 Y136.35 E51.08565
G1 X13.05 Y83.65 E53.89015
G1 X13.09 Y82.882 E53.93107
G1 X13.209 Y82.122 E53.97201
G1 X13.407 Y81.379 E54.01293
G1 X13.681 Y80.66 E54.05388
G1 X14.028 Y79.974 E54.09479
G1 X14.444 Y79.327 E54.13572
G1 X14.925 Y78.727 E54.17665
G1 X15.466 Y78.18 E54.21759
G1 X16.061 Y77.692 E54.25854
G1 X16.703 Y77.269 E54.29945
G1 X17.386 Y76.914 E54.34042
G1 X18.101 Y76.633 E54.3813
G1 X18.843 Y76.427 E54.42228
G0 F6000 X18.463 Y76.938
G1 F1200 X19.191 Y76.764 E54.46211
G1 X19.933 Y76.669 E54.50192
G1 X20.45 Y76.65 E54.52945
G1 X199.55 Y76.65 E64.06048
G1 X200.297 Y76.69 E64.10029
G1 X201.035 Y76.809 E64.14007
G1 X201.757 Y77.007 E64.17991
G1 X202.453 Y77.28 E64.21969
G1 X203.116 Y77.627 E64.25952
G1 X203.739 Y78.042 E64.29935
G1 X204.313 Y78.521 E64.33914
G1 X204.834 Y79.058 E64.37895
G1 X205.293 Y79.648 E64.41873
G1 X205.688 Y80.284 E64.45857
G1 X206.012 Y80.958 E64.49837
G1 X206.262 Y81.663 E64.53818
G1 X206.436 Y82.391 E64.57801
G1 X206.531 Y83.133 E64.61782
G1 X206.55 Y83.65 E64.64535
G1 X206.55 Y136.35 E67.44984
G1 X206.51 Y137.097 E67.48965
G1 X206.391 Y137.835 E67.52944
G1 X206.193 Y138.557 E67.56928
G1 X205.92 Y139.253 E67.60906
G1 X205.573 Y139.916 E67.64888
G1 X205.158 Y140.539 E67.68872
G1 X204.679 Y141.113 E67.72851
G1 X204.142 Y141.634 E67.76832
G1 X203.552 Y142.093 E67.8081
G1 X202.916 Y142.488 E67.84794
G1 X202.242 Y142.812 E67.88774
G1 X201.537 Y143.062 E67.92755
G1 X200.809 Y143.236 E67.96738
G1 X200.067 Y143.331 E68.00719
G1 X199.55 Y143.35 E68.03472
G1 X20.45 Y143.35 E77.56574
G1 X19.703 Y143.31 E77.60555
G1 X18.965 Y143.191 E77.64533
G1 X18.243 Y142.993 E77.68518
G1 X17.547 Y142.72 E77.72496
G1 X16.884 Y142.373 E77.76478
G1 X16.261 Y141.958 E77.80462
G1 X15.687 Y141.479 E77.8444
G1 X15.166 Y140.942 E77.88422
G1 X14.707 Y140.352 E77.924
G1 X14.312 Y139.716 E77.96384
G1 X13.988 Y139.042 E78.00364
G1 X13.738 Y138.337 E78.04345
G1 X13.564 Y137.609 E78.08328
G1 X13.469 Y136.867 E78.12309
G1 X13.45 Y136.35 E78.15062
G1 X13.45 Y83.65 E80.95511
G1 X13.49 Y82.903 E80.99492
G1 X13.609 Y82.165 E81.0347
G1 X13.807 Y81.443 E81.07454
G1 X14.08 Y80.747 E81.11433
G1 X14.427 Y80.084 E81.15415
G1 X14.842 Y79.461 E81.19399
G1 X15.321 Y78.887 E81.23377
G1 X15.858 Y78.366 E81.27359
G1 X16.448 Y77.907 E81.31337
G1 X17.084 Y77.512 E81.35321
G1 X17.758 Y77.188 E81.39301
G1 X18.463 Y76.938 E81.43282
G0 F6000 X18.821 Y77.254
G1 F1200 X19.533 Y77.114 E81.47143
G1 X20.45 Y77.05 E81.52035
G1 X199.55 Y77.05 E91.05137
G1 X200.275 Y77.09 E91.09001
G1 X200.992 Y77.209 E91.12869
G1 X201.691 Y77.407 E91.16735
G1 X202.364 Y77.68 E91.206
G1 X203.003 Y78.025 E91.24465
G1 X203.6 Y78.439 E91.28331
G1 X204.148 Y78.915 E91.32194
G1 X204.641 Y79.449 E91.36061
G1 X205.071 Y80.034 E91.39925
G1 X205.435 Y80.663 E91.43792
G1 X205.728 Y81.328 E91.47659
G1 X205.946 Y82.021 E91.51526
G1 X206.086 Y82.733 E91.55387
G1 X206.15 Y83.65 E91.60279
G1 X206.15 Y136.35 E94.40728
G1 X206.11 Y137.075 E94.44592
G1 X205.991 Y137.792 E94.4846
G1 X205.793 Y138.491 E94.52326
G1 X205.52 Y139.164 E94.56191
G1 X205.175 Y139.803 E94.60056
G1 X204.761 Y140.4 E94.63922
G1 X204.285 Y140.948 E94.67785
G1 X203.751 Y141.441 E94.71652
G1 X203.166 Y141.871 E94.75516
G1 X202.537 Y142.235 E94.79383
G1 X201.872 Y142.528 E94.83251
G1 X201.179 Y142.746 E94.87117
G1 X200.467 Y142.886 E94.90978
G1 X199.55 Y142.95 E94.9587
G1 X20.45 Y142.95 E104.48972
G1 X19.725 Y142.91 E104.52836
G1 X19.008 Y142.791 E104.56704
G1 X18.309 Y142.593 E104.6057
G1 X17.636 Y142.32 E104.64435
G1 X16.997 Y141.975 E104.683
G1 X16.4 Y141.561 E104.72166
G1 X15.852 Y141.085 E104.76029
G1 X15.359 Y140.551 E104.79896
G1 X14.929 Y139.966 E104.8376
G1 X14.565 Y139.337 E104.87627
G1 X14.272 Y138.672 E104.91495
G1 X14.054 Y137.979 E104.95361
G1 X13.914 Y137.267 E104.99222
G1 X13.85 Y136.35 E105.04114
G1 X13.85 Y83.65 E107.84563
G1 X13.89 Y82.925 E107.88427
G1 X14.009 Y82.208 E107.92295
G1 X14.207 Y81.509 E107.96161
G1 X14.48 Y80.836 E108.00026
G1 X14.825 Y80.197 E108.03891
G1 X15.239 Y79.6 E108.07757
G1 X15.715 Y79.052 E108.1162
G1 X16.249 Y78.559 E108.15487
G1 X16.834 Y78.129 E108.19351
G1 X17.463 Y77.765 E108.23218
G1 X18.128 Y77.472 E108.27086
G1 X18.821 Y77.254 E108.30952
G0 F6000 X19.173 Y77.583
G1 F1200 X19.869 Y77.477 E108.34698
G1 X20.45 Y77.45 E108.37793
G1 X199.55 Y77.45 E117.90896
G1 X200.253 Y77.49 E117.94643
G1 X200.947 Y77.609 E117.9839
G1 X201.622 Y77.807 E118.02134
G1 X202.271 Y78.079 E118.05878
G1 X202.885 Y78.424 E118.09626
G1 X203.456 Y78.835 E118.1337
G1 X203.977 Y79.309 E118.17119
G1 X204.441 Y79.839 E118.20867
G1 X204.841 Y80.418 E118.24612
G1 X205.173 Y81.039 E118.2836
G1 X205.433 Y81.693 E118.32105
G1 X205.617 Y82.373 E118.35854
G1 X205.723 Y83.069 E118.396
G1 X205.75 Y83.65 E118.42695
G1 X205.75 Y136.35 E121.23145
G1 X205.71 Y137.053 E121.26892
G1 X205.591 Y137.747 E121.30639
G1 X205.393 Y138.422 E121.34383
G1 X205.121 Y139.071 E121.38127
G1 X204.776 Y139.685 E121.41875
G1 X204.365 Y140.256 E121.45619
G1 X203.891 Y140.777 E121.49368
G1 X203.361 Y141.241 E121.53116
G1 X202.782 Y141.641 E121.56861
G1 X202.161 Y141.973 E121.60609
G1 X201.507 Y142.233 E121.64354
G1 X200.827 Y142.417 E121.68103
G1 X200.131 Y142.523 E121.71849
G1 X199.55 Y142.55 E121.74944
G1 X20.45 Y142.55 E131.28047
G1 X19.747 Y142.51 E131.31794
G1 X19.053 Y142.391 E131.35541
G1 X18.378 Y142.193 E131.39285
G1 X17.729 Y141.921 E131.43029
G1 X17.115 Y141.576 E131.46777
G1 X16.544 Y141.165 E131.50521
G1 X16.023 Y140.691 E131.5427
G1 X15.559 Y140.161 E131.58018
G1 X15.159 Y139.582 E131.61763
G1 X14.827 Y138.961 E131.65511
G1 X14.567 Y138.307 E131.69256
G1 X14.383 Y137.627 E131.73005
G1 X14.277 Y136.931 E131.76751
G1 X14.25 Y136.35 E131.79846
G1 X14.25 Y83.65 E134.60296
G1 X14.29 Y82.947 E134.64043
G1 X14.409 Y82.253 E134.6779
G1 X14.607 Y81.578 E134.71534
G1 X14.879 Y80.929 E134.75278
G1 X15.224 Y80.315 E134.79026
G1 X15.635 Y79.744 E134.8277
G1 X16.109 Y79.223 E134.86519
G1 X16.639 Y78.759 E134.90267
G1 X17.218 Y78.359 E134.94012
G1 X17.839 Y78.027 E134.9776
G1 X18.493 Y77.767 E135.01505
G1 X19.173 Y77.583 E135.05254
G0 F6000 X18.854 Y78.074
G1 F1200 X19.519 Y77.925 E135.0888
G1 X20.45 Y77.85 E135.13851
G1 X199.55 Y77.85 E144.66953
G1 X200.23 Y77.89 E144.70578
G1 X200.9 Y78.009 E144.74199
G1 X201.552 Y78.206 E144.77824
G1 X202.176 Y78.478 E144.81447
G1 X202.764 Y78.822 E144.85072
G1 X203.308 Y79.232 E144.88697
G1 X203.799 Y79.703 E144.92318
G1 X204.233 Y80.228 E144.95943
G1 X204.602 Y80.8 E144.99565
G1 X204.901 Y81.412 E145.0319
G1 X205.126 Y82.054 E145.0681
G1 X205.275 Y82.719 E145.10437
G1 X205.35 Y83.65 E145.15407
G1 X205.35 Y136.35 E147.95856
G1 X205.31 Y137.03 E147.99481
G1 X205.191 Y137.7 E148.03103
G1 X204.994 Y138.352 E148.06727
G1 X204.722 Y138.976 E148.1035
G1 X204.378 Y139.564 E148.13975
G1 X203.968 Y140.108 E148.176
G1 X203.497 Y140.599 E148.21221
G1 X202.972 Y141.033 E148.24846
G1 X202.4 Y141.402 E148.28468
G1 X201.788 Y141.701 E148.32093
G1 X201.146 Y141.926 E148.35713
G1 X200.481 Y142.075 E148.3934
G1 X199.55 Y142.15 E148.4431
G1 X20.45 Y142.15 E157.97413
G1 X19.77 Y142.11 E158.01038
G1 X19.1 Y141.991 E158.04659
G1 X18.448 Y141.794 E158.08284
G1 X17.824 Y141.522 E158.11906
G1 X17.236 Y141.178 E158.15531
G1 X16.692 Y140.768 E158.19156
G1 X16.201 Y140.297 E158.22777
G1 X15.767 Y139.772 E158.26402
G1 X15.398 Y139.2 E158.30024
G1 X15.099 Y138.588 E158.33649
G1 X14.874 Y137.946 E158.37269
G1 X14.725 Y137.281 E158.40896
G1 X14.65 Y136.35 E158.45866
G1 X14.65 Y83.65 E161.26316
G1 X14.69 Y82.97 E161.29941
G1 X14.809 Y82.3 E161.33562
G1 X15.006 Y81.648 E161.37187
G1 X15.278 Y81.024 E161.40809
G1 X15.622 Y80.436 E161.44435
G1 X16.032 Y79.892 E161.4806
G1 X16.503 Y79.401 E161.5168
G1 X17.028 Y78.967 E161.55305
G1 X17.6 Y78.598 E161.58928
G1 X18.212 Y78.299 E161.62552
G1 X18.854 Y78.074 E161.66173
G0 F6000 X19.21 Y78.394
G1 F1200 X19.857 Y78.283 E161.69666
G1 X20.45 Y78.25 E161.72827
G1 X199.55 Y78.25 E171.25929
G1 X200.206 Y78.29 E171.29427
G1 X200.852 Y78.409 E171.32922
G1 X201.479 Y78.606 E171.3642
G1 X202.077 Y78.878 E171.39916
G1 X202.638 Y79.22 E171.43412
G1 X203.153 Y79.628 E171.46909
G1 X203.615 Y80.095 E171.50404
G1 X204.016 Y80.615 E171.53899
G1 X204.352 Y81.179 E171.57393
G1 X204.616 Y81.781 E171.60891
G1 X204.806 Y82.41 E171.64387
G1 X204.917 Y83.057 E171.67881
G1 X204.95 Y83.65 E171.71041
G1 X204.95 Y136.35 E174.51491
G1 X204.91 Y137.006 E174.54988
G1 X204.791 Y137.652 E174.58484
G1 X204.594 Y138.279 E174.61981
G1 X204.322 Y138.877 E174.65477
G1 X203.98 Y139.438 E174.68974
G1 X203.572 Y139.953 E174.7247
G1 X203.105 Y140.415 E174.75966
G1 X202.585 Y140.816 E174.79461
G1 X202.021 Y141.152 E174.82954
G1 X201.419 Y141.416 E174.86452
G1 X200.79 Y141.606 E174.89949
G1 X200.143 Y141.717 E174.93443
G1 X199.55 Y141.75 E174.96603
G1 X20.45 Y141.75 E184.49706
G1 X19.794 Y141.71 E184.53203
G1 X19.148 Y141.591 E184.56699
G1 X18.521 Y141.394 E184.60196
G1 X17.923 Y141.122 E184.63692
G1 X17.362 Y140.78 E184.67189
G1 X16.847 Y140.372 E184.70685
G1 X16.385 Y139.905 E184.74181
G1 X15.984 Y139.385 E184.77675
G1 X15.648 Y138.821 E184.81169
G1 X15.384 Y138.219 E184.84667
G1 X15.194 Y137.59 E184.88164
G1 X15.083 Y136.943 E184.91657
G1 X15.05 Y136.35 E184.94818
G1 X15.05 Y83.65 E187.75267
G1 X15.09 Y82.994 E187.78765
G1 X15.209 Y82.348 E187.8226
G1 X15.406 Y81.721 E187.85758
G1 X15.678 Y81.123 E187.89254
G1 X16.02 Y80.562 E187.9275
G1 X16.428 Y80.047 E187.96247
G1 X16.895 Y79.585 E187.99743
G1 X17.415 Y79.184 E188.03237
G1 X17.979 Y78.848 E188.06731
G1 X18.581 Y78.584 E188.10229
G1 X19.21 Y78.394 E188.13726
G0 F6000 X18.945 Y78.882
G1 F1200 X19.559 Y78.73 E188.17092
G1 X20.45 Y78.65 E188.21852
G1 X199.55 Y78.65 E197.74955
G1 X200.181 Y78.69 E197.78319
G1 X200.802 Y78.809 E197.81684
G1 X201.402 Y79.006 E197.85045
G1 X201.974 Y79.277 E197.88413
G1 X202.506 Y79.617 E197.91773
G1 X202.991 Y80.023 E197.95139
G1 X203.421 Y80.486 E197.98502
G1 X203.79 Y81 E198.01869
G1 X204.09 Y81.556 E198.05231
G1 X204.318 Y82.145 E198.08592
G1 X204.47 Y82.759 E198.11958
G1 X204.55 Y83.65 E198.16719
G1 X204.55 Y136.35 E200.97168
G1 X204.51 Y136.981 E201.00533
G1 X204.391 Y137.602 E201.03898
G1 X204.194 Y138.202 E201.07259
G1 X203.923 Y138.774 E201.10627
G1 X203.583 Y139.306 E201.13987
G1 X203.177 Y139.791 E201.17353
G1 X202.714 Y140.221 E201.20715
G1 X202.2 Y140.59 E201.24083
G1 X201.644 Y140.89 E201.27445
G1 X201.055 Y141.118 E201.30806
G1 X200.441 Y141.27 E201.34172
G1 X199.55 Y141.35 E201.38932
G1 X20.45 Y141.35 E210.92035
G1 X19.819 Y141.31 E210.95399
G1 X19.198 Y141.191 E210.98764
G1 X18.598 Y140.994 E211.02125
G1 X18.026 Y140.723 E211.05493
G1 X17.494 Y140.383 E211.08853
G1 X17.009 Y139.977 E211.12219
G1 X16.579 Y139.514 E211.15582
G1 X16.21 Y139 E211.18949
G1 X15.91 Y138.444 E211.22311
G1 X15.682 Y137.855 E211.25672
G1 X15.53 Y137.241 E211.29038
G1 X15.45 Y136.35 E211.33799
G1 X15.45 Y83.65 E214.14248
G1 X15.49 Y83.019 E214.17613
G1 X15.609 Y82.398 E214.20978
G1 X15.806 Y81.798 E214.24339
G1 X16.077 Y81.226 E214.27707
G1 X16.417 Y80.694 E214.31067
G1 X16.823 Y80.209 E214.34433
G1 X17.286 Y79.779 E214.37795
G1 X17.8 Y79.41 E214.41162
G1 X18.356 Y79.11 E214.44525
G1 X18.945 Y78.882 E214.47886
G0 F6000 X19.304 Y79.195
G1 F1200 X19.9 Y79.083 E214.51113
G1 X20.45 Y79.05 E214.54045
G1 X199.55 Y79.05 E224.07147
G1 X200.155 Y79.09 E224.10374
G1 X200.749 Y79.209 E224.13598
G1 X201.323 Y79.405 E224.16826
G1 X201.866 Y79.676 E224.20055
G1 X202.369 Y80.015 E224.23283
G1 X202.822 Y80.417 E224.26506
G1 X203.219 Y80.875 E224.29732
G1 X203.552 Y81.382 E224.3296
G1 X203.816 Y81.928 E224.36187
G1 X204.005 Y82.504 E224.39413
