;FLAVOR:Marlin
;TIME:12429
;Filament used: 11.4583m
;Layer height: 0.3
;MINX:76.45
;MINY:96.9
;MINZ:0.32
;MAXX:143.55
;MAXY:123.1
;MAXZ:179.72
;Generated with Cura_SteamEngine 4.4.0
M140 S70
M105
M190 S70
M104 S215
M105
M109 S215
M82 ;absolute extrusion mode
M201 X500.00 Y500.00 Z100.00 E5000.00 ;Setup machine max acceleration
M203 X500.00 Y500.00 Z10.00 E50.00 ;Setup machine max feedrate
M204 P500.00 R1000.00 T500.00 ;Setup Print/Retract/Travel acceleration
M205 X8.00 Y8.00 Z0.40 E5.00 ;Setup Jerk
M220 S100 ;Reset Feedrate
M221 S100 ;Reset Flowrate

G28 ;Home

G92 E0 ;Reset Extruder
G1 Z2.0 F3000 ;Move Z Axis up
G1 X10.1 Y20 Z0.28 F5000.0 ;Move to start position
G1 X10.1 Y200.0 Z0.28 F1500.0 E15 ;Draw the first line
G1 X10.4 Y200.0 Z0.28 F5000.0 ;Move to side a little
G1 X10.4 Y20 Z0.28 F1500.0 E30 ;Draw the second line
G92 E0 ;Reset Extruder
G1 Z2.0 F3000 ;Move Z Axis up

G92 E0
G92 E0
G1 F1500 E-6.5
;LAYER_COUNT:599
;LAYER:0
M107
G0 F6000 X79.467 Y98.538 Z0.32
;TYPE:SKIRT
G1 F1500 E0
G1 F1200 X80.115 Y98.086 E0.04204
G1 X80.805 Y97.702 E0.08407
G1 X81.53 Y97.39 E0.12607
G1 X82.283 Y97.152 E0.1681
G1 X83.056 Y96.992 E0.2101
G1 X83.842 Y96.911 E0.25215
G1 X84.25 Y96.9 E0.27387
G1 X135.73 Y96.9 E3.01344
G1 X136.519 Y96.94 E3.05549
G1 X137.299 Y97.059 E3.09747
G1 X138.064 Y97.257 E3.13953
G1 X138.804 Y97.531 E3.18152
G1 X139.513 Y97.879 E3.22355
G1 X140.184 Y98.297 E3.26562
G1 X140.808 Y98.78 E3.30761
G1 X141.381 Y99.323 E3.34962
G1 X141.896 Y99.922 E3.39166
G1 X142.347 Y100.57 E3.43367
G1 X142.731 Y101.261 E3.47574
G1 X143.043 Y101.986 E3.51775
G1 X143.28 Y102.739 E3.55976
G1 X143.439 Y103.513 E3.6018
G1 X143.53 Y104.685 E3.66436
G1 X143.55 Y115.285 E4.22845
G1 X143.511 Y116.074 E4.27049
G1 X143.393 Y116.855 E4.31253
G1 X143.197 Y117.62 E4.35455
G1 X142.924 Y118.361 E4.39658
G1 X142.578 Y119.071 E4.43861
G1 X142.162 Y119.742 E4.48062
G1 X141.68 Y120.367 E4.52262
G1 X141.137 Y120.941 E4.56467
G1 X140.539 Y121.457 E4.6067
G1 X139.892 Y121.909 E4.64871
G1 X139.203 Y122.294 E4.69071
G1 X138.478 Y122.607 E4.73273
G1 X137.725 Y122.846 E4.77477
G1 X136.952 Y123.007 E4.81679
G1 X136.166 Y123.089 E4.85885
G1 X135.75 Y123.1 E4.88099
G1 X84.259 Y123.1 E7.62115
G1 X83.47 Y123.06 E7.66319
G1 X82.69 Y122.941 E7.70518
G1 X81.925 Y122.743 E7.74723
G1 X81.185 Y122.469 E7.78922
G1 X80.476 Y122.121 E7.83125
G1 X79.805 Y121.703 E7.87332
G1 X79.181 Y121.22 E7.91532
G1 X78.608 Y120.677 E7.95733
G1 X78.093 Y120.078 E7.99936
G1 X77.642 Y119.43 E8.04138
G1 X77.258 Y118.739 E8.08345
G1 X76.946 Y118.014 E8.12545
G1 X76.709 Y117.261 E8.16746
G1 X76.55 Y116.487 E8.20951
G1 X76.469 Y115.702 E8.25151
G1 X76.459 Y115.307 E8.27253
G1 X76.45 Y104.707 E8.83663
G1 X76.489 Y103.918 E8.87866
G1 X76.608 Y103.137 E8.92071
G1 X76.805 Y102.373 E8.96269
G1 X77.079 Y101.632 E9.00474
G1 X77.426 Y100.922 E9.04679
G1 X77.843 Y100.252 E9.08879
G1 X78.325 Y99.627 E9.13079
G1 X78.869 Y99.054 E9.17284
G1 X79.467 Y98.538 E9.21487
G0 F6000 X79.856 Y98.746
G1 F1200 X80.498 Y98.322 E9.25581
G1 X81.18 Y97.967 E9.29673
G1 X81.896 Y97.685 E9.33768
G1 X82.636 Y97.478 E9.37857
G1 X83.395 Y97.35 E9.41953
G1 X84.25 Y97.3 E9.46511
G1 X135.73 Y97.3 E12.20468
G1 X136.498 Y97.34 E12.24561
G1 X137.258 Y97.459 E12.28654
G1 X138.001 Y97.657 E12.32746
G1 X138.72 Y97.931 E12.36841
G1 X139.406 Y98.278 E12.40932
G1 X140.053 Y98.694 E12.45025
G1 X140.653 Y99.175 E12.49118
G1 X141.2 Y99.716 E12.53212
G1 X141.688 Y100.311 E12.57307
G1 X142.111 Y100.953 E12.61398
G1 X142.466 Y101.636 E12.65495
G1 X142.747 Y102.351 E12.69583
G1 X142.953 Y103.093 E12.73681
G1 X143.081 Y103.851 E12.77772
G1 X143.13 Y104.686 E12.82223
G1 X143.15 Y115.286 E13.38632
G1 X143.111 Y116.054 E13.42725
G1 X142.993 Y116.814 E13.46818
G1 X142.797 Y117.558 E13.50912
G1 X142.525 Y118.277 E13.55003
G1 X142.179 Y118.964 E13.59096
G1 X141.764 Y119.612 E13.63191
G1 X141.284 Y120.213 E13.67284
G1 X140.744 Y120.761 E13.71379
G1 X140.15 Y121.25 E13.75473
G1 X139.509 Y121.674 E13.79563
G1 X138.827 Y122.03 E13.83657
G1 X138.112 Y122.313 E13.87749
G1 X137.371 Y122.52 E13.91843
G1 X136.613 Y122.65 E13.95936
G1 X135.75 Y122.7 E14.00536
G1 X84.259 Y122.7 E16.74552
G1 X83.491 Y122.66 E16.78644
G1 X82.731 Y122.541 E16.82738
G1 X81.988 Y122.343 E16.8683
G1 X81.269 Y122.069 E16.90925
G1 X80.583 Y121.722 E16.95016
G1 X79.936 Y121.306 E16.99109
G1 X79.336 Y120.825 E17.03202
G1 X78.789 Y120.284 E17.07296
G1 X78.301 Y119.689 E17.11391
G1 X77.878 Y119.047 E17.15482
G1 X77.523 Y118.364 E17.19579
G1 X77.242 Y117.649 E17.23667
G1 X77.036 Y116.907 E17.27765
G1 X76.908 Y116.149 E17.31856
G1 X76.859 Y115.306 E17.36349
G1 X76.85 Y104.706 E17.92759
G1 X76.889 Y103.938 E17.96851
G1 X77.008 Y103.178 E18.00945
G1 X77.205 Y102.435 E18.05035
G1 X77.478 Y101.716 E18.09128
G1 X77.825 Y101.029 E18.13224
G1 X78.241 Y100.382 E18.17317
G1 X78.721 Y99.781 E18.2141
G1 X79.262 Y99.234 E18.25505
G1 X79.856 Y98.746 E18.29596
G0 F6000 X80.243 Y98.96
G1 F1200 X80.879 Y98.565 E18.3358
G1 X81.553 Y98.241 E18.37559
G1 X82.257 Y97.99 E18.41537
G1 X82.985 Y97.815 E18.45521
G1 X83.727 Y97.72 E18.49502
G1 X84.25 Y97.7 E18.52287
G1 X135.73 Y97.7 E21.26245
G1 X136.477 Y97.74 E21.30225
G1 X137.215 Y97.859 E21.34204
G1 X137.937 Y98.057 E21.38188
G1 X138.633 Y98.33 E21.42166
G1 X139.296 Y98.677 E21.46148
G1 X139.919 Y99.092 E21.50132
G1 X140.493 Y99.571 E21.54111
G1 X141.014 Y100.108 E21.58092
G1 X141.473 Y100.698 E21.6207
G1 X141.868 Y101.334 E21.66054
G1 X142.192 Y102.008 E21.70034
G1 X142.442 Y102.713 E21.74015
G1 X142.616 Y103.441 E21.77998
G1 X142.711 Y104.183 E21.81979
G1 X142.73 Y104.687 E21.84663
G1 X142.75 Y115.287 E22.41072
G1 X142.711 Y116.034 E22.45053
G1 X142.593 Y116.773 E22.49035
G1 X142.397 Y117.494 E22.53011
G1 X142.125 Y118.191 E22.56993
G1 X141.78 Y118.855 E22.60975
G1 X141.366 Y119.478 E22.64956
G1 X140.888 Y120.054 E22.68939
G1 X140.352 Y120.575 E22.72917
G1 X139.763 Y121.036 E22.76897
G1 X139.128 Y121.431 E22.80877
G1 X138.454 Y121.757 E22.84861
G1 X137.749 Y122.008 E22.88844
G1 X137.022 Y122.183 E22.92823
G1 X136.28 Y122.28 E22.96805
G1 X135.75 Y122.3 E22.99628
G1 X84.259 Y122.3 E25.73643
G1 X83.512 Y122.26 E25.77624
G1 X82.774 Y122.141 E25.81602
G1 X82.052 Y121.943 E25.85586
G1 X81.356 Y121.67 E25.89565
G1 X80.693 Y121.323 E25.93547
G1 X80.07 Y120.908 E25.97531
G1 X79.496 Y120.429 E26.01509
G1 X78.975 Y119.892 E26.05491
G1 X78.516 Y119.302 E26.09469
G1 X78.121 Y118.666 E26.13453
G1 X77.797 Y117.992 E26.17433
G1 X77.547 Y117.287 E26.21413
G1 X77.373 Y116.559 E26.25397
G1 X77.278 Y115.817 E26.29378
G1 X77.259 Y115.306 E26.32099
G1 X77.25 Y104.706 E26.88508
G1 X77.289 Y103.959 E26.92489
G1 X77.408 Y103.22 E26.96472
G1 X77.605 Y102.499 E27.0045
G1 X77.878 Y101.802 E27.04433
G1 X78.224 Y101.139 E27.08413
G1 X78.638 Y100.516 E27.12394
G1 X79.117 Y99.941 E27.16376
G1 X79.654 Y99.42 E27.20358
G1 X80.243 Y98.96 E27.24335
G0 F6000 X80.045 Y99.613
G1 F1200 X80.629 Y99.182 E27.28197
G1 X81.258 Y98.817 E27.32067
G1 X81.922 Y98.524 E27.3593
G1 X82.615 Y98.306 E27.39796
G1 X83.328 Y98.165 E27.43664
G1 X84.25 Y98.1 E27.48582
G1 X135.73 Y98.1 E30.22539
G1 X136.455 Y98.14 E30.26403
G1 X137.172 Y98.259 E30.30271
G1 X137.871 Y98.457 E30.34137
G1 X138.544 Y98.73 E30.38002
G1 X139.183 Y99.075 E30.41867
G1 X139.78 Y99.489 E30.45733
G1 X140.328 Y99.965 E30.49596
G1 X140.821 Y100.499 E30.53463
G1 X141.251 Y101.084 E30.57327
G1 X141.615 Y101.713 E30.61194
G1 X141.908 Y102.378 E30.65062
G1 X142.126 Y103.071 E30.68928
G1 X142.266 Y103.783 E30.72789
G1 X142.33 Y104.688 E30.77617
G1 X142.35 Y115.288 E31.34027
G1 X142.311 Y116.013 E31.3789
G1 X142.193 Y116.73 E31.41757
G1 X141.997 Y117.429 E31.45621
G1 X141.725 Y118.103 E31.49488
G1 X141.381 Y118.742 E31.5335
G1 X140.969 Y119.34 E31.57215
G1 X140.493 Y119.889 E31.61082
G1 X139.96 Y120.383 E31.64949
G1 X139.376 Y120.815 E31.68815
G1 X138.748 Y121.18 E31.7268
G1 X138.084 Y121.473 E31.76542
G1 X137.392 Y121.693 E31.80407
G1 X136.679 Y121.834 E31.84274
G1 X135.75 Y121.9 E31.89231
G1 X84.259 Y121.9 E34.63246
G1 X83.534 Y121.86 E34.6711
G1 X82.817 Y121.741 E34.70978
G1 X82.118 Y121.543 E34.74844
G1 X81.445 Y121.27 E34.78709
G1 X80.806 Y120.925 E34.82574
G1 X80.209 Y120.511 E34.8644
G1 X79.661 Y120.035 E34.90303
G1 X79.168 Y119.501 E34.9417
G1 X78.738 Y118.916 E34.98034
G1 X78.374 Y118.287 E35.01901
G1 X78.081 Y117.622 E35.05768
G1 X77.863 Y116.929 E35.09634
G1 X77.723 Y116.217 E35.13496
G1 X77.659 Y115.306 E35.18356
G1 X77.65 Y104.706 E35.74765
G1 X77.689 Y103.98 E35.78634
G1 X77.808 Y103.264 E35.82497
G1 X78.005 Y102.565 E35.86362
G1 X78.277 Y101.891 E35.90229
G1 X78.622 Y101.252 E35.94094
G1 X79.035 Y100.654 E35.97961
G1 X79.511 Y100.106 E36.01824
G1 X80.045 Y99.613 E36.05692
G0 F6000 X80.435 Y99.813
G1 F1200 X81.014 Y99.412 E36.0944
G1 X81.634 Y99.079 E36.13185
G1 X82.288 Y98.819 E36.1693
G1 X82.968 Y98.634 E36.2068
G1 X83.663 Y98.528 E36.24422
G1 X84.25 Y98.5 E36.27549
G1 X135.73 Y98.5 E39.01506
G1 X136.433 Y98.54 E39.05253
G1 X137.127 Y98.659 E39.09
G1 X137.802 Y98.857 E39.12744
G1 X138.451 Y99.129 E39.16489
G1 X139.065 Y99.474 E39.20237
G1 X139.636 Y99.885 E39.23981
G1 X140.157 Y100.359 E39.27729
G1 X140.621 Y100.889 E39.31478
G1 X141.021 Y101.468 E39.35223
G1 X141.353 Y102.089 E39.3897
G1 X141.613 Y102.743 E39.42715
G1 X141.797 Y103.423 E39.46464
G1 X141.903 Y104.119 E39.50211
G1 X141.93 Y104.688 E39.53242
G1 X141.95 Y115.288 E40.09651
G1 X141.911 Y115.991 E40.13398
G1 X141.793 Y116.685 E40.17144
G1 X141.597 Y117.361 E40.2089
G1 X141.326 Y118.011 E40.24638
G1 X140.983 Y118.626 E40.28385
G1 X140.572 Y119.197 E40.32129
G1 X140.099 Y119.719 E40.35878
G1 X139.57 Y120.183 E40.39622
G1 X138.992 Y120.585 E40.43369
G1 X138.372 Y120.918 E40.47114
G1 X137.718 Y121.179 E40.50861
G1 X137.039 Y121.365 E40.54608
G1 X136.343 Y121.472 E40.58355
G1 X135.75 Y121.5 E40.61514
G1 X84.259 Y121.5 E43.3553
G1 X83.556 Y121.46 E43.39277
G1 X82.862 Y121.341 E43.43024
G1 X82.187 Y121.143 E43.46768
G1 X81.538 Y120.871 E43.50513
G1 X80.924 Y120.526 E43.54261
G1 X80.353 Y120.115 E43.58004
G1 X79.832 Y119.641 E43.61753
G1 X79.368 Y119.111 E43.65501
G1 X78.968 Y118.532 E43.69246
G1 X78.636 Y117.911 E43.72994
G1 X78.376 Y117.257 E43.76739
G1 X78.192 Y116.577 E43.80488
G1 X78.086 Y115.881 E43.84234
G1 X78.059 Y115.305 E43.87303
G1 X78.05 Y104.705 E44.43712
G1 X78.089 Y104.002 E44.47459
G1 X78.208 Y103.308 E44.51206
G1 X78.405 Y102.633 E44.54948
G1 X78.677 Y101.983 E44.58698
G1 X79.021 Y101.369 E44.62443
G1 X79.432 Y100.798 E44.66187
G1 X79.906 Y100.277 E44.69935
G1 X80.435 Y99.813 E44.7368
G0 F6000 X80.824 Y100.02
G1 F1200 X81.396 Y99.651 E44.77303
G1 X82.007 Y99.351 E44.80925
G1 X82.65 Y99.125 E44.84552
G1 X83.314 Y98.976 E44.88173
G1 X84.25 Y98.9 E44.93171
G1 X135.73 Y98.9 E47.67128
G1 X136.41 Y98.94 E47.70753
G1 X137.08 Y99.059 E47.74374
G1 X137.732 Y99.256 E47.77999
G1 X138.356 Y99.528 E47.81621
G1 X138.944 Y99.872 E47.85246
G1 X139.488 Y100.282 E47.88871
G1 X139.979 Y100.753 E47.92492
G1 X140.413 Y101.278 E47.96117
G1 X140.782 Y101.85 E47.99739
G1 X141.081 Y102.462 E48.03364
G1 X141.306 Y103.104 E48.06984
G1 X141.455 Y103.769 E48.10611
G1 X141.53 Y104.689 E48.15523
G1 X141.55 Y115.289 E48.71932
G1 X141.511 Y115.969 E48.75557
G1 X141.393 Y116.639 E48.79177
G1 X141.197 Y117.292 E48.82806
G1 X140.926 Y117.916 E48.86426
G1 X140.584 Y118.505 E48.90051
G1 X140.175 Y119.049 E48.93672
G1 X139.705 Y119.542 E48.97297
G1 X139.181 Y119.976 E49.00918
G1 X138.609 Y120.346 E49.04543
G1 X137.998 Y120.646 E49.08166
G1 X137.356 Y120.873 E49.11789
G1 X136.692 Y121.023 E49.15412
G1 X135.75 Y121.1 E49.20442
G1 X84.259 Y121.1 E51.94457
G1 X83.579 Y121.06 E51.98082
G1 X82.909 Y120.941 E52.01703
G1 X82.257 Y120.744 E52.05328
G1 X81.633 Y120.472 E52.08951
G1 X81.045 Y120.128 E52.12576
G1 X80.501 Y119.718 E52.16201
G1 X80.01 Y119.247 E52.19822
G1 X79.576 Y118.722 E52.23447
G1 X79.207 Y118.15 E52.27069
G1 X78.908 Y117.538 E52.30694
G1 X78.683 Y116.896 E52.34314
G1 X78.534 Y116.231 E52.37941
G1 X78.459 Y115.305 E52.42884
G1 X78.45 Y104.705 E52.99294
G1 X78.489 Y104.025 E53.02918
G1 X78.608 Y103.355 E53.0654
G1 X78.805 Y102.703 E53.10164
G1 X79.076 Y102.078 E53.13789
G1 X79.419 Y101.49 E53.17412
G1 X79.829 Y100.946 E53.21037
G1 X80.299 Y100.454 E53.24658
G1 X80.824 Y100.02 E53.28283
G0 F6000 X80.691 Y100.638
G1 F1200 X81.211 Y100.236 E53.31781
G1 X81.775 Y99.9 E53.35274
G1 X82.377 Y99.635 E53.38775
G1 X83.005 Y99.445 E53.42266
G1 X83.653 Y99.333 E53.45766
G1 X84.25 Y99.3 E53.48948
G1 X135.73 Y99.3 E56.22905
G1 X136.386 Y99.34 E56.26402
G1 X137.032 Y99.459 E56.29898
G1 X137.659 Y99.656 E56.33395
G1 X138.257 Y99.928 E56.36891
G1 X138.818 Y100.27 E56.40388
G1 X139.333 Y100.678 E56.43884
G1 X139.795 Y101.145 E56.4738
G1 X140.196 Y101.665 E56.50875
G1 X140.532 Y102.229 E56.54368
G1 X140.796 Y102.831 E56.57866
G1 X140.986 Y103.46 E56.61363
G1 X141.097 Y104.107 E56.64856
G1 X141.13 Y104.69 E56.67964
G1 X141.15 Y115.29 E57.24373
G1 X141.111 Y115.946 E57.2787
G1 X140.993 Y116.592 E57.31365
G1 X140.798 Y117.219 E57.34859
G1 X140.527 Y117.818 E57.38358
G1 X140.186 Y118.379 E57.41852
G1 X139.779 Y118.895 E57.45349
G1 X139.313 Y119.358 E57.48845
G1 X138.794 Y119.76 E57.52338
G1 X138.23 Y120.097 E57.55835
G1 X137.629 Y120.363 E57.59332
G1 X137 Y120.553 E57.62829
G1 X136.353 Y120.666 E57.66324
G1 X135.75 Y120.7 E57.69538
G1 X84.259 Y120.7 E60.43554
G1 X83.603 Y120.66 E60.47051
G1 X82.957 Y120.541 E60.50547
G1 X82.33 Y120.344 E60.54044
G1 X81.732 Y120.072 E60.5754
G1 X81.171 Y119.73 E60.61037
G1 X80.656 Y119.322 E60.64533
G1 X80.194 Y118.855 E60.68029
G1 X79.793 Y118.335 E60.71524
G1 X79.457 Y117.771 E60.75017
G1 X79.193 Y117.169 E60.78515
G1 X79.003 Y116.54 E60.82012
G1 X78.892 Y115.893 E60.85505
G1 X78.859 Y115.305 E60.88639
G1 X78.85 Y104.705 E61.45049
G1 X78.889 Y104.049 E61.48546
G1 X79.008 Y103.403 E61.52041
G1 X79.204 Y102.776 E61.55537
G1 X79.476 Y102.177 E61.59038
G1 X79.817 Y101.616 E61.62532
G1 X80.224 Y101.101 E61.66025
G1 X80.691 Y100.638 E61.69525
G0 F6000 X81.083 Y100.831
G1 F1200 X81.596 Y100.463 E61.72884
G1 X82.152 Y100.162 E61.76249
G1 X82.741 Y99.933 E61.79612
G1 X83.355 Y99.781 E61.82978
G1 X84.25 Y99.7 E61.8776
G1 X135.73 Y99.7 E64.61718
G1 X136.361 Y99.74 E64.65082
G1 X136.982 Y99.859 E64.68447
G1 X137.582 Y100.056 E64.71808
G1 X138.154 Y100.327 E64.75176
G1 X138.686 Y100.667 E64.78536
G1 X139.171 Y101.073 E64.81902
G1 X139.601 Y101.536 E64.85265
G1 X139.97 Y102.05 E64.88632
G1 X140.27 Y102.606 E64.91994
G1 X140.498 Y103.195 E64.95355
G1 X140.65 Y103.809 E64.98721
G1 X140.73 Y104.691 E65.03434
G1 X140.75 Y115.291 E65.59843
G1 X140.711 Y115.922 E65.63208
G1 X140.593 Y116.543 E65.66571
G1 X140.398 Y117.144 E65.69934
G1 X140.128 Y117.715 E65.73295
G1 X139.788 Y118.248 E65.76659
G1 X139.384 Y118.734 E65.80023
G1 X138.921 Y119.165 E65.83389
G1 X138.408 Y119.535 E65.86755
G1 X137.853 Y119.836 E65.90115
G1 X137.264 Y120.065 E65.93478
G1 X136.65 Y120.218 E65.96845
G1 X135.75 Y120.3 E66.01654
G1 X84.259 Y120.3 E68.7567
G1 X83.628 Y120.26 E68.79035
G1 X83.007 Y120.141 E68.824
G1 X82.407 Y119.944 E68.8576
G1 X81.835 Y119.673 E68.89129
G1 X81.303 Y119.333 E68.92488
G1 X80.818 Y118.927 E68.95854
G1 X80.388 Y118.464 E68.99217
G1 X80.019 Y117.95 E69.02584
G1 X79.719 Y117.394 E69.05946
G1 X79.491 Y116.805 E69.09307
G1 X79.339 Y116.191 E69.12673
G1 X79.259 Y115.304 E69.17413
G1 X79.25 Y104.704 E69.73822
G1 X79.289 Y104.073 E69.77186
G1 X79.408 Y103.452 E69.80551
G1 X79.604 Y102.851 E69.83915
G1 X79.875 Y102.28 E69.87279
G1 X80.215 Y101.747 E69.90643
G1 X80.62 Y101.262 E69.94006
G1 X81.083 Y100.831 E69.97372
G0 F6000 X81.472 Y101.033
G1 F1200 X81.979 Y100.7 E70.006
G1 X82.524 Y100.436 E70.03823
G1 X83.1 Y100.246 E70.0705
G1 X83.696 Y100.133 E70.10279
G1 X84.25 Y100.1 E70.13232
G1 X135.73 Y100.1 E72.87189
G1 X136.335 Y100.14 E72.90416
G1 X136.929 Y100.259 E72.9364
G1 X137.503 Y100.455 E72.96867
G1 X138.046 Y100.726 E73.00097
G1 X138.549 Y101.065 E73.03325
G1 X139.002 Y101.467 E73.06548
G1 X139.399 Y101.925 E73.09773
G1 X139.732 Y102.432 E73.13001
G1 X139.996 Y102.978 E73.16229
G1 X140.185 Y103.554 E73.19455
G1 X140.297 Y104.15 E73.22682
G1 X140.33 Y104.691 E73.25566
