;FLAVOR:Marlin
;TIME:16485
;Filament used: 16.3994m
;Layer height: 0.3
;MINX:54.367
;MINY:67.633
;MINZ:0.32
;MAXX:167.259
;MAXY:153.994
;MAXZ:55.82
;Generated with Cura_SteamEngine 4.4.0
M140 S60
M105
M190 S60
M104 S260
M105
M109 S260
M82 ;absolute extrusion mode
M201 X500.00 Y500.00 Z100.00 E5000.00 ;Setup machine max acceleration
M203 X500.00 Y500.00 Z10.00 E50.00 ;Setup machine max feedrate
M204 P500.00 R1000.00 T500.00 ;Setup Print/Retract/Travel acceleration
M205 X8.00 Y8.00 Z0.40 E5.00 ;Setup Jerk
M220 S100 ;Reset Feedrate
M221 S100 ;Reset Flowrate

G28 ;Home

G92 E0 ;Reset Extruder
G1 Z2.0 F3000 ;Move Z Axis up
G1 X10.1 Y20 Z0.28 F5000.0 ;Move to start position
G1 X10.1 Y200.0 Z0.28 F1500.0 E15 ;Draw the first line
G1 X10.4 Y200.0 Z0.28 F5000.0 ;Move to side a little
G1 X10.4 Y20 Z0.28 F1500.0 E30 ;Draw the second line
G92 E0 ;Reset Extruder
G1 Z2.0 F3000 ;Move Z Axis up

G92 E0
G92 E0
G1 F1500 E-6.5
;LAYER_COUNT:186
;LAYER:0
M107
G0 F6000 X58.579 Y106.395 Z0.32
;TYPE:SKIRT
G1 F1500 E0
G1 F1200 X59.298 Y106.068 E0.04203
G1 X60.046 Y105.815 E0.08405
G1 X60.816 Y105.64 E0.12608
G1 X61.211 Y105.581 E0.14733
G1 X61.909 Y105.495 E0.18476
G1 X61.913 Y105.494 E0.18498
G1 X138.805 Y96.054 E4.3076
G1 X138.447 Y75.753 E5.38811
G1 X138.473 Y74.964 E5.43012
G1 X138.579 Y74.182 E5.47211
G1 X138.763 Y73.414 E5.51414
G1 X139.024 Y72.668 E5.5562
G1 X139.359 Y71.953 E5.59822
G1 X139.765 Y71.276 E5.64023
G1 X140.237 Y70.643 E5.68225
G1 X140.771 Y70.061 E5.72428
G1 X141.361 Y69.536 E5.76631
G1 X142 Y69.073 E5.8083
G1 X142.684 Y68.677 E5.85036
G1 X143.404 Y68.352 E5.8924
G1 X144.153 Y68.102 E5.93442
G1 X144.923 Y67.929 E5.97642
G1 X145.707 Y67.835 E6.01844
G1 X146.131 Y67.817 E6.04102
G1 X158.653 Y67.633 E6.70747
G1 X159.443 Y67.661 E6.74954
G1 X160.225 Y67.769 E6.79155
G1 X160.992 Y67.956 E6.83356
G1 X161.737 Y68.219 E6.8756
G1 X162.451 Y68.556 E6.91762
G1 X163.127 Y68.964 E6.95964
G1 X163.759 Y69.438 E7.00168
G1 X164.339 Y69.973 E7.04367
G1 X164.863 Y70.564 E7.0857
G1 X165.324 Y71.206 E7.12776
G1 X165.717 Y71.89 E7.16974
G1 X166.04 Y72.611 E7.21179
G1 X166.288 Y73.361 E7.25382
G1 X166.459 Y74.132 E7.29585
G1 X166.548 Y74.868 E7.3353
G1 X166.611 Y75.737 E7.38167
G1 X166.615 Y75.795 E7.38476
G1 X166.797 Y78.595 E7.53408
G1 X166.802 Y78.683 E7.53877
G1 X166.951 Y81.458 E7.68666
G1 X166.955 Y81.545 E7.6913
G1 X167.072 Y84.296 E7.83783
G1 X167.075 Y84.378 E7.84219
G1 X167.162 Y87.101 E7.98717
G1 X167.164 Y87.185 E7.99165
G1 X167.221 Y89.883 E8.13526
G1 X167.223 Y89.96 E8.13935
G1 X167.253 Y92.626 E8.28124
G1 X167.253 Y92.696 E8.28496
G1 X167.259 Y95.329 E8.42508
G1 X167.259 Y95.407 E8.42923
G1 X167.239 Y98.004 E8.56744
G1 X167.238 Y98.072 E8.57106
G1 X167.196 Y100.63 E8.7072
G1 X167.195 Y100.694 E8.71061
G1 X167.133 Y103.21 E8.84454
G1 X167.131 Y103.27 E8.84774
G1 X167.051 Y105.74 E8.97925
G1 X167.049 Y105.794 E8.98213
G1 X166.954 Y108.214 E9.11101
G1 X166.952 Y108.267 E9.11383
G1 X166.843 Y110.632 E9.23982
G1 X166.84 Y110.678 E9.24227
G1 X166.72 Y112.986 E9.36526
G1 X166.717 Y113.042 E9.36825
G1 X166.519 Y116.384 E9.54641
G1 X166.516 Y116.442 E9.5495
G1 X166.303 Y119.635 E9.7198
G1 X166.298 Y119.706 E9.72358
G1 X165.923 Y124.652 E9.98755
G1 X165.916 Y124.734 E9.99193
G1 X165.532 Y129.176 E10.22919
G1 X165.524 Y129.264 E10.2339
G1 X165.215 Y132.419 E10.4026
G1 X165.205 Y132.511 E10.40752
G1 X164.971 Y134.64 E10.5215
G1 X164.961 Y134.731 E10.52637
G1 X164.802 Y136.036 E10.59633
G1 X164.79 Y136.131 E10.60143
G1 X164.627 Y137.345 E10.66661
G1 X164.616 Y137.423 E10.67081
G1 X164.533 Y137.997 E10.70167
G1 X164.521 Y138.074 E10.70582
G1 X164.436 Y138.623 E10.73538
G1 X164.422 Y138.71 E10.74007
G1 X164.334 Y139.239 E10.76861
G1 X164.32 Y139.322 E10.77309
G1 X164.23 Y139.829 E10.80049
G1 X164.207 Y139.953 E10.8072
G1 X164.113 Y140.437 E10.83344
G1 X164.096 Y140.521 E10.838
G1 X164 Y140.988 E10.86337
G1 X163.967 Y141.143 E10.8718
G1 X163.866 Y141.588 E10.89609
G1 X163.823 Y141.766 E10.90583
G1 X163.716 Y142.191 E10.92916
G1 X163.679 Y142.331 E10.93686
G1 X163.569 Y142.736 E10.9592
G1 X163.503 Y142.966 E10.97193
G1 X163.332 Y143.527 E11.00314
G1 X163.221 Y143.864 E11.02202
G1 X163.037 Y144.382 E11.05127
G1 X162.907 Y144.724 E11.07074
G1 X162.707 Y145.213 E11.09886
G1 X162.53 Y145.613 E11.12214
G1 X162.311 Y146.073 E11.14925
G1 X162.092 Y146.499 E11.17474
G1 X161.855 Y146.927 E11.20078
G1 X161.605 Y147.345 E11.22669
G1 X161.349 Y147.746 E11.25201
G1 X161.051 Y148.181 E11.28007
G1 X160.775 Y148.555 E11.30481
G1 X160.439 Y148.978 E11.33356
G1 X160.142 Y149.327 E11.35794
G1 X159.76 Y149.744 E11.38804
G1 X159.442 Y150.067 E11.41216
G1 X159.035 Y150.452 E11.44197
G1 X158.695 Y150.751 E11.46607
G1 X158.24 Y151.122 E11.49731
G1 X157.878 Y151.395 E11.52144
G1 X157.442 Y151.701 E11.54978
G1 X157.057 Y151.952 E11.57424
G1 X156.638 Y152.207 E11.60035
G1 X156.235 Y152.435 E11.62499
G1 X155.756 Y152.684 E11.65371
G1 X155.329 Y152.888 E11.6789
G1 X154.905 Y153.075 E11.70356
G1 X154.455 Y153.258 E11.72941
G1 X154.002 Y153.426 E11.75512
G1 X153.532 Y153.584 E11.78151
G1 X152.772 Y153.798 E11.82353
G1 X151.994 Y153.933 E11.86555
G1 X151.127 Y153.991 E11.91179
G1 X150.835 Y153.994 E11.92733
G1 X67.678 Y153.994 E16.35263
G1 X66.889 Y153.954 E16.39467
G1 X66.109 Y153.835 E16.43666
G1 X65.344 Y153.637 E16.47871
G1 X64.604 Y153.363 E16.5207
G1 X63.895 Y153.015 E16.56273
G1 X63.224 Y152.597 E16.6048
G1 X62.6 Y152.114 E16.6468
G1 X62.027 Y151.571 E16.68881
G1 X61.512 Y150.972 E16.73085
G1 X61.061 Y150.324 E16.77286
G1 X60.677 Y149.633 E16.81493
G1 X60.365 Y148.908 E16.85693
G1 X60.128 Y148.155 E16.89894
G1 X59.969 Y147.381 E16.94099
G1 X59.888 Y146.596 E16.98299
G1 X59.878 Y146.194 E17.00439
G1 X59.878 Y140.694 E17.29708
G1 X59.918 Y139.905 E17.33912
G1 X60.037 Y139.125 E17.38111
G1 X60.235 Y138.36 E17.42316
G1 X60.509 Y137.62 E17.46515
G1 X60.857 Y136.911 E17.50718
G1 X61.275 Y136.24 E17.54925
G1 X61.758 Y135.616 E17.59124
G1 X62.301 Y135.043 E17.63325
G1 X62.9 Y134.528 E17.67529
G1 X63.548 Y134.077 E17.71731
G1 X64.239 Y133.693 E17.75937
G1 X64.964 Y133.381 E17.80138
G1 X65.717 Y133.144 E17.84339
G1 X66.491 Y132.985 E17.88544
G1 X67.276 Y132.904 E17.92743
G1 X67.678 Y132.894 E17.94883
G1 X145.178 Y132.894 E22.07309
G1 X145.336 Y132.264 E22.10765
G1 X145.559 Y131.315 E22.15953
G1 X145.79 Y130.269 E22.21654
G1 X146.002 Y129.207 E22.27417
G1 X146.177 Y128.253 E22.32578
G1 X146.336 Y127.283 E22.37809
G1 X146.48 Y126.267 E22.4327
G1 X146.59 Y125.325 E22.48317
G1 X146.672 Y124.387 E22.53328
G1 X146.723 Y123.501 E22.5805
G1 X146.741 Y122.638 E22.62644
G1 X146.724 Y121.796 E22.67126
G1 X146.705 Y121.456 E22.68938
G1 X146.671 Y121.03 E22.71212
G1 X146.635 Y120.682 E22.73074
G1 X146.59 Y120.344 E22.74888
G1 X146.532 Y119.989 E22.76803
G1 X146.474 Y119.68 E22.78476
G1 X146.392 Y119.305 E22.80519
G1 X146.319 Y119.012 E22.82125
G1 X146.213 Y118.631 E22.8423
G1 X146.121 Y118.338 E22.85864
G1 X146.009 Y118.01 E22.87709
G1 X145.893 Y117.703 E22.89455
G1 X145.746 Y117.349 E22.91495
G1 X145.625 Y117.077 E22.93079
G1 X145.456 Y116.726 E22.95152
G1 X145.28 Y116.384 E22.97199
G1 X145.103 Y116.065 E22.99141
G1 X144.94 Y115.788 E23.00851
G1 X144.718 Y115.433 E23.03079
G1 X144.502 Y115.107 E23.0516
G1 X144.278 Y114.788 E23.07235
G1 X144.015 Y114.432 E23.0959
G1 X143.816 Y114.177 E23.11311
G1 X64.91 Y123.865 E27.34372
G1 X63.492 Y124.041 E27.41976
G1 X62.704 Y124.098 E27.46181
G1 X61.915 Y124.076 E27.50381
G1 X61.132 Y123.973 E27.54584
G1 X60.363 Y123.793 E27.58787
G1 X59.617 Y123.535 E27.62987
G1 X58.9 Y123.203 E27.67192
G1 X58.221 Y122.801 E27.71391
G1 X57.585 Y122.332 E27.75597
G1 X57.001 Y121.801 E27.79797
G1 X56.473 Y121.213 E27.84003
G1 X56.007 Y120.576 E27.88203
G1 X55.608 Y119.894 E27.92408
G1 X55.28 Y119.176 E27.96608
G1 X55.027 Y118.428 E28.0081
G1 X54.85 Y117.658 E28.05015
G1 X54.789 Y117.251 E28.07205
G1 X54.423 Y114.273 E28.23172
G1 X54.367 Y113.486 E28.27371
G1 X54.39 Y112.696 E28.31577
G1 X54.493 Y111.914 E28.35774
G1 X54.675 Y111.145 E28.39979
G1 X54.933 Y110.399 E28.4418
G1 X55.266 Y109.683 E28.48382
G1 X55.669 Y109.004 E28.52584
G1 X56.139 Y108.369 E28.56788
G1 X56.671 Y107.785 E28.60992
G1 X57.259 Y107.258 E28.65194
G1 X57.897 Y106.793 E28.69396
G1 X58.579 Y106.395 E28.73598
G0 F6000 X58.978 Y106.643
G1 F1200 X59.688 Y106.349 E28.77687
G1 X60.426 Y106.129 E28.81785
G1 X61.26 Y105.978 E28.86296
G1 X61.958 Y105.892 E28.90038
G1 X61.961 Y105.891 E28.90055
G1 X139.211 Y96.407 E33.04237
G1 X138.847 Y75.746 E34.14204
G1 X138.874 Y74.978 E34.18294
G1 X138.98 Y74.216 E34.22388
G1 X139.164 Y73.469 E34.26482
G1 X139.425 Y72.746 E34.30572
G1 X139.76 Y72.053 E34.34669
G1 X140.165 Y71.399 E34.38762
G1 X140.636 Y70.791 E34.42855
G1 X141.167 Y70.235 E34.46946
G1 X141.753 Y69.736 E34.51042
G1 X142.387 Y69.302 E34.55131
G1 X143.064 Y68.935 E34.59229
G1 X143.774 Y68.641 E34.63319
G1 X144.512 Y68.422 E34.67415
G1 X145.268 Y68.281 E34.71508
G1 X146.137 Y68.217 E34.76145
G1 X158.659 Y68.033 E35.42789
G1 X159.428 Y68.061 E35.46884
G1 X160.189 Y68.17 E35.50975
G1 X160.936 Y68.357 E35.55073
G1 X161.658 Y68.62 E35.59163
G1 X162.35 Y68.957 E35.63259
G1 X163.003 Y69.363 E35.6735
G1 X163.61 Y69.836 E35.71446
G1 X164.164 Y70.368 E35.75533
G1 X164.661 Y70.956 E35.7963
G1 X165.094 Y71.592 E35.83725
G1 X165.458 Y72.269 E35.87815
G1 X165.75 Y72.981 E35.9191
G1 X165.967 Y73.719 E35.96004
G1 X166.106 Y74.475 E36.00095
G1 X166.149 Y74.897 E36.02352
G1 X166.212 Y75.766 E36.06989
G1 X166.215 Y75.821 E36.07282
G1 X166.397 Y78.621 E36.22214
G1 X166.402 Y78.704 E36.22656
G1 X166.551 Y81.479 E36.37445
G1 X166.555 Y81.562 E36.37887
G1 X166.672 Y84.313 E36.5254
G1 X166.675 Y84.391 E36.52956
G1 X166.762 Y87.114 E36.67454
G1 X166.764 Y87.194 E36.6788
G1 X166.821 Y89.892 E36.82241
G1 X166.823 Y89.965 E36.82629
G1 X166.853 Y92.631 E36.96818
G1 X166.853 Y92.697 E36.97169
G1 X166.859 Y95.33 E37.11181
G1 X166.859 Y95.404 E37.11574
G1 X166.839 Y98.001 E37.25395
G1 X166.838 Y98.065 E37.25736
G1 X166.796 Y100.623 E37.3935
G1 X166.795 Y100.684 E37.39675
G1 X166.733 Y103.2 E37.53068
G1 X166.731 Y103.258 E37.53377
G1 X166.651 Y105.728 E37.66528
G1 X166.649 Y105.778 E37.66795
G1 X166.554 Y108.198 E37.79683
G1 X166.552 Y108.249 E37.79954
G1 X166.443 Y110.614 E37.92553
G1 X166.441 Y110.657 E37.92783
G1 X166.321 Y112.965 E38.05081
G1 X166.318 Y113.019 E38.05369
G1 X166.12 Y116.361 E38.23185
G1 X166.117 Y116.416 E38.23478
G1 X165.904 Y119.609 E38.40508
G1 X165.899 Y119.675 E38.4086
G1 X165.524 Y124.621 E38.67257
G1 X165.518 Y124.699 E38.67673
G1 X165.134 Y129.141 E38.914
G1 X165.126 Y129.225 E38.91849
G1 X164.817 Y132.38 E39.08719
G1 X164.808 Y132.467 E39.09184
G1 X164.574 Y134.596 E39.20582
G1 X164.564 Y134.683 E39.21048
G1 X164.405 Y135.988 E39.28044
G1 X164.393 Y136.078 E39.28528
G1 X164.23 Y137.292 E39.35046
G1 X164.22 Y137.366 E39.35443
G1 X164.137 Y137.94 E39.3853
G1 X164.126 Y138.013 E39.38923
G1 X164.041 Y138.562 E39.41879
G1 X164.028 Y138.644 E39.42321
G1 X163.94 Y139.173 E39.45175
G1 X163.926 Y139.252 E39.45602
G1 X163.836 Y139.759 E39.48342
G1 X163.814 Y139.877 E39.48981
G1 X163.72 Y140.361 E39.51604
G1 X163.704 Y140.44 E39.52033
G1 X163.608 Y140.907 E39.5457
G1 X163.576 Y141.055 E39.55376
G1 X163.475 Y141.5 E39.57805
G1 X163.435 Y141.669 E39.58729
G1 X163.328 Y142.094 E39.61061
G1 X163.293 Y142.227 E39.61793
G1 X163.183 Y142.632 E39.64026
G1 X163.12 Y142.85 E39.65234
G1 X162.949 Y143.411 E39.68355
G1 X162.844 Y143.73 E39.70142
G1 X162.66 Y144.248 E39.73067
G1 X162.536 Y144.572 E39.74914
G1 X162.336 Y145.061 E39.77725
G1 X162.168 Y145.441 E39.79936
G1 X161.949 Y145.901 E39.82647
G1 X161.742 Y146.305 E39.85063
G1 X161.505 Y146.733 E39.87667
G1 X161.268 Y147.13 E39.90127
G1 X161.012 Y147.531 E39.92659
G1 X160.729 Y147.943 E39.95319
G1 X160.453 Y148.317 E39.97792
G1 X160.135 Y148.719 E40.0052
G1 X159.838 Y149.068 E40.02959
G1 X159.475 Y149.464 E40.05818
G1 X159.157 Y149.787 E40.0823
G1 X158.771 Y150.152 E40.11057
G1 X158.431 Y150.451 E40.13466
G1 X158 Y150.802 E40.16424
G1 X157.638 Y151.075 E40.18837
G1 X157.223 Y151.366 E40.21534
G1 X156.838 Y151.617 E40.2398
G1 X156.441 Y151.859 E40.26454
G1 X156.038 Y152.087 E40.28919
G1 X155.584 Y152.323 E40.31641
G1 X155.157 Y152.527 E40.3416
G1 X154.755 Y152.705 E40.36499
G1 X154.305 Y152.888 E40.39085
G1 X153.875 Y153.047 E40.41524
G1 X153.405 Y153.205 E40.44163
G1 X152.664 Y153.412 E40.48257
G1 X151.906 Y153.541 E40.52349
G1 X151.123 Y153.591 E40.56524
G1 X150.831 Y153.594 E40.58078
G1 X67.678 Y153.594 E45.00587
G1 X66.91 Y153.554 E45.0468
G1 X66.15 Y153.435 E45.08773
G1 X65.407 Y153.237 E45.12865
G1 X64.688 Y152.963 E45.1696
G1 X64.002 Y152.616 E45.21051
G1 X63.355 Y152.2 E45.25145
G1 X62.755 Y151.719 E45.29237
G1 X62.208 Y151.178 E45.33331
G1 X61.72 Y150.583 E45.37426
G1 X61.297 Y149.941 E45.41518
G1 X60.942 Y149.258 E45.45614
G1 X60.661 Y148.543 E45.49702
G1 X60.455 Y147.801 E45.538
G1 X60.327 Y147.043 E45.57891
G1 X60.278 Y146.194 E45.62417
G1 X60.278 Y140.694 E45.91686
G1 X60.318 Y139.926 E45.95778
G1 X60.437 Y139.166 E45.99872
G1 X60.635 Y138.423 E46.03964
G1 X60.909 Y137.704 E46.08058
G1 X61.256 Y137.018 E46.1215
G1 X61.672 Y136.371 E46.16243
G1 X62.153 Y135.771 E46.20335
G1 X62.694 Y135.224 E46.24429
G1 X63.289 Y134.736 E46.28524
G1 X63.931 Y134.313 E46.32616
G1 X64.614 Y133.958 E46.36712
G1 X65.329 Y133.677 E46.408
G1 X66.071 Y133.471 E46.44898
G1 X66.829 Y133.343 E46.48989
G1 X67.678 Y133.294 E46.53515
G1 X145.49 Y133.294 E50.67601
G1 X145.719 Y132.38 E50.72615
G1 X145.969 Y131.316 E50.78432
G1 X146.187 Y130.326 E50.83826
G1 X146.375 Y129.384 E50.88938
G1 X146.577 Y128.291 E50.94853
G1 X146.729 Y127.355 E50.99899
G1 X146.874 Y126.335 E51.05382
G1 X146.987 Y125.37 E51.10553
G1 X147.071 Y124.412 E51.1567
G1 X147.123 Y123.505 E51.20505
G1 X147.14 Y122.663 E51.24987
G1 X147.123 Y121.766 E51.29761
G1 X147.102 Y121.402 E51.31701
G1 X147.073 Y121.044 E51.33613
G1 X147.03 Y120.625 E51.35854
G1 X146.987 Y120.301 E51.37593
G1 X146.921 Y119.891 E51.39803
G1 X146.864 Y119.586 E51.41455
G1 X146.787 Y119.237 E51.43356
G1 X146.705 Y118.905 E51.45176
G1 X146.603 Y118.541 E51.47188
G1 X146.494 Y118.194 E51.49124
G1 X146.382 Y117.865 E51.50973
G1 X146.26 Y117.545 E51.52795
G1 X146.129 Y117.226 E51.54631
G1 X145.974 Y116.878 E51.56658
G1 X145.815 Y116.549 E51.58603
G1 X145.642 Y116.211 E51.60623
G1 X145.469 Y115.9 E51.62517
G1 X145.265 Y115.553 E51.64659
G1 X145.058 Y115.222 E51.66737
G1 X144.829 Y114.878 E51.68936
G1 X144.587 Y114.533 E51.71178
G1 X144.332 Y114.189 E51.73457
G1 X144.065 Y113.845 E51.75775
G1 X143.99 Y113.753 E51.76406
G1 X64.86 Y123.468 E56.00668
G1 X63.442 Y123.644 E56.08272
G1 X62.675 Y123.699 E56.12364
G1 X61.907 Y123.674 E56.16453
G1 X61.145 Y123.569 E56.20547
G1 X60.398 Y123.386 E56.24639
G1 X59.674 Y123.126 E56.28733
G1 X58.98 Y122.793 E56.32829
G1 X58.326 Y122.389 E56.3692
G1 X57.716 Y121.92 E56.41015
G1 X57.159 Y121.389 E56.4511
G1 X56.66 Y120.804 E56.49202
G1 X56.224 Y120.171 E56.53293
G1 X55.856 Y119.495 E56.57388
G1 X55.561 Y118.785 E56.6148
G1 X55.34 Y118.048 E56.65575
G1 X55.186 Y117.203 E56.70145
G1 X54.82 Y114.225 E56.86112
G1 X54.766 Y113.457 E56.90209
G1 X54.792 Y112.689 E56.94299
G1 X54.898 Y111.927 E56.98393
G1 X55.082 Y111.18 E57.02487
G1 X55.342 Y110.456 E57.06581
G1 X55.677 Y109.764 E57.10672
G1 X56.081 Y109.109 E57.14768
G1 X56.551 Y108.501 E57.18857
G1 X57.082 Y107.944 E57.22952
G1 X57.668 Y107.445 E57.27048
G1 X58.302 Y107.01 E57.3114
G1 X58.978 Y106.643 E57.35233
G0 F6000 X58.705 Y107.237
G1 F1200 X59.374 Y106.902 E57.39215
G1 X60.075 Y106.641 E57.43196
G1 X60.8 Y106.456 E57.47177
G1 X61.309 Y106.375 E57.4992
G1 X62.007 Y106.289 E57.53663
G1 X62.01 Y106.288 E57.5368
G1 X139.617 Y96.76 E61.69776
G1 X139.247 Y75.739 E62.81659
G1 X139.274 Y74.992 E62.85637
G1 X139.38 Y74.251 E62.8962
G1 X139.565 Y73.526 E62.93602
G1 X139.826 Y72.825 E62.97582
G1 X140.161 Y72.156 E63.01564
G1 X140.565 Y71.527 E63.05542
G1 X141.034 Y70.944 E63.09524
G1 X141.562 Y70.414 E63.13505
G1 X142.144 Y69.944 E63.17486
G1 X142.772 Y69.539 E63.21463
G1 X143.441 Y69.203 E63.25447
G1 X144.141 Y68.94 E63.29426
G1 X144.866 Y68.753 E63.33411
