;FLAVOR:Marlin
;TIME:16236
;Filament used: 16.07m
;Layer height: 0.3
;MINX:57.47
;MINY:65.556
;MINZ:0.3
;MAXX:163.74
;MAXY:154.435
;MAXZ:55.8
;Generated with Cura_SteamEngine 4.4.0
M140 S60
M105
M190 S60
M104 S260
M105
M109 S260
M82 ;absolute extrusion mode
M201 X500.00 Y500.00 Z100.00 E5000.00 ;Setup machine max acceleration
M203 X500.00 Y500.00 Z10.00 E50.00 ;Setup machine max feedrate
M204 P500.00 R1000.00 T500.00 ;Setup Print/Retract/Travel acceleration
M205 X8.00 Y8.00 Z0.40 E5.00 ;Setup Jerk
M220 S100 ;Reset Feedrate
M221 S100 ;Reset Flowrate

G28 ;Home

G92 E0 ;Reset Extruder
G1 Z2.0 F3000 ;Move Z Axis up
G1 X10.1 Y20 Z0.28 F5000.0 ;Move to start position
G1 X10.1 Y200.0 Z0.28 F1500.0 E15 ;Draw the first line
G1 X10.4 Y200.0 Z0.28 F5000.0 ;Move to side a little
G1 X10.4 Y20 Z0.28 F1500.0 E30 ;Draw the second line
G92 E0 ;Reset Extruder
G1 Z2.0 F3000 ;Move Z Axis up

G92 E0
G92 E0
G1 F1500 E-6.5
;LAYER_COUNT:186
;LAYER:0
M107
G0 F6000 X74.5 Y83.657 Z0.3
;TYPE:SKIRT
G1 F1500 E0
G1 F1200 X138.263 Y100.742 E3.29336
G1 X138.756 Y100.03 E3.33657
G1 X139.128 Y99.481 E3.36966
G1 X139.444 Y99.007 E3.39808
G1 X139.742 Y98.551 E3.42525
G1 X140.26 Y97.737 E3.47339
G1 X140.708 Y97.004 E3.51625
G1 X141.13 Y96.281 E3.55801
G1 X141.444 Y95.713 E3.59039
G1 X141.558 Y95.5 E3.60245
G1 X141.813 Y94.988 E3.63098
G1 X141.892 Y94.822 E3.64016
G1 X142.088 Y94.386 E3.664
G1 X142.106 Y94.342 E3.66638
G1 X142.244 Y93.992 E3.68515
G1 X142.294 Y93.846 E3.69285
G1 X142.362 Y93.63 E3.70414
G1 X142.404 Y93.474 E3.7122
G1 X142.426 Y93.386 E3.71673
G1 X142.508 Y92.989 E3.73695
G1 X142.709 Y91.937 E3.79039
G1 X143.213 Y89.014 E3.93837
G1 X143.262 Y88.655 E3.95644
G1 X143.317 Y88.152 E3.98169
G1 X143.349 Y87.642 E4.00718
G1 X143.352 Y87.491 E4.01472
G1 X143.352 Y87.28 E4.02524
G1 X143.346 Y87.117 E4.03338
G1 X143.335 Y86.964 E4.04104
G1 X143.314 Y86.771 E4.05072
G1 X143.291 Y86.613 E4.05869
G1 X143.265 Y86.474 E4.06574
G1 X143.229 Y86.314 E4.07392
G1 X143.184 Y86.147 E4.08255
G1 X143.136 Y85.99 E4.09074
G1 X143.087 Y85.846 E4.09833
G1 X143.033 Y85.705 E4.10586
G1 X142.959 Y85.53 E4.11534
G1 X142.904 Y85.409 E4.12197
G1 X142.815 Y85.23 E4.13195
G1 X142.783 Y85.169 E4.13538
G1 X142.68 Y84.986 E4.14586
G1 X142.641 Y84.92 E4.14969
G1 X142.482 Y84.672 E4.16438
G1 X142.343 Y84.476 E4.17637
G1 X142.204 Y84.3 E4.18756
G1 X142.046 Y84.12 E4.19951
G1 X141.938 Y84.008 E4.20727
G1 X141.81 Y83.891 E4.21592
G1 X141.688 Y83.792 E4.22376
G1 X141.58 Y83.714 E4.23041
G1 X141.514 Y83.673 E4.23428
G1 X141.487 Y83.658 E4.23583
G1 X138.671 Y83.657 E4.37632
G1 X74.5 Y83.657 E7.57782
G0 F6000 X71.463 Y83.257
G1 F1200 X138.431 Y101.201 E11.03673
G1 X139.121 Y100.204 E11.09722
G1 X139.459 Y99.706 E11.12725
G1 X139.777 Y99.229 E11.15585
G1 X140.045 Y98.819 E11.18028
G1 X140.591 Y97.963 E11.23094
G1 X141.083 Y97.156 E11.27809
G1 X141.458 Y96.514 E11.31518
G1 X141.83 Y95.841 E11.35355
G1 X141.911 Y95.688 E11.36219
G1 X142.174 Y95.161 E11.39157
G1 X142.253 Y94.996 E11.4007
G1 X142.438 Y94.582 E11.42332
G1 X142.495 Y94.449 E11.43054
G1 X142.615 Y94.143 E11.44694
G1 X142.681 Y93.952 E11.45702
G1 X142.743 Y93.752 E11.46747
G1 X142.799 Y93.547 E11.47807
G1 X142.818 Y93.469 E11.48207
G1 X142.897 Y93.09 E11.50139
G1 X143.1 Y92.023 E11.55558
G1 X143.613 Y89.046 E11.70629
G1 X143.658 Y88.72 E11.72271
G1 X143.717 Y88.175 E11.75006
G1 X143.748 Y87.675 E11.77505
G1 X143.752 Y87.499 E11.78383
G1 X143.752 Y87.264 E11.79556
G1 X143.746 Y87.105 E11.80349
G1 X143.733 Y86.923 E11.8126
G1 X143.71 Y86.713 E11.82314
G1 X143.689 Y86.569 E11.8304
G1 X143.653 Y86.376 E11.84019
G1 X143.616 Y86.21 E11.84868
G1 X143.58 Y86.074 E11.85569
G1 X143.515 Y85.861 E11.86681
G1 X143.457 Y85.692 E11.87572
G1 X143.407 Y85.56 E11.88276
G1 X143.329 Y85.375 E11.89278
G1 X143.265 Y85.234 E11.9005
G1 X143.207 Y85.118 E11.90697
G1 X143.111 Y84.935 E11.91728
G1 X143.034 Y84.798 E11.92512
G1 X142.978 Y84.705 E11.93054
G1 X142.815 Y84.45 E11.94564
G1 X142.672 Y84.249 E11.95795
G1 X142.497 Y84.027 E11.97205
G1 X142.361 Y83.871 E11.98237
G1 X142.195 Y83.7 E11.99426
G1 X142.086 Y83.601 E12.00161
G1 X141.929 Y83.473 E12.01172
G1 X141.807 Y83.385 E12.01922
G1 X141.7 Y83.318 E12.02552
G1 X141.604 Y83.267 E12.03094
G1 X141.585 Y83.259 E12.03197
G1 X138.671 Y83.257 E12.17735
G1 X71.463 Y83.257 E15.53037
G0 F6000 X68.505 Y82.879
G1 F1200 X138.599 Y101.661 E19.15074
G1 X138.641 Y101.602 E19.15436
G1 X139.45 Y100.432 E19.22532
G1 X139.79 Y99.931 E19.25553
G1 X140.076 Y99.501 E19.28129
G1 X140.411 Y98.989 E19.31182
G1 X140.96 Y98.128 E19.36276
G1 X141.401 Y97.406 E19.40497
G1 X141.814 Y96.698 E19.44587
G1 X142.134 Y96.118 E19.47891
G1 X142.287 Y95.831 E19.49514
G1 X142.535 Y95.333 E19.5229
G1 X142.621 Y95.154 E19.5328
G1 X142.814 Y94.721 E19.55645
G1 X142.851 Y94.635 E19.56112
G1 X142.994 Y94.271 E19.58064
G1 X143.058 Y94.085 E19.59045
G1 X143.127 Y93.866 E19.60191
G1 X143.182 Y93.661 E19.61249
G1 X143.204 Y93.574 E19.61697
G1 X143.298 Y93.123 E19.63996
G1 X143.501 Y92.055 E19.69419
G1 X144.004 Y89.138 E19.84187
G1 X144.057 Y88.752 E19.86131
G1 X144.115 Y88.22 E19.88801
G1 X144.148 Y87.686 E19.9147
G1 X144.152 Y87.508 E19.92358
G1 X144.152 Y87.274 E19.93526
G1 X144.144 Y87.063 E19.94579
G1 X144.131 Y86.878 E19.95504
G1 X144.11 Y86.682 E19.96488
G1 X144.085 Y86.513 E19.9734
G1 X144.046 Y86.3 E19.9842
G1 X144.004 Y86.111 E19.99386
G1 X143.958 Y85.942 E20.0026
G1 X143.897 Y85.741 E20.01308
G1 X143.841 Y85.579 E20.02163
G1 X143.765 Y85.38 E20.03226
G1 X143.71 Y85.249 E20.03935
G1 X143.629 Y85.07 E20.04915
G1 X143.543 Y84.897 E20.05879
G1 X143.464 Y84.747 E20.06725
G1 X143.387 Y84.61 E20.07509
G1 X143.322 Y84.5 E20.08146
G1 X143.143 Y84.22 E20.09804
G1 X142.992 Y84.009 E20.11099
G1 X142.81 Y83.778 E20.12566
G1 X142.648 Y83.593 E20.13793
G1 X142.485 Y83.425 E20.1496
G1 X142.325 Y83.279 E20.16041
G1 X142.177 Y83.158 E20.16995
G1 X142.028 Y83.051 E20.1791
G1 X141.91 Y82.977 E20.18605
G1 X141.78 Y82.908 E20.19339
G1 X141.675 Y82.86 E20.19915
G1 X141.67 Y82.859 E20.19941
G1 X138.671 Y82.857 E20.34903
G1 X68.409 Y82.857 E23.85441
G1 X68.505 Y82.879 E23.85933
G0 F6000 X68.401 Y83.265
G1 F1200 X138.763 Y102.119 E27.49354
G1 X138.984 Y101.809 E27.51253
G1 X139.779 Y100.659 E27.58228
G1 X140.121 Y100.155 E27.61267
G1 X140.442 Y99.673 E27.64156
G1 X140.746 Y99.208 E27.66928
G1 X141.267 Y98.39 E27.71766
G1 X141.762 Y97.58 E27.76502
G1 X142.152 Y96.912 E27.80361
G1 X142.51 Y96.264 E27.84055
G1 X142.632 Y96.036 E27.85345
G1 X142.885 Y95.528 E27.88176
G1 X142.981 Y95.327 E27.89288
G1 X143.187 Y94.867 E27.91802
G1 X143.234 Y94.755 E27.92408
G1 X143.356 Y94.444 E27.94075
G1 X143.448 Y94.18 E27.9547
G1 X143.51 Y93.98 E27.96514
G1 X143.566 Y93.776 E27.9757
G1 X143.597 Y93.648 E27.98227
G1 X143.686 Y93.224 E28.00388
G1 X143.892 Y92.141 E28.05888
G1 X144.398 Y89.204 E28.20757
G1 X144.452 Y88.812 E28.22731
G1 X144.514 Y88.244 E28.25581
G1 X144.547 Y87.72 E28.28201
G1 X144.552 Y87.469 E28.29453
G1 X144.552 Y87.259 E28.30501
G1 X144.544 Y87.048 E28.31555
G1 X144.531 Y86.866 E28.32465
G1 X144.506 Y86.631 E28.33644
G1 X144.478 Y86.436 E28.34627
G1 X144.433 Y86.196 E28.35845
G1 X144.395 Y86.027 E28.36709
G1 X144.347 Y85.847 E28.37639
G1 X144.278 Y85.621 E28.38817
G1 X144.208 Y85.417 E28.39893
G1 X144.148 Y85.26 E28.40732
G1 X144.057 Y85.045 E28.41897
G1 X144 Y84.918 E28.42591
G1 X143.901 Y84.719 E28.437
G1 X143.808 Y84.543 E28.44693
G1 X143.741 Y84.422 E28.45383
G1 X143.657 Y84.282 E28.46198
G1 X143.483 Y84.01 E28.47809
G1 X143.302 Y83.756 E28.49365
G1 X143.122 Y83.528 E28.50814
G1 X142.937 Y83.316 E28.52218
G1 X142.76 Y83.133 E28.53488
G1 X142.602 Y82.989 E28.54555
G1 X142.412 Y82.834 E28.55778
G1 X142.256 Y82.722 E28.56736
G1 X142.103 Y82.626 E28.57637
G1 X141.967 Y82.553 E28.58407
G1 X141.815 Y82.485 E28.59238
G1 X141.743 Y82.459 E28.5962
G1 X138.672 Y82.457 E28.74941
G1 X66.736 Y82.457 E32.33831
G1 X66.011 Y82.417 E32.37454
G1 X65.294 Y82.298 E32.4108
G1 X64.595 Y82.1 E32.44704
G1 X63.922 Y81.827 E32.48328
G1 X63.283 Y81.482 E32.51951
G1 X62.686 Y81.068 E32.55575
G1 X62.138 Y80.592 E32.59197
G1 X61.645 Y80.058 E32.62822
G1 X61.215 Y79.473 E32.66445
G1 X60.851 Y78.844 E32.7007
G1 X60.558 Y78.179 E32.73696
G1 X60.34 Y77.486 E32.7732
G1 X60.2 Y76.774 E32.8094
G1 X60.136 Y75.857 E32.85527
G1 X60.136 Y73.357 E32.97999
G1 X60.176 Y72.632 E33.01622
G1 X60.295 Y71.915 E33.05248
G1 X60.493 Y71.216 E33.08872
G1 X60.766 Y70.543 E33.12496
G1 X61.111 Y69.904 E33.16118
G1 X61.525 Y69.307 E33.19743
G1 X62.001 Y68.759 E33.23364
G1 X62.535 Y68.266 E33.2699
G1 X63.12 Y67.836 E33.30612
G1 X63.749 Y67.472 E33.34238
G1 X64.414 Y67.179 E33.37864
G1 X65.107 Y66.961 E33.41488
G1 X65.819 Y66.821 E33.45108
G1 X66.736 Y66.757 E33.49694
G1 X146.033 Y66.757 E37.45309
G1 X150.928 Y66.756 E37.6973
G1 X151.105 Y66.758 E37.70613
G1 X151.556 Y66.77 E37.72864
G1 X151.809 Y66.782 E37.74127
G1 X152.27 Y66.812 E37.76432
G1 X152.573 Y66.839 E37.7795
G1 X153.03 Y66.89 E37.80244
G1 X153.399 Y66.942 E37.82103
G1 X153.854 Y67.019 E37.84405
G1 X154.293 Y67.108 E37.8664
G1 X154.718 Y67.21 E37.88821
G1 X155.186 Y67.341 E37.91245
G1 X155.59 Y67.47 E37.93361
G1 X156.093 Y67.653 E37.96032
G1 X156.285 Y67.732 E37.97067
G1 X156.712 Y67.926 E37.99407
G1 X157.048 Y68.093 E38.01279
G1 X157.88 Y68.586 E38.06104
G1 X158.291 Y68.872 E38.08602
G1 X159.061 Y69.498 E38.13553
G1 X159.29 Y69.715 E38.15127
G1 X159.829 Y70.291 E38.19063
G1 X160.024 Y70.526 E38.20586
G1 X160.459 Y71.114 E38.24235
G1 X160.63 Y71.374 E38.25788
G1 X160.99 Y71.991 E38.29352
G1 X161.134 Y72.272 E38.30927
G1 X161.355 Y72.751 E38.33559
G1 X161.475 Y73.04 E38.3512
G1 X161.637 Y73.471 E38.37417
G1 X161.736 Y73.766 E38.38969
G1 X161.855 Y74.161 E38.41028
G1 X161.928 Y74.434 E38.42437
G1 X161.983 Y74.655 E38.43574
G1 X162.049 Y74.941 E38.45038
G1 X162.106 Y75.216 E38.46439
G1 X162.163 Y75.522 E38.47992
G1 X162.192 Y75.685 E38.48818
G1 X162.244 Y76.009 E38.50455
G1 X162.277 Y76.241 E38.51624
G1 X162.319 Y76.579 E38.53324
G1 X162.334 Y76.718 E38.54021
G1 X162.371 Y77.078 E38.55827
G1 X162.382 Y77.195 E38.56413
G1 X162.414 Y77.572 E38.583
G1 X162.423 Y77.682 E38.58851
G1 X162.45 Y78.079 E38.60836
G1 X162.455 Y78.164 E38.61261
G1 X162.478 Y78.581 E38.63345
G1 X162.484 Y78.705 E38.63964
G1 X162.517 Y79.616 E38.68512
G1 X162.52 Y79.744 E38.69151
G1 X162.537 Y80.757 E38.74205
G1 X162.538 Y80.86 E38.74719
G1 X162.54 Y82.546 E38.83131
G1 X162.539 Y82.662 E38.8371
G1 X162.498 Y85.167 E38.96209
G1 X162.496 Y85.241 E38.96578
G1 X162.459 Y86.58 E39.03261
G1 X162.458 Y86.622 E39.0347
G1 X162.411 Y88.009 E39.10394
G1 X162.41 Y88.05 E39.10599
G1 X162.295 Y90.914 E39.24899
G1 X162.292 Y90.964 E39.25149
G1 X162.153 Y93.875 E39.39688
G1 X162.152 Y93.91 E39.39863
G1 X161.998 Y96.811 E39.54357
G1 X161.996 Y96.845 E39.54527
G1 X161.756 Y100.961 E39.75096
G1 X161.754 Y100.997 E39.75276
G1 X161.496 Y105.043 E39.95503
G1 X161.494 Y105.075 E39.95663
G1 X161.295 Y107.976 E40.1017
G1 X161.292 Y108.01 E40.1034
G1 X161.07 Y111.017 E40.25383
G1 X161.068 Y111.045 E40.25523
G1 X160.947 Y112.595 E40.33279
G1 X160.945 Y112.617 E40.3339
G1 X160.819 Y114.163 E40.41128
G1 X160.817 Y114.195 E40.41288
G1 X160.546 Y117.335 E40.57012
G1 X160.541 Y117.385 E40.57263
G1 X160.245 Y120.53 E40.73022
G1 X160.241 Y120.575 E40.73248
G1 X160.083 Y122.139 E40.8109
G1 X160.079 Y122.17 E40.81246
G1 X159.915 Y123.721 E40.89027
G1 X159.911 Y123.757 E40.89208
G1 X159.74 Y125.293 E40.96919
G1 X159.736 Y125.335 E40.97129
G1 X159.558 Y126.847 E41.04725
G1 X159.553 Y126.885 E41.04916
G1 X159.369 Y128.372 E41.12391
G1 X159.362 Y128.424 E41.12653
G1 X159.17 Y129.881 E41.19985
G1 X159.164 Y129.929 E41.20226
G1 X158.966 Y131.351 E41.27389
G1 X158.957 Y131.413 E41.27701
G1 X158.751 Y132.796 E41.34677
G1 X158.741 Y132.861 E41.35005
G1 X158.529 Y134.194 E41.41739
G1 X158.518 Y134.259 E41.42068
G1 X158.303 Y135.529 E41.48495
G1 X158.289 Y135.611 E41.4891
G1 X158.069 Y136.817 E41.55026
G1 X158.052 Y136.906 E41.55478
G1 X157.827 Y138.051 E41.61299
G1 X157.808 Y138.145 E41.61778
G1 X157.579 Y139.227 E41.67295
G1 X157.554 Y139.338 E41.67863
G1 X157.321 Y140.352 E41.73054
G1 X157.303 Y140.428 E41.73443
G1 X157.185 Y140.915 E41.75943
G1 X157.165 Y140.997 E41.76365
G1 X157.045 Y141.466 E41.7878
G1 X157.016 Y141.574 E41.79338
G1 X156.771 Y142.468 E41.83962
G1 X156.739 Y142.581 E41.84548
G1 X156.615 Y143.004 E41.86747
G1 X156.591 Y143.085 E41.87169
G1 X156.466 Y143.492 E41.89293
G1 X156.442 Y143.569 E41.89695
G1 X156.316 Y143.962 E41.91754
G1 X156.263 Y144.121 E41.92591
G1 X156.007 Y144.855 E41.96469
G1 X155.947 Y145.018 E41.97335
G1 X155.816 Y145.364 E41.99181
G1 X155.769 Y145.485 E41.99829
G1 X155.637 Y145.814 E42.01597
G1 X155.583 Y145.944 E42.023
G1 X155.45 Y146.256 E42.03992
G1 X155.4 Y146.371 E42.04617
G1 X155.268 Y146.665 E42.06225
G1 X155.201 Y146.81 E42.07022
G1 X155.068 Y147.088 E42.0856
G1 X154.985 Y147.255 E42.0949
G1 X154.852 Y147.514 E42.10943
G1 X154.771 Y147.666 E42.11802
G1 X154.637 Y147.911 E42.13195
G1 X154.511 Y148.132 E42.14464
G1 X154.374 Y148.361 E42.15796
G1 X154.292 Y148.494 E42.16575
G1 X154.157 Y148.708 E42.17837
G1 X153.99 Y148.961 E42.1935
G1 X153.852 Y149.159 E42.20554
G1 X153.707 Y149.359 E42.21786
G1 X153.569 Y149.542 E42.2293
G1 X153.379 Y149.781 E42.24453
G1 X153.243 Y149.945 E42.25516
G1 X153.032 Y150.187 E42.27118
G1 X152.892 Y150.34 E42.28152
G1 X152.526 Y150.711 E42.30752
G1 X152.227 Y150.99 E42.32793
G1 X151.699 Y151.432 E42.36228
G1 X151.536 Y151.555 E42.37247
G1 X151.088 Y151.866 E42.39968
G1 X150.914 Y151.976 E42.40995
G1 X150.081 Y152.422 E42.45709
G1 X149.712 Y152.587 E42.47725
G1 X149.034 Y152.847 E42.51348
G1 X148.293 Y153.038 E42.55166
G1 X147.897 Y153.116 E42.57179
G1 X147.178 Y153.217 E42.60802
G1 X146.392 Y153.236 E42.64724
G1 X145.991 Y153.222 E42.66726
G1 X145.645 Y153.201 E42.68455
G1 X137.695 Y152.505 E43.0827
G1 X136.976 Y152.402 E43.11894
G1 X136.273 Y152.22 E43.15517
G1 X135.594 Y151.963 E43.19139
G1 X134.947 Y151.632 E43.22764
G1 X134.341 Y151.232 E43.26387
G1 X133.782 Y150.768 E43.30011
G1 X133.277 Y150.246 E43.33635
G1 X132.833 Y149.671 E43.37259
G1 X132.455 Y149.051 E43.40882
G1 X132.148 Y148.393 E43.44505
G1 X131.914 Y147.705 E43.4813
G1 X131.758 Y146.995 E43.51757
G1 X131.68 Y146.273 E43.5538
G1 X131.696 Y145.36 E43.59936
G1 X133.88 Y120.191 E44.85976
G1 X64.792 Y101.659 E48.42842
G1 X64.79 Y101.658 E48.42853
G1 X63.558 Y101.327 E48.49218
G1 X62.867 Y101.1 E48.52847
G1 X62.207 Y100.799 E48.56466
G1 X61.583 Y100.427 E48.6009
G1 X61.003 Y99.989 E48.63716
G1 X60.476 Y99.489 E48.6734
G1 X60.007 Y98.935 E48.70962
G1 X59.601 Y98.332 E48.74588
G1 X59.264 Y97.689 E48.7821
G1 X59 Y97.012 E48.81835
G1 X58.811 Y96.311 E48.85458
G1 X58.701 Y95.593 E48.89082
G1 X58.671 Y94.867 E48.92707
G1 X58.72 Y94.143 E48.96327
G1 X58.895 Y93.245 E49.00891
G1 X60.318 Y87.932 E49.28332
G1 X60.544 Y87.242 E49.31955
G1 X60.845 Y86.581 E49.35578
G1 X61.216 Y85.957 E49.392
G1 X61.654 Y85.377 E49.42826
G1 X62.153 Y84.85 E49.46447
G1 X62.707 Y84.38 E49.50071
G1 X63.309 Y83.973 E49.53697
G1 X63.952 Y83.636 E49.57319
G1 X64.629 Y83.371 E49.60946
G1 X65.33 Y83.182 E49.64568
G1 X66.048 Y83.072 E49.68192
G1 X66.774 Y83.04 E49.71817
G1 X67.498 Y83.089 E49.75438
G1 X68.401 Y83.265 E49.80028
G0 F6000 X68.298 Y83.651
G1 F1200 X138.928 Y102.577 E53.44834
G1 X139.318 Y102.029 E53.48189
G1 X140.108 Y100.887 E53.55117
G1 X140.452 Y100.38 E53.58174
G1 X140.775 Y99.895 E53.61081
G1 X141.081 Y99.427 E53.63871
G1 X141.636 Y98.556 E53.69023
G1 X142.08 Y97.829 E53.73273
G1 X142.497 Y97.113 E53.77407
G1 X142.88 Y96.421 E53.81353
G1 X142.985 Y96.224 E53.82467
G1 X143.258 Y95.677 E53.85517
G1 X143.341 Y95.501 E53.86487
G1 X143.538 Y95.062 E53.88888
G1 X143.603 Y94.909 E53.89717
G1 X143.735 Y94.572 E53.91523
G1 X143.828 Y94.303 E53.92943
G1 X143.886 Y94.119 E53.93906
G1 X143.959 Y93.849 E53.95301
G1 X143.985 Y93.747 E53.95826
G1 X144.091 Y93.236 E53.9843
G1 X144.283 Y92.227 E54.03554
G1 X144.793 Y89.266 E54.18544
G1 X144.851 Y88.844 E54.20669
G1 X144.911 Y88.29 E54.23449
G1 X144.947 Y87.729 E54.26254
G1 X144.952 Y87.478 E54.27506
G1 X144.952 Y87.243 E54.28679
G1 X144.944 Y87.036 E54.29712
