;FLAVOR:Marlin
;TIME:16192
;Filament used: 16.4739m
;Layer height: 0.3
;MINX:52.884
;MINY:70.126
;MINZ:0.3
;MAXX:169.184
;MAXY:149.406
;MAXZ:55.8
;Generated with Cura_SteamEngine 4.4.0
M140 S60
M105
M190 S60
M104 S260
M105
M109 S260
M82 ;absolute extrusion mode
M201 X500.00 Y500.00 Z100.00 E5000.00 ;Setup machine max acceleration
M203 X500.00 Y500.00 Z10.00 E50.00 ;Setup machine max feedrate
M204 P500.00 R1000.00 T500.00 ;Setup Print/Retract/Travel acceleration
M205 X8.00 Y8.00 Z0.40 E5.00 ;Setup Jerk
M220 S100 ;Reset Feedrate
M221 S100 ;Reset Flowrate

G28 ;Home

G92 E0 ;Reset Extruder
G1 Z2.0 F3000 ;Move Z Axis up
G1 X10.1 Y20 Z0.28 F5000.0 ;Move to start position
G1 X10.1 Y200.0 Z0.28 F1500.0 E15 ;Draw the first line
G1 X10.4 Y200.0 Z0.28 F5000.0 ;Move to side a little
G1 X10.4 Y20 Z0.28 F1500.0 E30 ;Draw the second line
G92 E0 ;Reset Extruder
G1 Z2.0 F3000 ;Move Z Axis up

G92 E0
G92 E0
G1 F1500 E-6.5
;LAYER_COUNT:186
;LAYER:0
M107
G0 F6000 X61.419 Y71.76 Z0.3
;TYPE:SKIRT
G1 F1500 E0
G1 F1200 X62.067 Y71.309 E0.03939
G1 X62.758 Y70.925 E0.07883
G1 X63.483 Y70.613 E0.11821
G1 X64.236 Y70.376 E0.15759
G1 X65.01 Y70.217 E0.19701
G1 X65.795 Y70.136 E0.23638
G1 X66.197 Y70.126 E0.25644
G1 X149.116 Y70.126 E4.39329
G1 X149.905 Y70.166 E4.4327
G1 X150.685 Y70.285 E4.47207
G1 X151.45 Y70.483 E4.51149
G1 X152.19 Y70.757 E4.55086
G1 X152.995 Y71.159 E4.59575
G1 X153.527 Y71.464 E4.62635
G1 X153.751 Y71.597 E4.63934
G1 X154.228 Y71.892 E4.66732
G1 X154.391 Y71.996 E4.67697
G1 X154.818 Y72.275 E4.70242
G1 X155.045 Y72.429 E4.7161
G1 X155.421 Y72.694 E4.73905
G1 X155.586 Y72.814 E4.74923
G1 X155.911 Y73.056 E4.76945
G1 X156.118 Y73.215 E4.78247
G1 X156.405 Y73.444 E4.80079
G1 X156.601 Y73.605 E4.81344
G1 X156.852 Y73.819 E4.8299
G1 X157.026 Y73.972 E4.84146
G1 X157.237 Y74.163 E4.85566
G1 X157.42 Y74.335 E4.86819
G1 X157.594 Y74.503 E4.88025
G1 X157.728 Y74.635 E4.88964
G1 X157.877 Y74.786 E4.90022
G1 X158.07 Y74.989 E4.91419
G1 X158.318 Y75.259 E4.93248
G1 X158.562 Y75.537 E4.95094
G1 X158.789 Y75.809 E4.96861
G1 X159.026 Y76.109 E4.98769
G1 X159.229 Y76.378 E5.0045
G1 X159.463 Y76.705 E5.02456
G1 X159.645 Y76.974 E5.04077
G1 X159.847 Y77.288 E5.05939
G1 X160.009 Y77.554 E5.07493
G1 X160.178 Y77.845 E5.09172
G1 X160.323 Y78.108 E5.1067
G1 X160.488 Y78.425 E5.12453
G1 X160.627 Y78.707 E5.14022
G1 X160.756 Y78.981 E5.15533
G1 X160.887 Y79.275 E5.17138
G1 X160.991 Y79.52 E5.18466
G1 X161.113 Y79.821 E5.20087
G1 X161.228 Y80.123 E5.21699
G1 X161.345 Y80.45 E5.23432
G1 X161.412 Y80.644 E5.24456
G1 X161.524 Y80.985 E5.26246
G1 X161.574 Y81.143 E5.27073
G1 X161.682 Y81.497 E5.28919
G1 X161.75 Y81.735 E5.30154
G1 X161.979 Y82.581 E5.34527
G1 X162.049 Y82.859 E5.35957
G1 X162.38 Y84.288 E5.43275
G1 X162.425 Y84.497 E5.44342
G1 X162.924 Y86.956 E5.5686
G1 X162.95 Y87.087 E5.57526
G1 X163.738 Y91.342 E5.79116
G1 X163.754 Y91.431 E5.79567
G1 X165.182 Y99.675 E6.21309
G1 X165.192 Y99.736 E6.21617
G1 X165.872 Y103.858 E6.4246
G1 X165.879 Y103.903 E6.42687
G1 X166.343 Y106.82 E6.57423
G1 X166.348 Y106.85 E6.57575
G1 X166.578 Y108.333 E6.65062
G1 X166.583 Y108.363 E6.65213
G1 X167.039 Y111.383 E6.80451
G1 X167.047 Y111.441 E6.80743
G1 X167.481 Y114.467 E6.95994
G1 X167.487 Y114.51 E6.96211
G1 X167.695 Y116.021 E7.03821
G1 X167.701 Y116.066 E7.04047
G1 X167.898 Y117.561 E7.1157
G1 X167.902 Y117.593 E7.11731
G1 X168.088 Y119.051 E7.19064
G1 X168.094 Y119.097 E7.19295
G1 X168.268 Y120.528 E7.26487
G1 X168.277 Y120.609 E7.26894
G1 X168.587 Y123.403 E7.40919
G1 X168.598 Y123.5 E7.41406
G1 X168.739 Y124.934 E7.48595
G1 X168.746 Y125.014 E7.48995
G1 X168.872 Y126.448 E7.56177
G1 X168.879 Y126.539 E7.56632
G1 X168.988 Y127.97 E7.63792
G1 X168.997 Y128.093 E7.64408
G1 X169.082 Y129.505 E7.71465
G1 X169.089 Y129.642 E7.72149
G1 X169.148 Y131.025 E7.79055
G1 X169.152 Y131.149 E7.79674
G1 X169.17 Y131.824 E7.83043
G1 X169.172 Y131.924 E7.83542
G1 X169.181 Y132.573 E7.8678
G1 X169.182 Y132.657 E7.87199
G1 X169.184 Y133.301 E7.90412
G1 X169.183 Y133.438 E7.91096
G1 X169.174 Y134.061 E7.94204
G1 X169.171 Y134.195 E7.94873
G1 X169.152 Y134.794 E7.97863
G1 X169.146 Y134.939 E7.98587
G1 X169.117 Y135.516 E8.01469
G1 X169.106 Y135.7 E8.02389
G1 X169.065 Y136.254 E8.0516
G1 X169.048 Y136.442 E8.06102
G1 X168.997 Y136.96 E8.08699
G1 X168.974 Y137.167 E8.09738
G1 X168.913 Y137.653 E8.12182
G1 X168.875 Y137.92 E8.13527
G1 X168.803 Y138.368 E8.15791
G1 X168.753 Y138.649 E8.17215
G1 X168.67 Y139.067 E8.19341
G1 X168.594 Y139.407 E8.21079
G1 X168.5 Y139.79 E8.23047
G1 X168.41 Y140.125 E8.24777
G1 X168.308 Y140.473 E8.26586
G1 X168.158 Y140.932 E8.28996
G1 X168.043 Y141.25 E8.30683
G1 X167.871 Y141.685 E8.33016
G1 X167.749 Y141.968 E8.34554
G1 X167.435 Y142.613 E8.38133
G1 X167.29 Y142.879 E8.39644
G1 X166.899 Y143.52 E8.4339
G1 X166.729 Y143.771 E8.44903
G1 X166.043 Y144.644 E8.50442
G1 X165.843 Y144.864 E8.51925
G1 X165.282 Y145.421 E8.55869
G1 X164.889 Y145.751 E8.5843
G1 X164.656 Y145.934 E8.59908
G1 X164.011 Y146.39 E8.63849
G1 X163.273 Y146.803 E8.68068
G1 X163.008 Y146.933 E8.6954
G1 X162.283 Y147.244 E8.73476
G1 X161.329 Y147.53 E8.78445
G1 X161.039 Y147.597 E8.7993
G1 X160.261 Y147.735 E8.83872
G1 X159.474 Y147.795 E8.8781
G1 X158.828 Y147.784 E8.91033
G1 X158.343 Y147.756 E8.93457
G1 X157.393 Y148.007 E8.98359
G1 X157.393 Y148.008 E8.98364
G1 X153.159 Y149.146 E9.20237
G1 X152.387 Y149.312 E9.24177
G1 X151.602 Y149.399 E9.28117
G1 X150.812 Y149.406 E9.32059
G1 X150.026 Y149.334 E9.35996
G1 X149.251 Y149.182 E9.39936
G1 X148.495 Y148.953 E9.43877
G1 X147.766 Y148.649 E9.47818
G1 X147.072 Y148.272 E9.51758
G1 X146.42 Y147.827 E9.55697
G1 X145.816 Y147.319 E9.59634
G1 X145.266 Y146.752 E9.63575
G1 X144.776 Y146.132 E9.67518
G1 X144.352 Y145.466 E9.71456
G1 X143.997 Y144.761 E9.75394
G1 X143.716 Y144.023 E9.79334
G1 X143.598 Y143.625 E9.81405
G1 X143.46 Y143.108 E9.84075
G1 X139.517 Y128.391 E10.60088
G1 X61.511 Y118.814 E14.52183
G1 X61.504 Y118.813 E14.52219
G1 X59.724 Y118.593 E14.61167
G1 X58.946 Y118.457 E14.65107
G1 X58.186 Y118.242 E14.69048
G1 X57.452 Y117.952 E14.72985
G1 X56.751 Y117.589 E14.76923
G1 X56.089 Y117.157 E14.80867
G1 X55.475 Y116.661 E14.84805
G1 X54.915 Y116.105 E14.88742
G1 X54.413 Y115.495 E14.92683
G1 X53.976 Y114.837 E14.96624
G1 X53.607 Y114.139 E15.00563
G1 X53.311 Y113.407 E15.04502
G1 X53.091 Y112.649 E15.0844
G1 X52.948 Y111.872 E15.12382
G1 X52.884 Y111.085 E15.16321
G1 X52.901 Y110.295 E15.20263
G1 X52.939 Y109.901 E15.22238
G1 X53.305 Y106.923 E15.37207
G1 X53.441 Y106.145 E15.41147
G1 X53.655 Y105.384 E15.45091
G1 X53.945 Y104.65 E15.49029
G1 X54.307 Y103.948 E15.52969
G1 X54.738 Y103.287 E15.56906
G1 X55.235 Y102.672 E15.60851
G1 X55.79 Y102.111 E15.64788
G1 X56.4 Y101.609 E15.68729
G1 X57.057 Y101.172 E15.72666
G1 X57.755 Y100.803 E15.76605
G1 X58.487 Y100.506 E15.80546
G1 X59.245 Y100.285 E15.84485
G1 X60.022 Y100.142 E15.88427
G1 X60.809 Y100.078 E15.92366
G1 X61.598 Y100.094 E15.96303
G1 X62.003 Y100.133 E15.98333
G1 X63.764 Y100.35 E16.07185
G1 X136.413 Y109.27 E19.72354
G1 X136.455 Y109.136 E19.73055
G1 X136.674 Y108.606 E19.75916
G1 X136.826 Y108.274 E19.77738
G1 X137.275 Y107.433 E19.82494
G1 X137.475 Y107.108 E19.84398
G1 X137.853 Y106.55 E19.8776
G1 X138.094 Y106.225 E19.89779
G1 X138.386 Y105.855 E19.92131
G1 X138.669 Y105.518 E19.94326
G1 X138.833 Y105.329 E19.95575
G1 X139.792 Y104.259 E20.02743
G1 X140.043 Y103.962 E20.04683
G1 X140.126 Y103.858 E20.05347
G1 X140.221 Y103.735 E20.06122
G1 X140.352 Y103.556 E20.07229
G1 X140.388 Y103.504 E20.07544
G1 X140.509 Y103.318 E20.08651
G1 X140.571 Y103.219 E20.09234
G1 X140.665 Y103.055 E20.10177
G1 X140.728 Y102.936 E20.10849
G1 X140.788 Y102.812 E20.11536
G1 X140.856 Y102.661 E20.12363
G1 X140.926 Y102.49 E20.13284
G1 X140.978 Y102.348 E20.14039
G1 X141.056 Y102.111 E20.15284
G1 X141.088 Y102.002 E20.1585
G1 X141.144 Y101.783 E20.16978
G1 X141.183 Y101.608 E20.17873
G1 X141.214 Y101.442 E20.18715
G1 X141.239 Y101.285 E20.19508
G1 X141.291 Y100.856 E20.21664
G1 X141.319 Y100.444 E20.23724
G1 X141.328 Y100.041 E20.25736
G1 X141.321 Y99.675 E20.27562
G1 X141.296 Y99.298 E20.29447
G1 X141.255 Y98.912 E20.31383
G1 X141.189 Y98.464 E20.33643
G1 X141.116 Y98.085 E20.35568
G1 X141.015 Y97.669 E20.37704
G1 X140.894 Y97.253 E20.39865
G1 X140.763 Y96.873 E20.41871
G1 X140.606 Y96.483 E20.43968
G1 X140.43 Y96.101 E20.46067
G1 X140.248 Y95.758 E20.48004
G1 X140.055 Y95.435 E20.49881
G1 X139.836 Y95.112 E20.51828
G1 X139.597 Y94.797 E20.53801
G1 X139.374 Y94.536 E20.55513
G1 X139.079 Y94.226 E20.57648
G1 X138.829 Y93.992 E20.59357
G1 X138.501 Y93.716 E20.61495
G1 X138.187 Y93.48 E20.63455
G1 X137.845 Y93.249 E20.65514
G1 X137.483 Y93.031 E20.67622
G1 X137.094 Y92.821 E20.69828
G1 X136.658 Y92.611 E20.72242
G1 X136.23 Y92.427 E20.74566
G1 X135.744 Y92.243 E20.77159
G1 X135.248 Y92.077 E20.79768
G1 X134.713 Y91.919 E20.82551
G1 X134.188 Y91.786 E20.85253
G1 X133.599 Y91.654 E20.88265
G1 X133.037 Y91.55 E20.91116
G1 X132.435 Y91.454 E20.94158
G1 X131.821 Y91.375 E20.97246
G1 X131.176 Y91.307 E21.00482
G1 X130.541 Y91.256 E21.0366
G1 X130.03 Y91.227 E21.06214
G1 X127.161 Y91.226 E21.20527
G1 X66.197 Y91.226 E24.24678
G1 X65.408 Y91.186 E24.28619
G1 X64.628 Y91.067 E24.32556
G1 X63.863 Y90.869 E24.36498
G1 X63.123 Y90.595 E24.40435
G1 X62.414 Y90.247 E24.44375
G1 X61.743 Y89.829 E24.48319
G1 X61.119 Y89.346 E24.52256
G1 X60.546 Y88.803 E24.56194
G1 X60.031 Y88.204 E24.60135
G1 X59.58 Y87.556 E24.64074
G1 X59.196 Y86.865 E24.68018
G1 X58.884 Y86.14 E24.71956
G1 X58.647 Y85.387 E24.75894
G1 X58.488 Y84.613 E24.79837
G1 X58.407 Y83.828 E24.83774
G1 X58.397 Y83.426 E24.8578
G1 X58.397 Y77.926 E25.1322
G1 X58.437 Y77.137 E25.17161
G1 X58.556 Y76.357 E25.21097
G1 X58.754 Y75.592 E25.2504
G1 X59.028 Y74.852 E25.28977
G1 X59.376 Y74.143 E25.32917
G1 X59.794 Y73.472 E25.36861
G1 X60.277 Y72.848 E25.40798
G1 X60.82 Y72.275 E25.44736
G1 X61.419 Y71.76 E25.48677
G0 F6000 X61.808 Y71.968
G1 F1200 X62.45 Y71.545 E25.52513
G1 X63.133 Y71.19 E25.56353
G1 X63.848 Y70.909 E25.60186
G1 X64.59 Y70.703 E25.64028
G1 X65.348 Y70.575 E25.67863
G1 X66.197 Y70.526 E25.72106
G1 X149.116 Y70.526 E29.8579
G1 X149.884 Y70.566 E29.89627
G1 X150.644 Y70.685 E29.93465
G1 X151.387 Y70.883 E29.97301
G1 X152.106 Y71.157 E30.0114
G1 X152.797 Y71.506 E30.05002
G1 X153.329 Y71.811 E30.08062
G1 X153.54 Y71.937 E30.09288
G1 X154.017 Y72.232 E30.12086
G1 X154.173 Y72.331 E30.13007
G1 X154.6 Y72.61 E30.15552
G1 X154.815 Y72.756 E30.16849
G1 X155.191 Y73.021 E30.19144
G1 X155.348 Y73.135 E30.20112
G1 X155.673 Y73.377 E30.22133
G1 X155.868 Y73.528 E30.23364
G1 X156.155 Y73.757 E30.25196
G1 X156.341 Y73.91 E30.26397
G1 X156.592 Y74.124 E30.28043
G1 X156.757 Y74.269 E30.29139
G1 X156.968 Y74.46 E30.30559
G1 X157.142 Y74.622 E30.31745
G1 X157.316 Y74.79 E30.32951
G1 X157.443 Y74.916 E30.33844
G1 X157.592 Y75.067 E30.34902
G1 X157.775 Y75.259 E30.36225
G1 X158.023 Y75.529 E30.38054
G1 X158.254 Y75.794 E30.39808
G1 X158.481 Y76.066 E30.41576
G1 X158.707 Y76.349 E30.43383
G1 X158.91 Y76.618 E30.45064
G1 X159.132 Y76.929 E30.4697
G1 X159.314 Y77.198 E30.48591
G1 X159.505 Y77.496 E30.50357
G1 X159.667 Y77.762 E30.5191
G1 X159.827 Y78.038 E30.53502
G1 X159.972 Y78.301 E30.55
G1 X160.129 Y78.602 E30.56694
G1 X160.268 Y78.884 E30.58263
G1 X160.39 Y79.144 E30.59695
G1 X160.521 Y79.438 E30.61301
G1 X160.62 Y79.67 E30.6256
G1 X160.742 Y79.971 E30.6418
G1 X160.851 Y80.258 E30.65712
G1 X160.968 Y80.585 E30.67444
G1 X161.031 Y80.769 E30.68415
G1 X161.143 Y81.11 E30.70205
G1 X161.191 Y81.26 E30.70991
G1 X161.299 Y81.614 E30.72838
G1 X161.364 Y81.84 E30.74011
G1 X161.593 Y82.686 E30.78383
G1 X161.659 Y82.949 E30.79736
G1 X161.99 Y84.378 E30.87054
G1 X162.033 Y84.576 E30.88065
G1 X162.532 Y87.035 E31.00583
G1 X162.556 Y87.159 E31.01213
G1 X163.344 Y91.414 E31.22802
G1 X163.359 Y91.499 E31.23233
G1 X164.787 Y99.743 E31.64975
G1 X164.797 Y99.802 E31.65274
G1 X165.477 Y103.924 E31.86116
G1 X165.484 Y103.966 E31.86329
G1 X165.948 Y106.883 E32.01065
G1 X165.953 Y106.911 E32.01207
G1 X166.183 Y108.394 E32.08694
G1 X166.187 Y108.423 E32.0884
G1 X166.643 Y111.443 E32.24077
G1 X166.651 Y111.497 E32.2435
G1 X167.085 Y114.523 E32.39601
G1 X167.091 Y114.565 E32.39813
G1 X167.299 Y116.076 E32.47422
G1 X167.305 Y116.118 E32.47634
G1 X167.502 Y117.613 E32.55157
G1 X167.506 Y117.644 E32.55313
G1 X167.692 Y119.102 E32.62646
G1 X167.697 Y119.145 E32.62862
G1 X167.871 Y120.576 E32.70054
G1 X167.88 Y120.653 E32.7044
G1 X168.19 Y123.447 E32.84465
G1 X168.199 Y123.539 E32.84926
G1 X168.34 Y124.973 E32.92115
G1 X168.348 Y125.049 E32.92496
G1 X168.474 Y126.483 E32.99678
G1 X168.481 Y126.569 E33.00109
G1 X168.59 Y128 E33.07269
G1 X168.598 Y128.117 E33.07854
G1 X168.683 Y129.529 E33.14911
G1 X168.689 Y129.659 E33.1556
G1 X168.748 Y131.042 E33.22466
G1 X168.752 Y131.16 E33.23055
G1 X168.77 Y131.835 E33.26424
G1 X168.772 Y131.929 E33.26893
G1 X168.781 Y132.578 E33.30132
G1 X168.782 Y132.658 E33.30531
G1 X168.784 Y133.302 E33.33744
G1 X168.783 Y133.432 E33.34392
G1 X168.774 Y134.055 E33.37501
G1 X168.771 Y134.183 E33.38139
G1 X168.752 Y134.782 E33.41129
G1 X168.747 Y134.918 E33.41808
G1 X168.718 Y135.495 E33.44691
G1 X168.707 Y135.67 E33.45565
G1 X168.666 Y136.224 E33.48337
G1 X168.65 Y136.403 E33.49234
G1 X168.599 Y136.921 E33.5183
G1 X168.577 Y137.118 E33.52819
G1 X168.516 Y137.604 E33.55263
G1 X168.48 Y137.856 E33.56533
G1 X168.408 Y138.304 E33.58797
G1 X168.36 Y138.571 E33.6015
G1 X168.277 Y138.989 E33.62276
G1 X168.206 Y139.312 E33.63926
G1 X168.112 Y139.695 E33.65894
G1 X168.026 Y140.012 E33.67532
G1 X167.924 Y140.36 E33.69342
G1 X167.782 Y140.796 E33.71629
G1 X167.667 Y141.114 E33.73316
G1 X167.503 Y141.526 E33.75529
G1 X167.381 Y141.809 E33.77066
G1 X167.083 Y142.422 E33.80467
G1 X166.938 Y142.688 E33.81978
G1 X166.568 Y143.296 E33.85529
G1 X166.398 Y143.547 E33.87041
G1 X165.747 Y144.375 E33.92296
G1 X165.547 Y144.595 E33.9378
G1 X165 Y145.136 E33.97618
G1 X164.642 Y145.437 E33.99951
G1 X164.409 Y145.62 E34.01429
G1 X163.78 Y146.063 E34.05268
G1 X163.097 Y146.444 E34.09169
G1 X162.832 Y146.574 E34.10642
G1 X162.125 Y146.876 E34.14478
G1 X161.239 Y147.14 E34.1909
G1 X160.949 Y147.207 E34.20575
G1 X160.191 Y147.341 E34.24415
G1 X159.424 Y147.396 E34.28252
G1 X158.851 Y147.384 E34.31111
G1 X158.307 Y147.352 E34.3383
G1 X157.262 Y147.629 E34.39223
G1 X157.262 Y147.628 E34.39228
G1 X153.055 Y148.759 E34.60962
G1 X152.303 Y148.92 E34.64799
G1 X151.538 Y149.002 E34.68638
G1 X150.769 Y149.004 E34.72474
G1 X150.003 Y148.926 E34.76315
G1 X149.25 Y148.769 E34.80153
G1 X148.518 Y148.535 E34.83987
G1 X147.813 Y148.226 E34.87827
G1 X147.145 Y147.846 E34.91661
G1 X146.52 Y147.398 E34.95498
G1 X145.944 Y146.888 E34.99336
G1 X145.424 Y146.321 E35.03174
G1 X144.967 Y145.703 E35.07009
G1 X144.576 Y145.04 E35.10849
G1 X144.255 Y144.341 E35.14687
G1 X143.984 Y143.521 E35.18995
G1 X143.846 Y143.004 E35.21665
G1 X139.833 Y128.027 E35.99021
G1 X61.559 Y118.417 E39.92464
G1 X61.553 Y118.416 E39.92494
G1 X59.773 Y118.196 E40.01442
G1 X59.016 Y118.062 E40.05278
G1 X58.276 Y117.85 E40.09118
G1 X57.563 Y117.563 E40.12953
G1 X56.883 Y117.203 E40.16791
G1 X56.245 Y116.775 E40.20624
G1 X55.654 Y116.282 E40.24464
G1 X55.117 Y115.731 E40.28302
G1 X54.641 Y115.127 E40.32139
G1 X54.23 Y114.477 E40.35976
G1 X53.888 Y113.788 E40.39813
G1 X53.62 Y113.067 E40.43651
G1 X53.428 Y112.322 E40.47489
G1 X53.315 Y111.561 E40.51327
G1 X53.281 Y110.793 E40.55163
G1 X53.336 Y109.949 E40.59382
G1 X53.702 Y106.971 E40.74351
G1 X53.836 Y106.214 E40.78187
G1 X54.047 Y105.474 E40.82026
G1 X54.334 Y104.761 E40.8586
G1 X54.693 Y104.081 E40.89697
G1 X55.121 Y103.442 E40.93534
G1 X55.613 Y102.85 E40.97374
G1 X56.164 Y102.314 E41.01209
G1 X56.768 Y101.837 E41.05049
G1 X57.418 Y101.425 E41.08888
G1 X58.107 Y101.083 E41.12726
G1 X58.827 Y100.815 E41.16559
G1 X59.572 Y100.622 E41.20398
G1 X60.333 Y100.509 E41.24237
G1 X61.101 Y100.474 E41.28072
G1 X61.954 Y100.53 E41.32337
G1 X63.715 Y100.747 E41.41189
G1 X136.693 Y109.708 E45.08012
G1 X136.836 Y109.257 E45.10373
G1 X137.038 Y108.773 E45.12989
