;FLAVOR:Marlin
;TIME:32839
;Filament used: 43.9543m
;Layer height: 0.3
;MINX:3.816
;MINY:57.514
;MINZ:0.32
;MAXX:215.872
;MAXY:162.486
;MAXZ:18.32
;Generated with Cura_SteamEngine 4.4.0
M140 S60
M105
M190 S60
M104 S260
M105
M109 S260
M82 ;absolute extrusion mode
M201 X500.00 Y500.00 Z100.00 E5000.00 ;Setup machine max acceleration
M203 X500.00 Y500.00 Z10.00 E50.00 ;Setup machine max feedrate
M204 P500.00 R1000.00 T500.00 ;Setup Print/Retract/Travel acceleration
M205 X8.00 Y8.00 Z0.40 E5.00 ;Setup Jerk
M220 S100 ;Reset Feedrate
M221 S100 ;Reset Flowrate

G28 ;Home

G92 E0 ;Reset Extruder
G1 Z2.0 F3000 ;Move Z Axis up
G1 X10.1 Y20 Z0.28 F5000.0 ;Move to start position
G1 X10.1 Y200.0 Z0.28 F1500.0 E15 ;Draw the first line
G1 X10.4 Y200.0 Z0.28 F5000.0 ;Move to side a little
G1 X10.4 Y20 Z0.28 F1500.0 E30 ;Draw the second line
G92 E0 ;Reset Extruder
G1 Z2.0 F3000 ;Move Z Axis up

G92 E0
G92 E0
G1 F1500 E-6.5
;LAYER_COUNT:61
;LAYER:0
M107
G0 F6000 X38.742 Y68.117 Z0.32
;TYPE:SKIRT
G1 F1500 E0
G1 F1200 X40.131 Y67.31 E0.08549
G1 X40.345 Y67.19 E0.09854
G1 X41.757 Y66.428 E0.18393
G1 X41.975 Y66.315 E0.197
G1 X43.442 Y65.582 E0.28427
G1 X43.68 Y65.467 E0.29833
G1 X45.143 Y64.797 E0.38396
G1 X45.374 Y64.696 E0.39738
G1 X46.895 Y64.058 E0.48516
G1 X47.111 Y63.971 E0.49755
G1 X48.574 Y63.408 E0.58097
G1 X48.794 Y63.328 E0.59343
G1 X50.234 Y62.823 E0.67463
G1 X50.41 Y62.763 E0.68453
G1 X52.051 Y62.231 E0.77633
G1 X52.25 Y62.17 E0.78741
G1 X53.742 Y61.73 E0.87019
G1 X53.899 Y61.685 E0.87888
G1 X55.46 Y61.26 E0.96497
G1 X55.628 Y61.216 E0.97421
G1 X57.302 Y60.8 E1.06601
G1 X57.436 Y60.768 E1.07334
G1 X59.042 Y60.399 E1.16103
G1 X59.198 Y60.365 E1.16953
G1 X60.849 Y60.021 E1.25927
G1 X60.996 Y59.992 E1.26725
G1 X62.594 Y59.691 E1.35378
G1 X62.718 Y59.669 E1.36049
G1 X64.302 Y59.397 E1.44601
G1 X64.431 Y59.375 E1.45298
G1 X66.153 Y59.109 E1.5457
G1 X66.276 Y59.091 E1.55232
G1 X67.853 Y58.873 E1.63704
G1 X67.972 Y58.858 E1.64342
G1 X69.628 Y58.655 E1.73221
G1 X69.744 Y58.642 E1.73842
G1 X71.383 Y58.466 E1.82614
G1 X71.525 Y58.452 E1.83373
G1 X74.752 Y58.165 E2.00614
G1 X74.951 Y58.15 E2.01676
G1 X78.274 Y57.94 E2.19395
G1 X78.436 Y57.931 E2.20259
G1 X81.652 Y57.795 E2.37388
G1 X81.8 Y57.79 E2.38176
G1 X85.022 Y57.715 E2.55327
G1 X85.14 Y57.713 E2.55955
G1 X87.085 Y57.697 E2.66306
G1 X87.115 Y57.697 E2.66466
G1 X88.497 Y57.691 E2.7382
G1 X88.524 Y57.691 E2.73964
G1 X94.43 Y57.686 E3.05393
G1 X94.438 Y57.686 E3.05436
G1 X156.835 Y57.691 E6.37489
G1 X197.474 Y57.692 E8.53755
G1 X205.29 Y57.682 E8.95348
G1 X205.312 Y57.682 E8.95466
G1 X205.998 Y57.683 E8.99116
G1 X206.499 Y57.588 E9.0183
G1 X207.568 Y57.514 E9.07532
G1 X207.955 Y57.514 E9.09592
G1 X208.744 Y57.554 E9.13796
G1 X209.524 Y57.673 E9.17995
G1 X210.289 Y57.871 E9.222
G1 X211.029 Y58.145 E9.26399
G1 X211.738 Y58.493 E9.30602
G1 X212.409 Y58.911 E9.34809
G1 X213.033 Y59.394 E9.39009
G1 X213.47 Y59.799 E9.42179
G1 X213.587 Y59.916 E9.4306
G1 X214.117 Y60.502 E9.47264
G1 X214.584 Y61.138 E9.51463
G1 X214.985 Y61.818 E9.55665
G1 X215.315 Y62.536 E9.5987
G1 X215.57 Y63.283 E9.6407
G1 X215.749 Y64.052 E9.68272
G1 X215.849 Y64.836 E9.72478
G1 X215.872 Y65.431 E9.75647
G1 X215.872 Y65.819 E9.77711
G1 X215.832 Y66.608 E9.81916
G1 X215.713 Y67.388 E9.86114
G1 X215.703 Y67.427 E9.86329
G1 X215.703 Y67.865 E9.8866
G1 X215.694 Y135.001 E13.45932
G1 X215.694 Y145.003 E13.99159
G1 X215.704 Y152.115 E14.37006
G1 X215.704 Y152.14 E14.37139
G1 X215.703 Y152.617 E14.39678
G1 X215.8 Y153.128 E14.42446
G1 X215.872 Y154.189 E14.48105
G1 X215.872 Y154.569 E14.50127
G1 X215.832 Y155.358 E14.54331
G1 X215.713 Y156.138 E14.5853
G1 X215.515 Y156.903 E14.62735
G1 X215.241 Y157.643 E14.66935
G1 X214.893 Y158.352 E14.71138
G1 X214.475 Y159.023 E14.75345
G1 X213.992 Y159.647 E14.79544
G1 X213.587 Y160.084 E14.82714
G1 X213.47 Y160.201 E14.83595
G1 X212.884 Y160.731 E14.878
G1 X212.248 Y161.198 E14.91999
G1 X211.568 Y161.599 E14.962
G1 X210.85 Y161.929 E15.00405
G1 X210.103 Y162.184 E15.04605
G1 X209.334 Y162.363 E15.08807
G1 X208.55 Y162.463 E15.13013
G1 X207.955 Y162.486 E15.16182
G1 X207.567 Y162.486 E15.18247
G1 X206.778 Y162.446 E15.22451
G1 X205.998 Y162.327 E15.2665
G1 X205.959 Y162.317 E15.26864
G1 X205.3 Y162.317 E15.30371
G1 X140.07 Y162.309 E18.775
G1 X99.431 Y162.308 E20.93766
G1 X94.442 Y162.315 E21.20315
G1 X94.422 Y162.315 E21.20422
G1 X87.543 Y162.307 E21.57029
G1 X87.505 Y162.307 E21.57231
G1 X86.187 Y162.299 E21.64245
G1 X86.116 Y162.298 E21.64623
G1 X83.74 Y162.262 E21.77269
G1 X83.635 Y162.26 E21.77828
G1 X81.364 Y162.195 E21.89918
G1 X81.27 Y162.192 E21.90419
G1 X78.957 Y162.098 E22.02738
G1 X78.836 Y162.092 E22.03382
G1 X76.543 Y161.963 E22.15604
G1 X76.405 Y161.954 E22.1634
G1 X74.027 Y161.778 E22.2903
G1 X73.897 Y161.767 E22.29724
G1 X71.575 Y161.556 E22.42132
G1 X71.425 Y161.541 E22.42934
G1 X69.096 Y161.284 E22.55403
G1 X68.937 Y161.265 E22.56255
G1 X66.598 Y160.958 E22.68809
G1 X66.413 Y160.931 E22.69804
G1 X64.166 Y160.581 E22.81906
G1 X63.994 Y160.552 E22.82834
G1 X61.616 Y160.127 E22.9569
G1 X61.418 Y160.089 E22.96763
G1 X59.175 Y159.628 E23.08948
G1 X58.976 Y159.585 E23.10032
G1 X56.593 Y159.03 E23.23053
G1 X56.361 Y158.972 E23.24325
G1 X54.176 Y158.392 E23.36356
G1 X53.938 Y158.325 E23.37671
G1 X51.562 Y157.613 E23.50871
G1 X51.349 Y157.545 E23.52061
G1 X50.256 Y157.183 E23.58188
G1 X50.095 Y157.128 E23.59094
G1 X48.936 Y156.716 E23.6564
G1 X48.786 Y156.661 E23.6649
G1 X47.247 Y156.078 E23.75248
G1 X47.012 Y155.985 E23.76593
G1 X45.441 Y155.331 E23.85648
G1 X45.218 Y155.234 E23.86943
G1 X43.714 Y154.552 E23.95731
G1 X43.474 Y154.438 E23.97145
G1 X42.022 Y153.719 E24.05767
G1 X41.769 Y153.588 E24.07283
G1 X40.249 Y152.765 E24.16482
G1 X40.018 Y152.635 E24.17892
G1 X38.57 Y151.786 E24.26825
G1 X38.347 Y151.65 E24.28215
G1 X36.974 Y150.782 E24.36859
G1 X36.777 Y150.653 E24.38112
G1 X35.388 Y149.715 E24.47032
G1 X35.189 Y149.576 E24.48323
G1 X33.946 Y148.679 E24.56481
G1 X33.776 Y148.553 E24.57607
G1 X32.545 Y147.613 E24.65849
G1 X32.401 Y147.5 E24.66823
G1 X31.217 Y146.551 E24.74898
G1 X31.076 Y146.436 E24.75866
G1 X29.897 Y145.445 E24.84063
G1 X29.778 Y145.342 E24.849
G1 X28.645 Y144.35 E24.92914
G1 X28.521 Y144.24 E24.93796
G1 X27.487 Y143.295 E25.01251
G1 X27.394 Y143.209 E25.01925
G1 X26.266 Y142.144 E25.1018
G1 X26.173 Y142.054 E25.10869
G1 X25.093 Y141 E25.189
G1 X24.97 Y140.877 E25.19825
G1 X22.834 Y138.697 E25.36067
G1 X22.705 Y138.562 E25.37061
G1 X20.752 Y136.471 E25.52287
G1 X20.653 Y136.363 E25.53067
G1 X18.642 Y134.127 E25.6907
G1 X18.557 Y134.031 E25.69753
G1 X16.64 Y131.828 E25.85293
G1 X16.57 Y131.747 E25.85863
G1 X14.895 Y129.768 E25.9966
G1 X14.846 Y129.71 E26.00065
G1 X13.175 Y127.696 E26.13991
G1 X13.111 Y127.618 E26.14528
G1 X9.847 Y123.579 E26.42163
G1 X9.784 Y123.5 E26.42701
G1 X6.238 Y118.994 E26.73215
G1 X5.782 Y118.349 E26.77418
G1 X5.393 Y117.662 E26.8162
G1 X5.086 Y116.966 E26.85668
G1 X4.995 Y116.729 E26.87019
G1 X4.842 Y116.292 E26.89483
G1 X4.67 Y115.75 E26.92509
G1 X4.586 Y115.465 E26.9409
G1 X4.396 Y114.776 E26.97893
G1 X4.246 Y114.126 E27.01443
G1 X4.163 Y113.679 E27.03863
G1 X4.058 Y112.896 E27.08067
G1 X4.04 Y112.339 E27.11033
G1 X3.933 Y111.802 E27.13947
G1 X3.898 Y111.55 E27.153
G1 X3.826 Y110.644 E27.20137
G1 X3.816 Y110.178 E27.22617
G1 X3.817 Y109.8 E27.24629
G1 X3.835 Y109.134 E27.28175
G1 X3.896 Y108.347 E27.32375
G1 X4.03 Y107.607 E27.36377
G1 X4.031 Y107.351 E27.3774
G1 X4.114 Y106.565 E27.41946
G1 X4.187 Y106.163 E27.4412
G1 X4.278 Y105.731 E27.46469
G1 X4.349 Y105.428 E27.48125
G1 X4.534 Y104.696 E27.52143
G1 X4.718 Y104.077 E27.5558
G1 X4.97 Y103.342 E27.59715
G1 X5.263 Y102.609 E27.63916
G1 X5.629 Y101.91 E27.68115
G1 X6.201 Y101.07 E27.73523
G1 X7.576 Y99.31 E27.85408
G1 X10.492 Y95.617 E28.10449
G1 X10.562 Y95.531 E28.11039
G1 X13.618 Y91.772 E28.3682
G1 X13.681 Y91.695 E28.37349
G1 X15.264 Y89.798 E28.50497
G1 X15.319 Y89.732 E28.50954
G1 X17.039 Y87.716 E28.65057
G1 X17.099 Y87.648 E28.6554
G1 X18.777 Y85.727 E28.79113
G1 X18.849 Y85.645 E28.79694
G1 X20.556 Y83.745 E28.93286
G1 X20.645 Y83.647 E28.93991
G1 X22.351 Y81.812 E29.07324
G1 X22.469 Y81.689 E29.08231
G1 X24.261 Y79.844 E29.21919
G1 X24.385 Y79.718 E29.22859
G1 X26.322 Y77.812 E29.37321
G1 X26.487 Y77.655 E29.38533
G1 X28.366 Y75.911 E29.52176
G1 X28.507 Y75.783 E29.53189
G1 X29.703 Y74.726 E29.61683
G1 X29.847 Y74.602 E29.62694
G1 X31.081 Y73.564 E29.71276
G1 X31.22 Y73.449 E29.72236
G1 X32.445 Y72.466 E29.80594
G1 X32.604 Y72.342 E29.81667
G1 X33.929 Y71.334 E29.90527
G1 X34.113 Y71.199 E29.91741
G1 X35.414 Y70.268 E30.00255
G1 X35.615 Y70.129 E30.01555
G1 X36.939 Y69.243 E30.10033
G1 X37.144 Y69.11 E30.11333
G1 X38.527 Y68.246 E30.20011
G1 X38.742 Y68.117 E30.21346
G0 F6000 X38.943 Y68.463
G1 F1200 X40.332 Y67.656 E30.29894
G1 X40.535 Y67.542 E30.31133
G1 X41.947 Y66.78 E30.39672
G1 X42.153 Y66.672 E30.4091
G1 X43.62 Y65.939 E30.49637
G1 X43.847 Y65.831 E30.50975
G1 X45.31 Y65.161 E30.59538
G1 X45.529 Y65.065 E30.6081
G1 X47.05 Y64.427 E30.69588
G1 X47.254 Y64.345 E30.70758
G1 X48.717 Y63.782 E30.791
G1 X48.926 Y63.705 E30.80285
G1 X50.366 Y63.2 E30.88406
G1 X50.533 Y63.144 E30.89343
G1 X52.174 Y62.612 E30.98523
G1 X52.363 Y62.553 E30.99577
G1 X53.855 Y62.113 E31.07855
G1 X54.004 Y62.071 E31.08679
G1 X55.565 Y61.646 E31.17288
G1 X55.724 Y61.604 E31.18163
G1 X57.398 Y61.188 E31.27343
G1 X57.526 Y61.158 E31.28042
G1 X59.132 Y60.789 E31.36812
G1 X59.28 Y60.757 E31.37617
G1 X60.931 Y60.413 E31.46592
G1 X61.07 Y60.385 E31.47347
G1 X62.668 Y60.084 E31.56
G1 X62.786 Y60.063 E31.56638
G1 X64.37 Y59.791 E31.65191
G1 X64.492 Y59.771 E31.65849
G1 X66.214 Y59.505 E31.75121
G1 X66.331 Y59.488 E31.7575
G1 X67.908 Y59.27 E31.84222
G1 X68.021 Y59.255 E31.84829
G1 X69.677 Y59.052 E31.93707
G1 X69.787 Y59.039 E31.94297
G1 X71.426 Y58.863 E32.03069
G1 X71.56 Y58.85 E32.03786
G1 X74.787 Y58.563 E32.21026
G1 X74.976 Y58.549 E32.22035
G1 X78.299 Y58.339 E32.39754
G1 X78.453 Y58.331 E32.40575
G1 X81.669 Y58.195 E32.57704
G1 X81.81 Y58.19 E32.58455
G1 X85.032 Y58.115 E32.75606
G1 X85.143 Y58.113 E32.76197
G1 X87.088 Y58.097 E32.86548
G1 X87.117 Y58.097 E32.86702
G1 X88.499 Y58.091 E32.94056
G1 X88.525 Y58.091 E32.94195
G1 X94.431 Y58.086 E33.25624
G1 X94.438 Y58.086 E33.25662
G1 X156.835 Y58.091 E36.57715
G1 X197.475 Y58.092 E38.73986
G1 X205.291 Y58.082 E39.15579
G1 X205.312 Y58.082 E39.15691
G1 X206.031 Y58.083 E39.19517
G1 X206.614 Y57.976 E39.22672
G1 X207.568 Y57.914 E39.27759
G1 X207.955 Y57.914 E39.29819
G1 X208.723 Y57.954 E39.33911
G1 X209.483 Y58.073 E39.38005
G1 X210.226 Y58.271 E39.42097
G1 X210.945 Y58.545 E39.46192
G1 X211.631 Y58.892 E39.50283
G1 X212.278 Y59.308 E39.54376
G1 X212.878 Y59.789 E39.58468
G1 X213.188 Y60.081 E39.60735
G1 X213.305 Y60.198 E39.61615
G1 X213.819 Y60.77 E39.65708
G1 X214.272 Y61.392 E39.69802
G1 X214.658 Y62.057 E39.73894
G1 X214.973 Y62.759 E39.77989
G1 X215.213 Y63.49 E39.82083
G1 X215.376 Y64.241 E39.86173
G1 X215.46 Y65.006 E39.90268
G1 X215.472 Y65.431 E39.92531
G1 X215.472 Y65.819 E39.94596
G1 X215.432 Y66.587 E39.98688
G1 X215.313 Y67.347 E40.02782
G1 X215.303 Y67.385 E40.02991
G1 X215.303 Y67.864 E40.0554
G1 X215.294 Y135 E43.62813
G1 X215.294 Y145.003 E44.16045
G1 X215.304 Y152.116 E44.53898
G1 X215.304 Y152.139 E44.5402
G1 X215.303 Y152.651 E44.56745
G1 X215.411 Y153.242 E44.59942
G1 X215.472 Y154.189 E44.64992
G1 X215.472 Y154.569 E44.67014
G1 X215.432 Y155.337 E44.71107
G1 X215.313 Y156.097 E44.752
G1 X215.115 Y156.84 E44.79292
G1 X214.841 Y157.559 E44.83387
G1 X214.494 Y158.245 E44.87478
G1 X214.078 Y158.892 E44.91571
G1 X213.597 Y159.492 E44.95664
G1 X213.305 Y159.802 E44.9793
G1 X213.188 Y159.919 E44.98811
G1 X212.616 Y160.433 E45.02903
G1 X211.994 Y160.886 E45.06998
G1 X211.329 Y161.272 E45.1109
G1 X210.627 Y161.587 E45.15184
G1 X209.896 Y161.827 E45.19279
G1 X209.145 Y161.99 E45.23368
G1 X208.38 Y162.074 E45.27464
G1 X207.955 Y162.086 E45.29726
G1 X207.567 Y162.086 E45.31791
G1 X206.799 Y162.046 E45.35884
G1 X206.039 Y161.927 E45.39977
G1 X206.001 Y161.917 E45.40186
G1 X205.3 Y161.917 E45.43917
G1 X140.07 Y161.909 E48.91046
G1 X99.43 Y161.908 E51.07317
G1 X94.441 Y161.915 E51.33867
G1 X94.422 Y161.915 E51.33968
G1 X87.543 Y161.907 E51.70575
G1 X87.507 Y161.907 E51.70767
G1 X86.189 Y161.899 E51.77781
G1 X86.122 Y161.898 E51.78137
G1 X83.746 Y161.862 E51.90783
G1 X83.646 Y161.86 E51.91315
G1 X81.375 Y161.795 E52.03406
G1 X81.287 Y161.792 E52.03874
G1 X78.974 Y161.698 E52.16193
G1 X78.858 Y161.692 E52.16811
G1 X76.565 Y161.563 E52.29033
G1 X76.435 Y161.555 E52.29726
G1 X74.057 Y161.379 E52.42416
G1 X73.933 Y161.369 E52.43078
G1 X71.611 Y161.158 E52.55485
G1 X71.469 Y161.143 E52.56245
G1 X69.14 Y160.886 E52.68715
G1 X68.989 Y160.868 E52.69524
G1 X66.65 Y160.561 E52.82078
G1 X66.474 Y160.536 E52.83024
G1 X64.227 Y160.186 E52.95126
G1 X64.064 Y160.159 E52.96005
G1 X61.686 Y159.734 E53.0886
G1 X61.498 Y159.697 E53.0988
G1 X59.255 Y159.236 E53.22066
G1 X59.066 Y159.195 E53.23095
G1 X56.683 Y158.64 E53.36116
G1 X56.463 Y158.585 E53.37323
G1 X54.278 Y158.005 E53.49353
G1 X54.053 Y157.942 E53.50597
G1 X51.677 Y157.23 E53.63796
G1 X51.474 Y157.166 E53.64929
G1 X50.381 Y156.804 E53.71056
G1 X50.229 Y156.752 E53.71911
G1 X49.07 Y156.34 E53.78457
G1 X48.928 Y156.287 E53.79264
G1 X47.389 Y155.704 E53.88021
G1 X47.166 Y155.616 E53.89297
G1 X45.595 Y154.962 E53.98353
G1 X45.383 Y154.869 E53.99585
G1 X43.879 Y154.187 E54.08373
G1 X43.651 Y154.079 E54.09716
G1 X42.199 Y153.36 E54.18338
G1 X41.96 Y153.236 E54.19771
G1 X40.44 Y152.413 E54.28969
G1 X40.22 Y152.29 E54.30311
G1 X38.772 Y151.441 E54.39243
G1 X38.561 Y151.312 E54.40559
G1 X37.188 Y150.444 E54.49204
G1 X37.001 Y150.322 E54.50392
G1 X35.612 Y149.384 E54.59311
G1 X35.423 Y149.252 E54.60538
G1 X34.18 Y148.355 E54.68695
G1 X34.019 Y148.235 E54.69764
G1 X32.788 Y147.295 E54.78006
G1 X32.651 Y147.188 E54.78931
G1 X31.467 Y146.239 E54.87006
G1 X31.334 Y146.13 E54.87921
G1 X30.155 Y145.139 E54.96118
G1 X30.041 Y145.042 E54.96914
G1 X28.908 Y144.05 E55.04928
G1 X28.791 Y143.944 E55.05768
G1 X27.757 Y142.999 E55.13223
G1 X27.669 Y142.918 E55.13859
G1 X26.541 Y141.853 E55.22115
G1 X26.453 Y141.768 E55.22766
G1 X25.373 Y140.714 E55.30797
G1 X25.255 Y140.597 E55.31681
G1 X23.119 Y138.417 E55.47923
G1 X22.997 Y138.289 E55.48864
G1 X21.044 Y136.198 E55.6409
G1 X20.95 Y136.095 E55.64832
G1 X18.939 Y133.859 E55.80836
G1 X18.859 Y133.769 E55.81476
G1 X16.942 Y131.566 E55.97017
G1 X16.876 Y131.489 E55.97557
G1 X15.201 Y129.51 E56.11354
G1 X15.154 Y129.454 E56.11743
G1 X13.483 Y127.44 E56.2567
G1 X13.422 Y127.366 E56.2618
G1 X10.158 Y123.327 E56.53815
G1 X10.099 Y123.252 E56.54323
G1 X6.553 Y118.746 E56.84837
G1 X6.109 Y118.118 E56.8893
G1 X5.733 Y117.447 E56.93023
G1 X5.46 Y116.823 E56.96648
G1 X5.369 Y116.586 E56.97999
G1 X5.224 Y116.171 E57.00338
G1 X5.052 Y115.629 E57.03364
G1 X4.971 Y115.358 E57.04869
G1 X4.781 Y114.669 E57.08673
G1 X4.639 Y114.053 E57.12037
G1 X4.556 Y113.606 E57.14456
G1 X4.455 Y112.843 E57.18552
G1 X4.441 Y112.323 E57.2132
G1 X4.329 Y111.747 E57.24443
G1 X4.294 Y111.495 E57.25797
G1 X4.226 Y110.636 E57.30382
G1 X4.216 Y110.17 E57.32863
G1 X4.217 Y109.811 E57.34773
G1 X4.235 Y109.145 E57.38319
G1 X4.295 Y108.378 E57.42413
G1 X4.423 Y107.689 E57.46142
G1 X4.421 Y107.642 E57.46393
G1 X4.475 Y106.874 E57.5049
G1 X4.579 Y106.246 E57.53877
G1 X4.67 Y105.814 E57.56227
G1 X4.737 Y105.526 E57.578
G1 X4.922 Y104.794 E57.61818
G1 X5.096 Y104.207 E57.65076
G1 X5.348 Y103.472 E57.69211
G1 X5.635 Y102.758 E57.73306
G1 X5.994 Y102.078 E57.77398
G1 X6.517 Y101.316 E57.82317
G1 X7.867 Y99.588 E57.93986
G1 X7.89 Y99.558 E57.94187
G1 X10.806 Y95.865 E58.19228
G1 X10.872 Y95.783 E58.19788
G1 X13.928 Y92.024 E58.45569
G1 X13.988 Y91.951 E58.46071
G1 X15.571 Y90.054 E58.5922
G1 X15.623 Y89.992 E58.5965
G1 X17.343 Y87.976 E58.73753
G1 X17.4 Y87.911 E58.74213
G1 X19.078 Y85.99 E58.87787
G1 X19.146 Y85.912 E58.88337
G1 X20.853 Y84.012 E59.0193
G1 X20.938 Y83.919 E59.026
G1 X22.644 Y82.084 E59.15934
G1 X22.756 Y81.967 E59.16796
G1 X24.548 Y80.122 E59.30483
