;FLAVOR:Marlin
;TIME:14952
;Filament used: 14.5004m
;Layer height: 0.3
;MINX:56.96
;MINY:70.852
;MINZ:0.3
;MAXX:165.047
;MAXY:148.683
;MAXZ:55.8
;Generated with Cura_SteamEngine 4.4.0
M140 S60
M105
M190 S60
M104 S260
M105
M109 S260
M82 ;absolute extrusion mode
M201 X500.00 Y500.00 Z100.00 E5000.00 ;Setup machine max acceleration
M203 X500.00 Y500.00 Z10.00 E50.00 ;Setup machine max feedrate
M204 P500.00 R1000.00 T500.00 ;Setup Print/Retract/Travel acceleration
M205 X8.00 Y8.00 Z0.40 E5.00 ;Setup Jerk
M220 S100 ;Reset Feedrate
M221 S100 ;Reset Flowrate

G28 ;Home

G92 E0 ;Reset Extruder
G1 Z2.0 F3000 ;Move Z Axis up
G1 X10.1 Y20 Z0.28 F5000.0 ;Move to start position
G1 X10.1 Y200.0 Z0.28 F1500.0 E15 ;Draw the first line
G1 X10.4 Y200.0 Z0.28 F5000.0 ;Move to side a little
G1 X10.4 Y20 Z0.28 F1500.0 E30 ;Draw the second line
G92 E0 ;Reset Extruder
G1 Z2.0 F3000 ;Move Z Axis up

G92 E0
G92 E0
G1 F1500 E-6.5
;LAYER_COUNT:186
;LAYER:0
M107
G0 F6000 X73.191 Y89.169 Z0.3
;TYPE:SKIRT
G1 F1500 E0
G1 F1200 X139.609 Y106.966 E3.4305
G1 X142.005 Y105.996 E3.55946
G1 X144.664 Y104.857 E3.70378
G1 X144.988 Y104.269 E3.73728
G1 X145.543 Y103.236 E3.79578
G1 X145.769 Y102.787 E3.82086
G1 X145.936 Y102.432 E3.84043
G1 X146.075 Y102.111 E3.85788
G1 X146.176 Y101.853 E3.8717
G1 X146.249 Y101.642 E3.88284
G1 X146.299 Y101.474 E3.89159
G1 X146.334 Y101.333 E3.89884
G1 X146.352 Y101.239 E3.90361
G1 X146.369 Y101.117 E3.90976
G1 X146.377 Y101.029 E3.91417
G1 X146.384 Y100.874 E3.92191
G1 X146.383 Y100.701 E3.93054
G1 X146.375 Y100.513 E3.93993
G1 X146.356 Y100.279 E3.95164
G1 X146.314 Y99.873 E3.972
G1 X146.258 Y99.406 E3.99547
G1 X145.971 Y97.237 E4.10462
G1 X145.963 Y97.171 E4.10794
G1 X145.682 Y94.896 E4.2223
G1 X145.67 Y94.795 E4.22738
G1 X145.418 Y92.511 E4.34202
G1 X145.301 Y91.521 E4.39175
G1 X145.17 Y90.555 E4.44039
G1 X145.027 Y89.667 E4.48526
G1 X144.945 Y89.236 E4.50715
G1 X144.931 Y89.169 E4.51056
G1 X73.191 Y89.169 E8.08969
G0 F6000 X70.154 Y88.769
G1 F1200 X139.635 Y107.387 E11.6784
G1 X142.137 Y106.374 E11.81307
G1 X144.948 Y105.17 E11.96563
G1 X145.31 Y104.514 E12.00301
G1 X145.91 Y103.398 E12.06622
G1 X146.123 Y102.974 E12.0899
G1 X146.301 Y102.596 E12.11074
G1 X146.441 Y102.273 E12.12831
G1 X146.555 Y101.982 E12.1439
G1 X146.624 Y101.781 E12.1545
G1 X146.686 Y101.573 E12.16533
G1 X146.727 Y101.409 E12.17376
G1 X146.745 Y101.318 E12.17839
G1 X146.766 Y101.165 E12.18609
G1 X146.777 Y101.043 E12.19221
G1 X146.784 Y100.889 E12.1999
G1 X146.783 Y100.706 E12.20903
G1 X146.774 Y100.494 E12.21961
G1 X146.751 Y100.201 E12.23428
G1 X146.714 Y99.846 E12.25208
G1 X146.655 Y99.358 E12.27661
G1 X146.368 Y97.184 E12.38601
G1 X146.36 Y97.122 E12.38913
G1 X146.079 Y94.847 E12.50349
G1 X146.068 Y94.752 E12.50826
G1 X145.816 Y92.468 E12.6229
G1 X145.698 Y91.477 E12.67269
G1 X145.562 Y90.477 E12.72304
G1 X145.422 Y89.607 E12.76701
G1 X145.341 Y89.177 E12.78884
G1 X145.278 Y88.87 E12.80447
G1 X145.254 Y88.769 E12.80965
G1 X70.154 Y88.769 E16.5564
G0 F6000 X69.63 Y89.043
G1 F1200 X139.66 Y107.809 E20.17348
G1 X142.305 Y106.737 E20.31587
G1 X145.155 Y105.517 E20.47054
G1 X145.235 Y105.479 E20.47495
G1 X145.657 Y104.712 E20.51863
G1 X146.261 Y103.589 E20.58225
G1 X146.485 Y103.144 E20.6071
G1 X146.666 Y102.759 E20.62833
G1 X146.822 Y102.4 E20.64785
G1 X146.921 Y102.146 E20.66145
G1 X147.014 Y101.878 E20.67561
G1 X147.068 Y101.697 E20.68503
G1 X147.115 Y101.508 E20.69475
G1 X147.145 Y101.353 E20.70262
G1 X147.161 Y101.238 E20.70842
G1 X147.178 Y101.051 E20.71778
G1 X147.184 Y100.888 E20.72592
G1 X147.183 Y100.688 E20.7359
G1 X147.174 Y100.472 E20.74669
G1 X147.15 Y100.171 E20.76175
G1 X147.104 Y99.728 E20.78397
G1 X147.062 Y99.387 E20.80111
G1 X146.764 Y97.132 E20.91459
G1 X146.757 Y97.073 E20.91756
G1 X146.476 Y94.798 E21.03192
G1 X146.465 Y94.708 E21.03644
G1 X146.213 Y92.424 E21.15108
G1 X146.099 Y91.461 E21.19946
G1 X145.955 Y90.4 E21.25288
G1 X145.811 Y89.505 E21.29811
G1 X145.741 Y89.133 E21.31699
G1 X145.675 Y88.814 E21.33324
G1 X145.578 Y88.4 E21.35446
G1 X145.57 Y88.369 E21.35606
G1 X66.255 Y88.369 E25.3131
G1 X65.508 Y88.329 E25.35042
G1 X64.77 Y88.21 E25.38771
G1 X64.048 Y88.012 E25.42506
G1 X63.352 Y87.739 E25.46236
G1 X62.689 Y87.392 E25.4997
G1 X62.066 Y86.977 E25.53704
G1 X61.492 Y86.498 E25.57434
G1 X60.971 Y85.961 E25.61167
G1 X60.512 Y85.371 E25.64896
G1 X60.117 Y84.735 E25.68632
G1 X59.793 Y84.061 E25.72362
G1 X59.543 Y83.356 E25.76094
G1 X59.369 Y82.628 E25.79829
G1 X59.274 Y81.886 E25.83561
G1 X59.255 Y81.369 E25.86142
G1 X59.255 Y78.869 E25.98614
G1 X59.295 Y78.122 E26.02346
G1 X59.414 Y77.384 E26.06076
G1 X59.612 Y76.662 E26.09811
G1 X59.885 Y75.966 E26.13541
G1 X60.232 Y75.303 E26.17274
G1 X60.647 Y74.68 E26.21009
G1 X61.126 Y74.106 E26.24739
G1 X61.663 Y73.585 E26.28472
G1 X62.253 Y73.126 E26.32201
G1 X62.889 Y72.731 E26.35936
G1 X63.563 Y72.407 E26.39667
G1 X64.268 Y72.157 E26.43399
G1 X64.996 Y71.983 E26.47133
G1 X65.738 Y71.888 E26.50865
G1 X66.255 Y71.869 E26.53446
G1 X148.46 Y71.869 E30.63569
G1 X148.709 Y71.825 E30.6483
G1 X149.104 Y71.767 E30.66822
G1 X149.492 Y71.721 E30.68771
G1 X149.939 Y71.682 E30.7101
G1 X150.328 Y71.661 E30.72953
G1 X150.833 Y71.652 E30.75473
G1 X151.216 Y71.659 E30.77384
G1 X151.877 Y71.703 E30.80689
G1 X152.256 Y71.746 E30.82592
G1 X152.978 Y71.866 E30.86244
G1 X153.349 Y71.948 E30.8814
G1 X154.13 Y72.169 E30.92189
G1 X154.485 Y72.292 E30.94063
G1 X155.345 Y72.656 E30.98722
G1 X155.694 Y72.832 E31.00672
G1 X156.487 Y73.3 E31.05266
G1 X156.786 Y73.504 E31.07072
G1 X157.509 Y74.069 E31.1165
G1 X157.794 Y74.324 E31.13558
G1 X158.393 Y74.93 E31.17809
G1 X158.646 Y75.219 E31.19725
G1 X159.126 Y75.834 E31.23617
G1 X159.352 Y76.159 E31.25592
G1 X159.711 Y76.733 E31.2897
G1 X159.915 Y77.097 E31.31052
G1 X160.161 Y77.577 E31.33743
G1 X160.35 Y77.985 E31.35986
G1 X160.531 Y78.412 E31.383
G1 X160.705 Y78.864 E31.40716
G1 X160.805 Y79.142 E31.4219
G1 X160.918 Y79.477 E31.43954
G1 X161.001 Y79.74 E31.4533
G1 X161.108 Y80.104 E31.47223
G1 X161.16 Y80.289 E31.48181
G1 X161.266 Y80.69 E31.50251
G1 X161.305 Y80.847 E31.51058
G1 X161.41 Y81.285 E31.53305
G1 X161.443 Y81.43 E31.54047
G1 X161.548 Y81.913 E31.56513
G1 X161.578 Y82.06 E31.57261
G1 X161.681 Y82.588 E31.59945
G1 X161.707 Y82.723 E31.60631
G1 X161.862 Y83.61 E31.65123
G1 X161.89 Y83.787 E31.66017
G1 X162.093 Y85.154 E31.72912
G1 X162.113 Y85.298 E31.73637
G1 X162.316 Y86.892 E31.81654
G1 X162.328 Y86.996 E31.82176
G1 X162.477 Y88.324 E31.88843
G1 X162.482 Y88.37 E31.89074
G1 X162.582 Y89.319 E31.93835
G1 X162.589 Y89.38 E31.94141
G1 X162.785 Y91.408 E32.04306
G1 X162.789 Y91.457 E32.04552
G1 X162.885 Y92.529 E32.09921
G1 X162.889 Y92.575 E32.10152
G1 X163.075 Y94.821 E32.21395
G1 X163.079 Y94.873 E32.21655
G1 X163.257 Y97.235 E32.33473
G1 X163.26 Y97.28 E32.33698
G1 X163.429 Y99.732 E32.4596
G1 X163.432 Y99.767 E32.46135
G1 X163.512 Y101.02 E32.52399
G1 X163.514 Y101.051 E32.52554
G1 X163.665 Y103.592 E32.65254
G1 X163.667 Y103.632 E32.65454
G1 X163.805 Y106.202 E32.78294
G1 X163.807 Y106.25 E32.78533
G1 X163.927 Y108.813 E32.91334
G1 X163.929 Y108.858 E32.91559
G1 X164.032 Y111.41 E33.04301
G1 X164.033 Y111.439 E33.04446
G1 X164.079 Y112.71 E33.10791
G1 X164.081 Y112.754 E33.11011
G1 X164.155 Y115.227 E33.23354
G1 X164.156 Y115.261 E33.23524
G1 X164.186 Y116.458 E33.29498
G1 X164.187 Y116.511 E33.29762
G1 X164.228 Y118.868 E33.41523
G1 X164.229 Y118.936 E33.41863
G1 X164.247 Y121.278 E33.53547
G1 X164.247 Y121.356 E33.53936
G1 X164.239 Y123.721 E33.65735
G1 X164.238 Y123.804 E33.6615
G1 X164.22 Y124.979 E33.72012
G1 X164.219 Y125.04 E33.72317
G1 X164.191 Y126.204 E33.78126
G1 X164.189 Y126.268 E33.78445
G1 X164.151 Y127.415 E33.84171
G1 X164.148 Y127.493 E33.8456
G1 X164.098 Y128.62 E33.90188
G1 X164.094 Y128.698 E33.90578
G1 X164.033 Y129.797 E33.96069
G1 X164.027 Y129.899 E33.96579
G1 X163.952 Y130.968 E34.01925
G1 X163.944 Y131.065 E34.02411
G1 X163.857 Y132.099 E34.07588
G1 X163.844 Y132.236 E34.08274
G1 X163.741 Y133.227 E34.13245
G1 X163.725 Y133.371 E34.13968
G1 X163.606 Y134.323 E34.18754
G1 X163.589 Y134.447 E34.19379
G1 X163.524 Y134.901 E34.21667
G1 X163.512 Y134.985 E34.2209
G1 X163.444 Y135.422 E34.24297
G1 X163.424 Y135.545 E34.24919
G1 X163.351 Y135.965 E34.27045
G1 X163.335 Y136.053 E34.27492
G1 X163.26 Y136.454 E34.29527
G1 X163.237 Y136.571 E34.30122
G1 X163.159 Y136.952 E34.32062
G1 X163.133 Y137.072 E34.32675
G1 X163.052 Y137.435 E34.3453
G1 X163.021 Y137.567 E34.35207
G1 X162.937 Y137.912 E34.36978
G1 X162.896 Y138.075 E34.37817
G1 X162.808 Y138.402 E34.39506
G1 X162.763 Y138.561 E34.4033
G1 X162.672 Y138.87 E34.41938
G1 X162.629 Y139.01 E34.42668
G1 X162.536 Y139.303 E34.44202
G1 X162.465 Y139.513 E34.45308
G1 X162.368 Y139.788 E34.46763
G1 X162.294 Y139.99 E34.47836
G1 X162.194 Y140.248 E34.49216
G1 X162.098 Y140.482 E34.50478
G1 X161.994 Y140.724 E34.51792
G1 X161.918 Y140.895 E34.52726
G1 X161.815 Y141.118 E34.53951
G1 X161.575 Y141.59 E34.56593
G1 X161.346 Y142.001 E34.5894
G1 X161.097 Y142.414 E34.61346
G1 X160.97 Y142.609 E34.62507
G1 X160.689 Y143.009 E34.64946
G1 X160.553 Y143.189 E34.66072
G1 X160.212 Y143.606 E34.68759
G1 X160.067 Y143.77 E34.69851
G1 X159.656 Y144.196 E34.72805
G1 X159.502 Y144.343 E34.73867
G1 X158.989 Y144.788 E34.77255
G1 X158.822 Y144.919 E34.78314
G1 X158.123 Y145.401 E34.8255
G1 X157.946 Y145.508 E34.83582
G1 X157.146 Y145.924 E34.8808
G1 X156.953 Y146.009 E34.89132
G1 X156.055 Y146.334 E34.93897
G1 X155.852 Y146.392 E34.9495
G1 X154.813 Y146.605 E35.00242
G1 X154.601 Y146.632 E35.01308
G1 X153.855 Y146.687 E35.0504
G1 X153.328 Y146.677 E35.07669
G1 X152.592 Y146.636 E35.11347
G1 X152.457 Y146.627 E35.12022
G1 X152.285 Y146.614 E35.12883
G1 X147.038 Y147.73 E35.39646
G1 X146.299 Y147.846 E35.43378
G1 X145.552 Y147.883 E35.47109
G1 X144.805 Y147.84 E35.50842
G1 X144.067 Y147.717 E35.54575
G1 X143.347 Y147.516 E35.58304
G1 X142.651 Y147.24 E35.62039
G1 X141.99 Y146.891 E35.65769
G1 X141.369 Y146.473 E35.69503
G1 X140.797 Y145.992 E35.73232
G1 X140.279 Y145.452 E35.76965
G1 X139.821 Y144.86 E35.80699
G1 X139.43 Y144.223 E35.84428
G1 X139.109 Y143.547 E35.88162
G1 X138.861 Y142.841 E35.91895
G1 X138.735 Y142.339 E35.94477
G1 X135.444 Y126.866 E36.73399
G1 X64.611 Y107.886 E40.39253
G1 X64.606 Y107.885 E40.39278
G1 X62.943 Y107.438 E40.4787
G1 X62.232 Y107.206 E40.51601
G1 X61.55 Y106.898 E40.55334
G1 X60.904 Y106.52 E40.59068
G1 X60.303 Y106.076 E40.62796
G1 X59.752 Y105.569 E40.66532
G1 X59.259 Y105.007 E40.70262
G1 X58.828 Y104.395 E40.73996
G1 X58.466 Y103.741 E40.77725
G1 X58.175 Y103.052 E40.81457
G1 X57.959 Y102.335 E40.85193
G1 X57.821 Y101.6 E40.88924
G1 X57.762 Y100.854 E40.92657
G1 X57.783 Y100.107 E40.96385
G1 X57.884 Y99.365 E41.00121
G1 X57.999 Y98.865 E41.02681
G1 X59.423 Y93.553 E41.30118
G1 X59.655 Y92.842 E41.3385
G1 X59.961 Y92.16 E41.37579
G1 X60.339 Y91.514 E41.41313
G1 X60.783 Y90.912 E41.45045
G1 X61.29 Y90.362 E41.48777
G1 X61.851 Y89.868 E41.52506
G1 X62.463 Y89.437 E41.56241
G1 X63.117 Y89.074 E41.59972
G1 X63.806 Y88.782 E41.63706
G1 X64.522 Y88.566 E41.67437
G1 X65.257 Y88.428 E41.71168
G1 X66.003 Y88.368 E41.74902
G1 X66.751 Y88.389 E41.78635
G1 X67.492 Y88.489 E41.82365
G1 X67.997 Y88.605 E41.84951
G1 X69.63 Y89.043 E41.93386
G0 F6000 X69.527 Y89.429
G1 F1200 X139.687 Y108.23 E45.55765
G1 X142.455 Y107.108 E45.70666
G1 X145.295 Y105.892 E45.86079
G1 X145.524 Y105.783 E45.87344
G1 X146.039 Y104.847 E45.92674
G1 X146.622 Y103.764 E45.9881
G1 X146.839 Y103.332 E46.01222
G1 X147.025 Y102.936 E46.03405
G1 X147.187 Y102.562 E46.05439
G1 X147.305 Y102.262 E46.07047
G1 X147.387 Y102.024 E46.08303
G1 X147.46 Y101.78 E46.09573
G1 X147.505 Y101.598 E46.10509
G1 X147.538 Y101.427 E46.11378
G1 X147.561 Y101.262 E46.12209
G1 X147.575 Y101.109 E46.12975
G1 X147.584 Y100.897 E46.14034
G1 X147.583 Y100.693 E46.15052
G1 X147.571 Y100.422 E46.16405
G1 X147.549 Y100.142 E46.17806
G1 X147.506 Y99.725 E46.19898
G1 X147.459 Y99.335 E46.21857
G1 X147.161 Y97.08 E46.33206
G1 X147.154 Y97.024 E46.33487
G1 X146.873 Y94.749 E46.44923
G1 X146.863 Y94.664 E46.4535
G1 X146.617 Y92.435 E46.56538
G1 X146.487 Y91.337 E46.62055
G1 X146.354 Y90.361 E46.66969
G1 X146.202 Y89.418 E46.71734
G1 X146.145 Y89.115 E46.73272
G1 X146.055 Y88.682 E46.75479
G1 X145.971 Y88.322 E46.77323
G1 X145.891 Y88.014 E46.78911
G1 X145.877 Y87.969 E46.79146
G1 X66.255 Y87.969 E50.76382
G1 X65.53 Y87.929 E50.80004
G1 X64.813 Y87.81 E50.8363
G1 X64.114 Y87.612 E50.87255
G1 X63.441 Y87.339 E50.90878
G1 X62.802 Y86.994 E50.94501
G1 X62.205 Y86.58 E50.98126
G1 X61.657 Y86.104 E51.01747
G1 X61.164 Y85.57 E51.05373
G1 X60.734 Y84.985 E51.08995
G1 X60.37 Y84.356 E51.12621
G1 X60.077 Y83.691 E51.16246
G1 X59.859 Y82.998 E51.19871
G1 X59.719 Y82.286 E51.23491
G1 X59.655 Y81.369 E51.28077
G1 X59.655 Y78.869 E51.40549
G1 X59.695 Y78.144 E51.44172
G1 X59.814 Y77.427 E51.47798
G1 X60.012 Y76.728 E51.51423
G1 X60.285 Y76.055 E51.55046
G1 X60.63 Y75.416 E51.58669
G1 X61.044 Y74.819 E51.62293
G1 X61.52 Y74.271 E51.65915
G1 X62.054 Y73.778 E51.69541
G1 X62.639 Y73.348 E51.73163
G1 X63.268 Y72.984 E51.76789
G1 X63.933 Y72.691 E51.80414
G1 X64.626 Y72.473 E51.84038
G1 X65.338 Y72.333 E51.87659
G1 X66.255 Y72.269 E51.92245
G1 X148.496 Y72.269 E56.02547
G1 X148.779 Y72.219 E56.0398
G1 X149.151 Y72.164 E56.05857
G1 X149.539 Y72.118 E56.07806
G1 X149.96 Y72.082 E56.09914
G1 X150.349 Y72.061 E56.11857
G1 X150.826 Y72.052 E56.14238
G1 X151.209 Y72.059 E56.16149
G1 X151.832 Y72.1 E56.19264
G1 X152.211 Y72.143 E56.21167
G1 X152.891 Y72.257 E56.24606
G1 X153.262 Y72.339 E56.26502
G1 X153.999 Y72.547 E56.30323
G1 X154.354 Y72.67 E56.32197
G1 X155.165 Y73.013 E56.3659
G1 X155.514 Y73.189 E56.3854
G1 X156.262 Y73.63 E56.42872
G1 X156.561 Y73.834 E56.44678
G1 X157.242 Y74.367 E56.48992
G1 X157.527 Y74.622 E56.509
G1 X158.092 Y75.194 E56.54912
G1 X158.345 Y75.483 E56.56828
G1 X158.798 Y76.062 E56.60495
G1 X159.024 Y76.387 E56.6247
G1 X159.362 Y76.928 E56.65653
G1 X159.566 Y77.292 E56.67735
G1 X159.798 Y77.745 E56.70274
G1 X159.987 Y78.153 E56.72517
G1 X160.157 Y78.556 E56.74699
G1 X160.331 Y79.008 E56.77116
G1 X160.426 Y79.27 E56.78506
G1 X160.539 Y79.605 E56.8027
G1 X160.617 Y79.853 E56.81567
G1 X160.724 Y80.217 E56.8346
G1 X160.773 Y80.391 E56.84362
G1 X160.879 Y80.792 E56.86431
G1 X160.916 Y80.94 E56.87192
G1 X161.021 Y81.378 E56.89439
G1 X161.052 Y81.515 E56.9014
G1 X161.157 Y81.998 E56.92606
G1 X161.186 Y82.136 E56.93309
G1 X161.289 Y82.664 E56.95993
G1 X161.312 Y82.792 E56.96642
G1 X161.467 Y83.679 E57.01134
G1 X161.494 Y83.846 E57.01978
G1 X161.697 Y85.213 E57.08873
G1 X161.716 Y85.348 E57.09553
G1 X161.919 Y86.942 E57.1757
G1 X161.931 Y87.04 E57.18063
G1 X162.08 Y88.368 E57.2473
G1 X162.085 Y88.412 E57.24951
G1 X162.185 Y89.361 E57.29711
G1 X162.19 Y89.418 E57.29997
G1 X162.386 Y91.446 E57.40162
G1 X162.391 Y91.492 E57.40393
G1 X162.487 Y92.564 E57.45762
G1 X162.49 Y92.608 E57.45982
G1 X162.676 Y94.854 E57.57226
G1 X162.68 Y94.903 E57.57471
G1 X162.858 Y97.265 E57.69289
G1 X162.861 Y97.307 E57.69499
G1 X163.03 Y99.759 E57.81761
G1 X163.033 Y99.792 E57.81926
G1 X163.113 Y101.045 E57.8819
G1 X163.114 Y101.074 E57.88335
G1 X163.265 Y103.615 E58.01034
G1 X163.268 Y103.653 E58.01225
G1 X163.406 Y106.223 E58.14065
G1 X163.408 Y106.268 E58.1429
G1 X163.528 Y108.831 E58.2709
G1 X163.53 Y108.874 E58.27305
G1 X163.633 Y111.426 E58.40047
G1 X163.634 Y111.453 E58.40182
G1 X163.68 Y112.724 E58.46527
G1 X163.681 Y112.766 E58.46737
G1 X163.755 Y115.239 E58.5908
G1 X163.756 Y115.271 E58.5924
G1 X163.786 Y116.468 E58.65214
G1 X163.787 Y116.518 E58.65463
G1 X163.828 Y118.875 E58.77224
G1 X163.829 Y118.939 E58.77544
G1 X163.847 Y121.281 E58.89228
G1 X163.847 Y121.354 E58.89592
G1 X163.839 Y123.719 E59.01392
G1 X163.838 Y123.798 E59.01786
G1 X163.82 Y124.973 E59.07649
G1 X163.819 Y125.031 E59.07938
G1 X163.791 Y126.195 E59.13747
G1 X163.789 Y126.255 E59.14046
G1 X163.751 Y127.402 E59.19772
G1 X163.749 Y127.476 E59.20141
G1 X163.699 Y128.603 E59.25769
G1 X163.695 Y128.676 E59.26134
G1 X163.634 Y129.775 E59.31625
G1 X163.628 Y129.871 E59.32105
