;FLAVOR:Marlin
;TIME:15112
;Filament used: 14.5933m
;Layer height: 0.3
;MINX:56.543
;MINY:70.914
;MINZ:0.3
;MAXX:165.475
;MAXY:148.619
;MAXZ:55.8
;Generated with Cura_SteamEngine 4.4.0
M140 S60
M105
M190 S60
M104 S260
M105
M109 S260
M82 ;absolute extrusion mode
M201 X500.00 Y500.00 Z100.00 E5000.00 ;Setup machine max acceleration
M203 X500.00 Y500.00 Z10.00 E50.00 ;Setup machine max feedrate
M204 P500.00 R1000.00 T500.00 ;Setup Print/Retract/Travel acceleration
M205 X8.00 Y8.00 Z0.40 E5.00 ;Setup Jerk
M220 S100 ;Reset Feedrate
M221 S100 ;Reset Flowrate

G28 ;Home

G92 E0 ;Reset Extruder
G1 Z2.0 F3000 ;Move Z Axis up
G1 X10.1 Y20 Z0.28 F5000.0 ;Move to start position
G1 X10.1 Y200.0 Z0.28 F1500.0 E15 ;Draw the first line
G1 X10.4 Y200.0 Z0.28 F5000.0 ;Move to side a little
G1 X10.4 Y20 Z0.28 F1500.0 E30 ;Draw the second line
G92 E0 ;Reset Extruder
G1 Z2.0 F3000 ;Move Z Axis up

G92 E0
G92 E0
G1 F1500 E-6.5
;LAYER_COUNT:186
;LAYER:0
M107
G0 F6000 X67.502 Y89.218 Z0.3
;TYPE:SKIRT
G1 F1500 E0
G1 F1200 X67.56 Y89.231 E0.00297
G1 X139.317 Y107.122 E3.69253
G1 X144.49 Y104.595 E3.97976
G1 X144.519 Y104.537 E3.983
G1 X145.098 Y103.352 E4.0488
G1 X145.325 Y102.852 E4.07619
G1 X145.502 Y102.431 E4.09898
G1 X145.632 Y102.082 E4.11756
G1 X145.749 Y101.726 E4.13625
G1 X145.83 Y101.424 E4.15185
G1 X145.869 Y101.235 E4.16148
G1 X145.908 Y100.961 E4.17529
G1 X145.912 Y100.898 E4.17844
G1 X145.914 Y100.62 E4.19231
G1 X145.899 Y100.311 E4.20774
G1 X145.86 Y99.892 E4.22874
G1 X145.792 Y99.331 E4.25693
G1 X145.298 Y95.739 E4.43782
G1 X145.281 Y95.607 E4.44446
G1 X144.88 Y92.27 E4.61214
G1 X144.784 Y91.515 E4.65011
G1 X144.679 Y90.759 E4.68819
G1 X144.583 Y90.146 E4.71915
G1 X144.468 Y89.494 E4.75218
G1 X144.411 Y89.218 E4.76624
G1 X67.502 Y89.218 E8.60324
G0 F6000 X67.463 Y89.619
G1 F1200 X139.362 Y107.546 E12.30012
G1 X144.787 Y104.895 E12.60136
G1 X144.91 Y104.65 E12.61504
G1 X145.464 Y103.514 E12.67809
G1 X145.687 Y103.024 E12.70495
G1 X145.871 Y102.585 E12.7287
G1 X146.019 Y102.189 E12.74979
G1 X146.127 Y101.858 E12.76716
G1 X146.218 Y101.524 E12.78443
G1 X146.262 Y101.307 E12.79548
G1 X146.305 Y101.014 E12.81025
G1 X146.309 Y100.959 E12.813
G1 X146.311 Y100.925 E12.8147
G1 X146.314 Y100.605 E12.83067
G1 X146.299 Y100.3 E12.8459
G1 X146.257 Y99.844 E12.86875
G1 X146.189 Y99.285 E12.89684
G1 X145.694 Y95.684 E13.07819
G1 X145.678 Y95.559 E13.08447
G1 X145.282 Y92.267 E13.2499
G1 X145.174 Y91.413 E13.29284
G1 X145.079 Y90.73 E13.32725
G1 X144.974 Y90.058 E13.36118
G1 X144.861 Y89.422 E13.39341
G1 X144.753 Y88.891 E13.42044
G1 X144.735 Y88.818 E13.42419
G1 X65.735 Y88.818 E17.36552
G1 X64.967 Y88.778 E17.40388
G1 X64.207 Y88.659 E17.44226
G1 X63.464 Y88.461 E17.48063
G1 X62.745 Y88.187 E17.51901
G1 X62.059 Y87.84 E17.55737
G1 X61.412 Y87.424 E17.59574
G1 X60.812 Y86.943 E17.63411
G1 X60.265 Y86.402 E17.67249
G1 X59.777 Y85.807 E17.71088
G1 X59.354 Y85.165 E17.74924
G1 X58.999 Y84.482 E17.78764
G1 X58.718 Y83.767 E17.82597
G1 X58.512 Y83.025 E17.86439
G1 X58.384 Y82.267 E17.90274
G1 X58.335 Y81.418 E17.94517
G1 X58.335 Y78.918 E18.06989
G1 X58.375 Y78.15 E18.10826
G1 X58.494 Y77.39 E18.14664
G1 X58.692 Y76.647 E18.185
G1 X58.966 Y75.928 E18.22339
G1 X59.313 Y75.242 E18.26174
G1 X59.729 Y74.595 E18.30012
G1 X60.21 Y73.995 E18.33848
G1 X60.751 Y73.448 E18.37687
G1 X61.346 Y72.96 E18.41526
G1 X61.988 Y72.537 E18.45362
G1 X62.671 Y72.182 E18.49202
G1 X63.386 Y71.901 E18.53035
G1 X64.128 Y71.695 E18.56876
G1 X64.886 Y71.567 E18.60712
G1 X65.735 Y71.518 E18.64954
G1 X147.94 Y71.518 E22.75077
G1 X148.199 Y71.475 E22.76387
G1 X148.592 Y71.42 E22.78366
G1 X148.979 Y71.377 E22.80309
G1 X149.417 Y71.342 E22.82501
G1 X149.807 Y71.322 E22.84449
G1 X150.341 Y71.314 E22.87114
G1 X150.724 Y71.322 E22.89025
G1 X151.386 Y71.365 E22.92335
G1 X151.764 Y71.407 E22.94232
G1 X152.525 Y71.532 E22.9808
G1 X152.896 Y71.613 E22.99974
G1 X153.688 Y71.833 E23.04075
G1 X154.043 Y71.953 E23.05945
G1 X154.99 Y72.348 E23.11064
G1 X155.337 Y72.522 E23.13001
G1 X156.129 Y72.983 E23.17572
G1 X156.439 Y73.19 E23.19432
G1 X157.258 Y73.823 E23.24596
G1 X157.528 Y74.064 E23.26402
G1 X158.144 Y74.684 E23.30762
G1 X158.403 Y74.977 E23.32713
G1 X158.922 Y75.636 E23.36898
G1 X159.148 Y75.959 E23.38865
G1 X159.524 Y76.555 E23.42381
G1 X159.729 Y76.917 E23.44456
G1 X160.017 Y77.479 E23.47607
G1 X160.205 Y77.889 E23.49857
G1 X160.383 Y78.311 E23.52142
G1 X160.558 Y78.765 E23.5457
G1 X160.671 Y79.081 E23.56244
G1 X160.785 Y79.422 E23.58038
G1 X160.863 Y79.668 E23.59325
G1 X160.971 Y80.033 E23.61224
G1 X161.02 Y80.209 E23.62136
G1 X161.128 Y80.61 E23.64208
G1 X161.175 Y80.79 E23.65136
G1 X161.28 Y81.223 E23.67359
G1 X161.312 Y81.363 E23.68075
G1 X161.417 Y81.836 E23.70492
G1 X161.444 Y81.964 E23.71145
G1 X161.548 Y82.475 E23.73747
G1 X161.572 Y82.598 E23.74372
G1 X161.675 Y83.152 E23.77183
G1 X161.692 Y83.243 E23.77645
G1 X161.795 Y83.838 E23.80658
G1 X161.808 Y83.918 E23.81062
G1 X161.912 Y84.561 E23.84312
G1 X161.932 Y84.693 E23.84978
G1 X162.252 Y86.925 E23.96227
G1 X162.268 Y87.045 E23.96831
G1 X162.49 Y88.798 E24.05647
G1 X162.498 Y88.865 E24.05983
G1 X162.726 Y90.806 E24.15733
G1 X162.733 Y90.865 E24.1603
G1 X162.963 Y92.969 E24.26589
G1 X162.969 Y93.027 E24.2688
G1 X163.314 Y96.433 E24.4396
G1 X163.32 Y96.488 E24.44236
G1 X163.548 Y98.92 E24.56422
G1 X163.658 Y100.15 E24.62583
G1 X163.66 Y100.176 E24.62713
G1 X163.874 Y102.668 E24.75192
G1 X163.877 Y102.708 E24.75392
G1 X164.081 Y105.247 E24.881
G1 X164.084 Y105.285 E24.8829
G1 X164.276 Y107.836 E25.01053
G1 X164.28 Y107.89 E25.01323
G1 X164.538 Y111.694 E25.20345
G1 X164.542 Y111.75 E25.20625
G1 X164.691 Y114.222 E25.3298
G1 X164.694 Y114.278 E25.3326
G1 X164.82 Y116.673 E25.45225
G1 X164.823 Y116.741 E25.45565
G1 X164.923 Y119.041 E25.5705
G1 X164.925 Y119.09 E25.57295
G1 X164.968 Y120.258 E25.63126
G1 X164.97 Y120.322 E25.63446
G1 X165.036 Y122.667 E25.7515
G1 X165.038 Y122.771 E25.75669
G1 X165.071 Y125.121 E25.87394
G1 X165.072 Y125.206 E25.87818
G1 X165.075 Y126.375 E25.9365
G1 X165.075 Y126.452 E25.94034
G1 X165.066 Y127.593 E25.99727
G1 X165.064 Y127.687 E26.00196
G1 X165.041 Y128.805 E26.05775
G1 X165.039 Y128.897 E26.06234
G1 X165.003 Y129.987 E26.11675
G1 X164.998 Y130.1 E26.12239
G1 X164.947 Y131.156 E26.17514
G1 X164.94 Y131.285 E26.18158
G1 X164.873 Y132.303 E26.23248
G1 X164.862 Y132.446 E26.23964
G1 X164.779 Y133.419 E26.28836
G1 X164.768 Y133.539 E26.29437
G1 X164.72 Y134.011 E26.31804
G1 X164.708 Y134.12 E26.32351
G1 X164.655 Y134.574 E26.34631
G1 X164.643 Y134.673 E26.35129
G1 X164.586 Y135.11 E26.37328
G1 X164.571 Y135.219 E26.37877
G1 X164.51 Y135.638 E26.39989
G1 X164.491 Y135.762 E26.40615
G1 X164.426 Y136.161 E26.42632
G1 X164.405 Y136.283 E26.43249
G1 X164.336 Y136.666 E26.45191
G1 X164.309 Y136.809 E26.45917
G1 X164.236 Y137.173 E26.47769
G1 X164.202 Y137.33 E26.4857
G1 X164.125 Y137.675 E26.50334
G1 X164.092 Y137.816 E26.51056
G1 X164.012 Y138.144 E26.52741
G1 X163.958 Y138.354 E26.53823
G1 X163.873 Y138.663 E26.55422
G1 X163.819 Y138.851 E26.56397
G1 X163.73 Y139.144 E26.57925
G1 X163.654 Y139.379 E26.59157
G1 X163.561 Y139.652 E26.60596
G1 X163.486 Y139.861 E26.61704
G1 X163.389 Y140.12 E26.63084
G1 X163.28 Y140.395 E26.6456
G1 X163.179 Y140.635 E26.65859
G1 X163.065 Y140.893 E26.67266
G1 X162.961 Y141.116 E26.68493
G1 X162.803 Y141.433 E26.70261
G1 X162.692 Y141.644 E26.7145
G1 X162.486 Y142.011 E26.7355
G1 X162.364 Y142.214 E26.74731
G1 X162.077 Y142.654 E26.77352
G1 X161.945 Y142.842 E26.78498
G1 X161.619 Y143.272 E26.8119
G1 X161.476 Y143.447 E26.82318
G1 X161.045 Y143.93 E26.85547
G1 X160.891 Y144.088 E26.86648
G1 X160.282 Y144.647 E26.90772
G1 X160.116 Y144.783 E26.91843
G1 X159.452 Y145.268 E26.95945
G1 X159.27 Y145.386 E26.97027
G1 X158.314 Y145.91 E27.02466
G1 X158.121 Y145.998 E27.03525
G1 X157.133 Y146.366 E27.08785
G1 X156.925 Y146.427 E27.09866
G1 X155.828 Y146.66 E27.15461
G1 X155.612 Y146.689 E27.16548
G1 X154.627 Y146.755 E27.21474
G1 X154.414 Y146.755 E27.22536
G1 X153.857 Y146.734 E27.25317
G1 X153.523 Y146.709 E27.26988
G1 X152.826 Y146.88 E27.30569
G1 X148.329 Y148.005 E27.53696
G1 X147.574 Y148.152 E27.57533
G1 X146.808 Y148.221 E27.6137
G1 X146.039 Y148.209 E27.65207
G1 X145.275 Y148.118 E27.69046
G1 X144.525 Y147.948 E27.72882
G1 X143.797 Y147.701 E27.76718
G1 X143.098 Y147.38 E27.80555
G1 X142.436 Y146.988 E27.84394
G1 X141.818 Y146.53 E27.88231
G1 X141.252 Y146.01 E27.92066
G1 X140.742 Y145.433 E27.95908
G1 X140.295 Y144.807 E27.99745
G1 X139.916 Y144.138 E28.03581
G1 X139.608 Y143.434 E28.07415
G1 X139.351 Y142.607 E28.11736
G1 X139.225 Y142.099 E28.14347
G1 X135.592 Y127.526 E28.89277
G1 X64.23 Y109.735 E32.56201
G1 X62.553 Y109.317 E32.64823
G1 X61.817 Y109.093 E32.68662
G1 X61.109 Y108.793 E32.72498
G1 X60.436 Y108.421 E32.76334
G1 X59.804 Y107.982 E32.80173
G1 X59.222 Y107.479 E32.84011
G1 X58.695 Y106.919 E32.87848
G1 X58.23 Y106.307 E32.91682
G1 X57.83 Y105.649 E32.95524
G1 X57.5 Y104.954 E32.99362
G1 X57.245 Y104.229 E33.03197
G1 X57.066 Y103.481 E33.07034
G1 X56.966 Y102.718 E33.10873
G1 X56.945 Y101.949 E33.14711
G1 X57.005 Y101.182 E33.18549
G1 X57.163 Y100.348 E33.22784
G1 X58.493 Y95.01 E33.5023
G1 X58.717 Y94.274 E33.54068
G1 X59.017 Y93.566 E33.57904
G1 X59.388 Y92.892 E33.61743
G1 X59.828 Y92.261 E33.6558
G1 X60.33 Y91.679 E33.69415
G1 X60.891 Y91.152 E33.73255
G1 X61.503 Y90.686 E33.77093
G1 X62.16 Y90.286 E33.8093
G1 X62.855 Y89.957 E33.84766
G1 X63.58 Y89.701 E33.88602
G1 X64.328 Y89.522 E33.92439
G1 X65.091 Y89.422 E33.96279
G1 X65.86 Y89.401 E34.00117
G1 X66.626 Y89.461 E34.0395
G1 X67.463 Y89.619 E34.08199
G0 F6000 X67.366 Y90.007
G1 F1200 X139.407 Y107.969 E37.78617
G1 X145.084 Y105.196 E38.10138
G1 X145.238 Y104.89 E38.11847
G1 X145.83 Y103.676 E38.18585
G1 X146.052 Y103.186 E38.21269
G1 X146.255 Y102.702 E38.23887
G1 X146.392 Y102.334 E38.25846
G1 X146.512 Y101.967 E38.27773
G1 X146.603 Y101.631 E38.29509
G1 X146.659 Y101.36 E38.3089
G1 X146.703 Y101.052 E38.32442
G1 X146.706 Y101.018 E38.32613
G1 X146.711 Y100.929 E38.33057
G1 X146.714 Y100.606 E38.34669
G1 X146.697 Y100.246 E38.36467
G1 X146.658 Y99.826 E38.38571
G1 X146.588 Y99.248 E38.41476
G1 X146.09 Y95.63 E38.59696
G1 X146.075 Y95.511 E38.60295
G1 X145.674 Y92.174 E38.77063
G1 X145.571 Y91.363 E38.81142
G1 X145.474 Y90.669 E38.84638
G1 X145.366 Y89.977 E38.88132
G1 X145.254 Y89.343 E38.91344
G1 X145.144 Y88.806 E38.94079
G1 X145.05 Y88.418 E38.9607
G1 X65.735 Y88.418 E42.91774
G1 X64.988 Y88.378 E42.95507
G1 X64.25 Y88.259 E42.99236
G1 X63.528 Y88.061 E43.02971
G1 X62.832 Y87.788 E43.06701
G1 X62.169 Y87.441 E43.10434
G1 X61.546 Y87.026 E43.14169
G1 X60.972 Y86.547 E43.17899
G1 X60.451 Y86.01 E43.21632
G1 X59.992 Y85.42 E43.25361
G1 X59.597 Y84.784 E43.29096
G1 X59.273 Y84.11 E43.32827
G1 X59.023 Y83.405 E43.36559
G1 X58.849 Y82.677 E43.40293
G1 X58.754 Y81.935 E43.44025
G1 X58.735 Y81.418 E43.46606
G1 X58.735 Y78.918 E43.59079
G1 X58.775 Y78.171 E43.62811
G1 X58.894 Y77.433 E43.66541
G1 X59.092 Y76.711 E43.70276
G1 X59.365 Y76.015 E43.74006
G1 X59.712 Y75.352 E43.77739
G1 X60.127 Y74.729 E43.81474
G1 X60.606 Y74.155 E43.85203
G1 X61.143 Y73.634 E43.88936
G1 X61.733 Y73.175 E43.92666
G1 X62.369 Y72.78 E43.96401
G1 X63.043 Y72.456 E44.00132
G1 X63.748 Y72.206 E44.03864
G1 X64.476 Y72.032 E44.07598
G1 X65.218 Y71.937 E44.1133
G1 X65.735 Y71.918 E44.13911
G1 X147.968 Y71.918 E48.24173
G1 X148.264 Y71.869 E48.2567
G1 X148.636 Y71.818 E48.27543
G1 X149.023 Y71.775 E48.29486
G1 X149.437 Y71.741 E48.31558
G1 X149.827 Y71.721 E48.33507
G1 X150.332 Y71.714 E48.36026
G1 X150.715 Y71.722 E48.37937
G1 X151.342 Y71.763 E48.41072
G1 X151.72 Y71.805 E48.4297
G1 X152.44 Y71.923 E48.4661
G1 X152.811 Y72.004 E48.48504
G1 X153.56 Y72.212 E48.52382
G1 X153.915 Y72.332 E48.54252
G1 X154.811 Y72.706 E48.59096
G1 X155.158 Y72.88 E48.61033
G1 X155.907 Y73.316 E48.65356
G1 X156.217 Y73.523 E48.67216
G1 X156.991 Y74.122 E48.72099
G1 X157.261 Y74.363 E48.73904
G1 X157.845 Y74.949 E48.78032
G1 X158.104 Y75.242 E48.79983
G1 X158.594 Y75.865 E48.83937
G1 X158.82 Y76.188 E48.85904
G1 X159.176 Y76.752 E48.89232
G1 X159.381 Y77.114 E48.91307
G1 X159.653 Y77.645 E48.94284
G1 X159.841 Y78.055 E48.96534
G1 X160.01 Y78.455 E48.987
G1 X160.185 Y78.909 E49.01128
G1 X160.292 Y79.208 E49.02712
G1 X160.406 Y79.549 E49.04506
G1 X160.479 Y79.782 E49.05724
G1 X160.587 Y80.147 E49.07623
G1 X160.634 Y80.313 E49.08484
G1 X160.742 Y80.714 E49.10556
G1 X160.786 Y80.884 E49.11432
G1 X160.891 Y81.317 E49.13655
G1 X160.922 Y81.45 E49.14336
G1 X161.027 Y81.923 E49.16753
G1 X161.052 Y82.044 E49.1737
G1 X161.156 Y82.555 E49.19971
G1 X161.179 Y82.671 E49.20561
G1 X161.282 Y83.225 E49.23373
G1 X161.297 Y83.311 E49.23808
G1 X161.4 Y83.906 E49.26821
G1 X161.413 Y83.982 E49.27205
G1 X161.517 Y84.625 E49.30455
G1 X161.536 Y84.75 E49.31086
G1 X161.856 Y86.982 E49.42335
G1 X161.872 Y87.096 E49.42909
G1 X162.094 Y88.849 E49.51725
G1 X162.101 Y88.911 E49.52036
G1 X162.329 Y90.852 E49.61787
G1 X162.336 Y90.908 E49.62068
G1 X162.566 Y93.012 E49.72628
G1 X162.571 Y93.068 E49.72908
G1 X162.916 Y96.474 E49.89988
G1 X162.921 Y96.526 E49.90248
G1 X163.146 Y98.926 E50.02274
G1 X163.149 Y98.955 E50.0242
G1 X163.259 Y100.185 E50.08581
G1 X163.261 Y100.21 E50.08706
G1 X163.475 Y102.702 E50.21184
G1 X163.479 Y102.74 E50.21375
G1 X163.683 Y105.279 E50.34083
G1 X163.685 Y105.315 E50.34263
G1 X163.877 Y107.866 E50.47026
G1 X163.881 Y107.917 E50.47281
G1 X164.139 Y111.721 E50.66303
G1 X164.142 Y111.774 E50.66568
G1 X164.291 Y114.246 E50.78923
G1 X164.294 Y114.299 E50.79188
G1 X164.42 Y116.694 E50.91153
G1 X164.423 Y116.758 E50.91473
G1 X164.525 Y119.104 E51.03188
G1 X164.568 Y120.272 E51.09019
G1 X164.57 Y120.333 E51.09324
G1 X164.636 Y122.678 E51.21027
G1 X164.638 Y122.777 E51.21521
G1 X164.671 Y125.127 E51.33247
G1 X164.672 Y125.207 E51.33646
G1 X164.675 Y126.376 E51.39478
G1 X164.675 Y126.449 E51.39842
G1 X164.666 Y127.59 E51.45535
G1 X164.665 Y127.679 E51.45979
G1 X164.642 Y128.797 E51.51558
G1 X164.639 Y128.884 E51.51992
G1 X164.603 Y129.974 E51.57433
G1 X164.599 Y130.081 E51.57967
G1 X164.548 Y131.137 E51.63242
G1 X164.541 Y131.259 E51.63852
G1 X164.474 Y132.277 E51.68941
G1 X164.464 Y132.412 E51.69617
G1 X164.381 Y133.385 E51.74489
G1 X164.37 Y133.498 E51.75055
G1 X164.322 Y133.97 E51.77422
G1 X164.311 Y134.074 E51.77944
G1 X164.258 Y134.528 E51.80224
G1 X164.246 Y134.621 E51.80692
G1 X164.189 Y135.058 E51.82891
G1 X164.175 Y135.161 E51.83409
G1 X164.114 Y135.58 E51.85522
G1 X164.096 Y135.698 E51.86117
G1 X164.031 Y136.097 E51.88134
G1 X164.011 Y136.212 E51.88717
G1 X163.942 Y136.595 E51.90658
G1 X163.916 Y136.73 E51.91344
G1 X163.843 Y137.094 E51.93196
G1 X163.812 Y137.243 E51.93955
G1 X163.735 Y137.588 E51.95719
G1 X163.704 Y137.722 E51.96405
G1 X163.624 Y138.05 E51.9809
G1 X163.572 Y138.248 E51.99111
G1 X163.487 Y138.557 E52.0071
G1 X163.436 Y138.734 E52.01629
G1 X163.347 Y139.027 E52.03157
G1 X163.275 Y139.25 E52.04326
G1 X163.182 Y139.523 E52.05764
G1 X163.111 Y139.721 E52.06814
G1 X163.014 Y139.98 E52.08194
G1 X162.911 Y140.24 E52.09589
G1 X162.81 Y140.48 E52.10888
G1 X162.702 Y140.724 E52.12219
G1 X162.598 Y140.947 E52.13447
G1 X162.449 Y141.247 E52.15118
G1 X162.338 Y141.458 E52.16307
G1 X162.143 Y141.805 E52.18293
G1 X162.021 Y142.008 E52.19475
G1 X161.75 Y142.424 E52.21952
G1 X161.618 Y142.612 E52.23098
G1 X161.309 Y143.019 E52.25647
G1 X161.166 Y143.194 E52.26775
G1 X160.759 Y143.651 E52.29828
G1 X160.605 Y143.809 E52.30929
G1 X160.028 Y144.338 E52.34834
G1 X159.862 Y144.474 E52.35905
G1 X159.234 Y144.933 E52.39785
G1 X159.052 Y145.051 E52.40868
G1 X158.148 Y145.546 E52.46009
G1 X157.955 Y145.634 E52.47068
G1 X157.021 Y145.982 E52.5204
G1 X156.813 Y146.043 E52.53122
G1 X155.774 Y146.264 E52.58421
G1 X155.558 Y146.293 E52.59509
G1 X154.627 Y146.355 E52.64164
G1 X154.414 Y146.355 E52.65226
G1 X153.887 Y146.335 E52.67858
G1 X153.489 Y146.305 E52.69849
G1 X152.761 Y146.484 E52.73589
G1 X148.232 Y147.617 E52.96881
G1 X147.497 Y147.759 E53.00615
G1 X146.752 Y147.823 E53.04346
G1 X146.004 Y147.806 E53.08079
G1 X145.262 Y147.71 E53.11811
